; GCode generated by CraftWare

G28 X0 Y0
G28 Z0

M190 S70 ;set bed temp (wait)
M109 S220 ;set head temp (wait)
; ------------------------------------
; Layer #0
; ------------------------------------
G21 ; mm
G90 ; abs
G92 E0 ; reset extr
M106 S0
;segType:Skirt
G0 F4800 E-1.0000
G0 F300 Z0.200
G0 X107.955 Y173.364 F10800
G0 F4800 E0.0000
G1 X111.588 Y177.159 E0.1747 F600
G1 X111.838 Y177.290 E0.1841
G1 X112.840 Y177.683 E0.2199
G1 X113.717 Y177.814 E0.2494
G1 X146.533 Y177.814 E1.3409
G1 X146.659 Y177.683 E1.3469
G1 X147.160 Y177.683 E1.3636
G1 X147.285 Y177.552 E1.3696
G1 X147.536 Y177.552 E1.3780
G1 X148.475 Y176.963 E1.4148
G1 X151.982 Y173.298 E1.5835
G1 X152.358 Y172.644 E1.6086
G1 X152.483 Y172.251 E1.6224
G1 X152.608 Y172.120 E1.6284
G1 X152.608 Y171.597 E1.6458
G1 X152.733 Y171.204 E1.6595
G1 X152.733 Y78.008 E4.7592
G1 X152.608 Y77.877 E4.7652
G1 X152.608 Y77.354 E4.7827
G1 X152.483 Y76.961 E4.7964
G1 X151.919 Y75.979 E4.8340
G1 X148.412 Y72.314 E5.0027
G1 X147.786 Y71.922 E5.0273
G1 X147.410 Y71.791 E5.0405
G1 X147.285 Y71.660 E5.0466
G1 X145.531 Y71.398 E5.1055
G1 X113.967 Y71.398 E6.1554
G1 X113.592 Y71.529 E6.1686
G1 X113.091 Y71.529 E6.1853
G1 X112.965 Y71.660 E6.1913
G1 X112.527 Y71.725 E6.2060
G1 X112.214 Y71.922 E6.2183
G1 X111.838 Y72.053 E6.2316
G1 X111.525 Y72.249 E6.2438
G1 X107.767 Y76.176 E6.4246
G1 X107.642 Y76.568 E6.4383
G1 X107.266 Y77.223 E6.4634
G1 X107.266 Y77.746 E6.4808
G1 X107.141 Y78.139 E6.4945
G1 X107.141 Y171.335 E9.5942
G1 X107.204 Y171.400 E9.5973
G0 F4800 E8.5973
G0 X113.181 Y172.150 F10800
G0 X115.589 Y172.702
G0 X148.240 Y165.438
G0 F4800 E9.5973
;segType:HShell
G1 X146.420 Y167.341 E9.6848 F600
G1 X146.784 Y167.516
G1 X148.240 Y165.994 E9.7549
G1 X148.240 Y166.550
G1 X147.048 Y167.796 E9.8123
G1 X147.290 Y168.099
G1 X148.240 Y167.106 E9.8580
G1 X148.240 Y167.662
G1 X147.531 Y168.403 E9.8921
G1 X147.713 Y168.769
G1 X148.240 Y168.218 E9.9175
G1 X148.240 Y168.774
G1 X147.815 Y169.218 E9.9379
G1 X147.918 Y169.667
G1 X148.240 Y169.330 E9.9535
G1 X148.224 Y169.902
G1 X147.873 Y170.270 E9.9704
;segType:Perimeter
G0 X148.278 Y170.483 F10800
G1 X148.626 Y171.090 E9.9936 F359
G1 X148.116 Y172.093 E10.0311
G1 X147.277 Y172.932 E10.0705
G1 X146.218 Y173.471 E10.1101
G1 X145.027 Y173.660 E10.1501
G1 X114.972 Y173.660 E11.1498
G1 X113.782 Y173.471 E11.1899
G1 X112.723 Y172.932 E11.2294
G1 X111.884 Y172.093 E11.2689
G1 X111.347 Y171.038 E11.3082
G1 X111.159 Y169.853 E11.3481
G1 X111.159 Y79.359 E14.3580
G1 X111.347 Y78.174 E14.3979
G1 X111.884 Y77.119 E14.4372
G1 X112.723 Y76.280 E14.4767
G1 X113.782 Y75.741 E14.5162
G1 X114.972 Y75.552 E14.5563
G1 X145.027 Y75.552 E15.5560
G1 X146.218 Y75.741 E15.5960
G1 X147.277 Y76.280 E15.6356
G1 X148.116 Y77.119 E15.6750
G1 X148.653 Y78.174 E15.7144
G1 X148.840 Y79.359 E15.7543
G1 X148.840 Y169.853 E18.7641
G1 X148.662 Y170.980 E18.8021
G1 X148.032 Y171.240
;segType:Loop
G0 X147.814 Y171.796 F10800
G1 X147.793 Y171.837 E18.8036 F600
G1 X147.046 Y172.585 E18.8388
G1 X146.098 Y173.068 E18.8742
G1 X144.997 Y173.242 E18.9112
G1 X115.002 Y173.242 E19.9089
G1 X113.902 Y173.068 E19.9459
G1 X112.954 Y172.585 E19.9813
G1 X112.207 Y171.837 E20.0164
G1 X111.731 Y170.902 E20.0513
G1 X111.559 Y169.819 E20.0878
G1 X111.559 Y79.393 E23.0954
G1 X111.731 Y78.310 E23.1319
G1 X112.207 Y77.375 E23.1668
G1 X112.954 Y76.628 E23.2019
G1 X113.902 Y76.144 E23.2373
G1 X115.002 Y75.970 E23.2743
G1 X144.997 Y75.970 E24.2720
G1 X146.098 Y76.144 E24.3090
G1 X147.046 Y76.628 E24.3444
G1 X147.793 Y77.375 E24.3796
G1 X148.269 Y78.310 E24.4145
G1 X148.440 Y79.393 E24.4510
G1 X148.440 Y169.819 E27.4585
G1 X148.269 Y170.902 E27.4950
G1 X147.902 Y171.622 E27.5219
G0 F4800 E26.5219
G0 X147.496 Y171.018 F10800
G0 F4800 E27.5219
G1 X147.485 Y171.069 E27.5236 F600
G1 X146.726 Y172.022 E27.5641
G1 X145.641 Y172.544 E27.6041
G1 X144.444 Y172.544 E27.6440
G1 X143.360 Y172.022 E27.6840
G1 X142.600 Y171.069 E27.7245
G1 X142.327 Y169.870 E27.7654
G1 X142.600 Y168.671 E27.8063
G1 X143.360 Y167.718 E27.8468
G1 X144.444 Y167.196 E27.8869
G1 X145.641 Y167.196 E27.9267
G1 X146.726 Y167.718 E27.9667
G1 X147.485 Y168.671 E28.0072
G1 X147.758 Y169.870 E28.0482
G1 X147.540 Y170.827 E28.0808
;segType:Perimeter
G0 X147.754 Y169.372 F10800
G1 X147.334 Y169.927 E28.1040 F359
G1 X147.117 Y170.877 E28.1364
G1 X146.476 Y171.682 E28.1706
G1 X145.553 Y172.126 E28.2046
G1 X144.532 Y172.126 E28.2386
G1 X143.609 Y171.682 E28.2727
G1 X142.968 Y170.877 E28.3069
G1 X142.738 Y169.870 E28.3413
G1 X142.968 Y168.863 E28.3756
G1 X143.609 Y168.058 E28.4098
G1 X144.532 Y167.614 E28.4439
G1 X145.553 Y167.614 E28.4779
G1 X146.476 Y168.058 E28.5119
G1 X147.117 Y168.863 E28.5462
G1 X147.334 Y169.813 E28.5786
G1 X147.754 Y170.368
G0 X147.397 Y170.498 F10800
G0 X147.535 Y169.870
G0 X147.286 Y168.775
G0 X146.590 Y167.903
G0 X145.594 Y167.422
G0 X125.062 Y163.533
;segType:HShell
G1 X115.972 Y173.033 E29.0159 F600
G1 X115.440 Y173.033
G1 X115.800 Y172.657 E29.0332
G1 X115.176 Y172.753
G1 X114.922 Y173.018 E29.0454
G1 X114.460 Y172.945
G1 X114.644 Y172.753 E29.0542
G1 X114.176 Y172.686
G1 X113.998 Y172.871 E29.0627
G1 X113.633 Y172.698
G1 X113.812 Y172.511 E29.0713
G1 X113.448 Y172.335
G1 X113.275 Y172.516 E29.0796
G1 X112.954 Y172.295
G1 X113.106 Y172.137 E29.0869
G1 X112.864 Y171.834
G1 X112.682 Y172.023 E29.0957
G1 X112.411 Y171.751
G1 X112.622 Y171.530 E29.1058
G1 X112.380 Y171.227
G1 X112.212 Y171.403 E29.1139
G1 X112.028 Y171.040
G1 X112.250 Y170.808 E29.1246
;segType:Perimeter
G0 X112.246 Y170.368 F10800
G1 X112.666 Y169.813 E29.1477 F359
G1 X112.882 Y168.863 E29.1801
G1 X113.524 Y168.058 E29.2144
G1 X114.446 Y167.614 E29.2484
G1 X115.468 Y167.614 E29.2824
G1 X116.391 Y168.058 E29.3165
G1 X117.032 Y168.863 E29.3507
G1 X117.262 Y169.870 E29.3850
G1 X117.032 Y170.877 E29.4194
G1 X116.391 Y171.682 E29.4536
G1 X115.468 Y172.126 E29.4877
G1 X114.446 Y172.126 E29.5217
G1 X113.524 Y171.682 E29.5557
G1 X112.882 Y170.877 E29.5900
G1 X112.666 Y169.927 E29.6223
G1 X112.246 Y169.372
;segType:Loop
G0 X112.503 Y168.722 F10800
G1 X112.515 Y168.671 E29.6241 F600
G1 X113.274 Y167.718 E29.6646
G1 X114.359 Y167.196 E29.7046
G1 X115.556 Y167.196 E29.7445
G1 X116.640 Y167.718 E29.7845
G1 X117.400 Y168.671 E29.8250
G1 X117.673 Y169.870 E29.8659
G1 X117.400 Y171.069 E29.9068
G1 X116.640 Y172.022 E29.9473
G1 X115.556 Y172.544 E29.9874
G1 X114.359 Y172.544 E30.0272
G1 X113.274 Y172.022 E30.0672
G1 X112.515 Y171.069 E30.1077
G1 X112.241 Y169.870 E30.1486
G1 X112.460 Y168.913 E30.1813
G0 X113.800 Y86.167 F10800
G0 X116.642 Y81.723
;segType:HShell
G1 X111.759 Y86.825 E30.4161 F600
G1 X111.759 Y87.381
G1 X113.333 Y85.737 E30.4918
G1 X113.333 Y86.293
G1 X111.759 Y87.937 E30.5675
G1 X111.759 Y88.493
G1 X113.333 Y86.849 E30.6432
;segType:Perimeter
G0 X113.364 Y86.577 F10800
G1 X113.989 Y86.306 E30.6658 F359
G1 X146.067 Y86.306 E31.7328
G1 X146.067 Y162.906 E34.2805
G1 X113.933 Y162.906 E35.3493
G1 X113.933 Y86.365 E37.8950
G1 X114.192 Y85.712
;segType:Loop
G0 X114.967 Y85.888 F10800
G1 X146.467 Y85.888 E38.9427 F600
G1 X146.467 Y163.324 E41.5182
G1 X113.533 Y163.324 E42.6137
G1 X113.533 Y85.888 E45.1892
G1 X114.779 Y85.888 E45.2306
G0 X112.714 Y80.437 F10800
G0 X112.465 Y79.342
G0 X112.714 Y78.247
G0 X113.660 Y76.500
;segType:HShell
G1 X113.174 Y77.009 E45.2540 F600
G1 X113.085 Y77.102
G1 X111.991 Y78.245 E45.3067
G1 X112.212 Y78.570
G1 X111.829 Y78.970 E45.3251
G1 X111.759 Y79.598
G1 X112.046 Y79.299 E45.3389
G1 X112.132 Y79.765
G1 X111.759 Y80.154 E45.3568
G1 X111.759 Y80.710
G1 X112.235 Y80.214 E45.3796
;segType:Loop
G0 X112.503 Y78.194 F10800
G1 X112.515 Y78.143 E45.3814 F600
G1 X113.274 Y77.191 E45.4219
G1 X114.359 Y76.668 E45.4619
G1 X115.556 Y76.668 E45.5018
G1 X116.640 Y77.191 E45.5418
G1 X117.400 Y78.143 E45.5823
G1 X117.673 Y79.342 E45.6232
G1 X117.400 Y80.541 E45.6641
G1 X116.640 Y81.494 E45.7046
G1 X115.556 Y82.016 E45.7447
G1 X114.359 Y82.016 E45.7845
G1 X113.274 Y81.494 E45.8245
G1 X112.515 Y80.541 E45.8650
G1 X112.241 Y79.342 E45.9059
G1 X112.460 Y78.385 E45.9386
;segType:Perimeter
G0 X112.246 Y79.840 F10800
G1 X112.666 Y79.285 E45.9617 F359
G1 X112.882 Y78.335 E45.9941
G1 X113.524 Y77.531 E46.0284
G1 X114.446 Y77.086 E46.0624
G1 X115.468 Y77.086 E46.0964
G1 X116.391 Y77.531 E46.1305
G1 X117.032 Y78.335 E46.1647
G1 X117.262 Y79.342 E46.1990
G1 X117.032 Y80.349 E46.2334
G1 X116.391 Y81.154 E46.2676
G1 X115.468 Y81.598 E46.3017
G1 X114.446 Y81.598 E46.3357
G1 X113.524 Y81.154 E46.3697
G1 X112.882 Y80.349 E46.4039
G1 X112.666 Y79.399 E46.4363
G1 X112.246 Y78.844
G0 X114.406 Y76.894 F10800
G0 X143.696 Y76.799
;segType:HShell
G1 X144.288 Y76.179 E46.4648 F600
G1 X144.552 Y76.459
G1 X144.820 Y76.179 E46.4777
G1 X145.303 Y76.230
G1 X145.084 Y76.459 E46.4882
G1 X145.616 Y76.459
G1 X145.765 Y76.303 E46.4954
G1 X146.184 Y76.421
G1 X146.002 Y76.612 E46.5042
G1 X146.366 Y76.787
G1 X146.542 Y76.603 E46.5126
G1 X146.899 Y76.786
G1 X146.730 Y76.963 E46.5208
G1 X147.012 Y77.224
G1 X147.178 Y77.050 E46.5288
G1 X147.450 Y77.322
G1 X147.254 Y77.527 E46.5382
G1 X147.496 Y77.830
G1 X147.693 Y77.624 E46.5477
G1 X147.878 Y77.987
G1 X147.698 Y78.175 E46.5564
G1 X147.800 Y78.624
G1 X148.062 Y78.350 E46.5690
G1 X148.147 Y78.818
G1 X147.903 Y79.073 E46.5807
;segType:Loop
G0 X147.496 Y80.490 F10800
G1 X147.485 Y80.541 E46.5824 F600
G1 X146.726 Y81.494 E46.6230
G1 X145.641 Y82.016 E46.6630
G1 X144.444 Y82.016 E46.7028
G1 X143.360 Y81.494 E46.7429
G1 X142.600 Y80.541 E46.7834
G1 X142.327 Y79.342 E46.8243
G1 X142.600 Y78.143 E46.8652
G1 X143.360 Y77.191 E46.9057
G1 X144.444 Y76.668 E46.9457
G1 X145.641 Y76.668 E46.9856
G1 X146.726 Y77.191 E47.0256
G1 X147.485 Y78.143 E47.0661
G1 X147.758 Y79.342 E47.1070
G1 X147.540 Y80.299 E47.1397
;segType:Perimeter
G0 X147.754 Y78.844 F10800
G1 X147.334 Y79.399 E47.1628 F359
G1 X147.117 Y80.349 E47.1952
G1 X146.476 Y81.154 E47.2294
G1 X145.553 Y81.598 E47.2635
G1 X144.532 Y81.598 E47.2975
G1 X143.609 Y81.154 E47.3315
G1 X142.968 Y80.349 E47.3658
G1 X142.738 Y79.342 E47.4001
G1 X142.968 Y78.335 E47.4345
G1 X143.609 Y77.531 E47.4687
G1 X144.532 Y77.086 E47.5027
G1 X145.553 Y77.086 E47.5367
G1 X146.476 Y77.531 E47.5708
G1 X147.117 Y78.335 E47.6050
G1 X147.334 Y79.285 E47.6374
G1 X147.754 Y79.840
;segType:HShell
G0 X147.731 Y80.364 F10800
G1 X148.240 Y79.832 E47.6619 F600
G1 X148.222 Y79.295
G1 X147.897 Y79.634 E47.6775
G0 X146.620 Y81.279 F10800
G0 X145.418 Y82.225
G1 X142.113 Y85.679 E47.8365 F600
G1 X141.581 Y85.679
G1 X144.886 Y82.225 E47.9955
G1 X144.368 Y82.210
G1 X141.049 Y85.679 E48.1552
G1 X140.517 Y85.679
G1 X144.004 Y82.035 E48.3230
G1 X143.640 Y81.859
G1 X139.985 Y85.679 E48.4988
G1 X139.453 Y85.679
G1 X143.276 Y81.684 E48.6828
G1 X143.021 Y81.395
G1 X138.921 Y85.679 E48.8800
G1 X138.389 Y85.679
G1 X142.779 Y81.092 E49.0912
G1 X142.537 Y80.789
G1 X137.857 Y85.679 E49.3163
G1 X137.325 Y85.679
G1 X142.365 Y80.412 E49.5588
G1 X142.263 Y79.963
G1 X136.793 Y85.679 E49.8219
G1 X136.261 Y85.679
G1 X142.161 Y79.514 E50.1057
G1 X142.224 Y78.892
G1 X135.729 Y85.679 E50.4181
G1 X135.197 Y85.679
G1 X142.390 Y78.163 E50.7641
G0 X143.756 Y76.179 F10800
G1 X134.666 Y85.679 E51.2015 F600
G1 X134.134 Y85.679
G1 X143.224 Y76.179 E51.6388
G1 X142.692 Y76.179
G1 X133.602 Y85.679 E52.0761
G1 X133.070 Y85.679
G1 X142.160 Y76.179 E52.5134
G1 X141.628 Y76.179
G1 X132.538 Y85.679 E52.9507
G1 X132.006 Y85.679
G1 X141.096 Y76.179 E53.3881
G1 X140.564 Y76.179
G1 X131.474 Y85.679 E53.8254
G1 X130.942 Y85.679
G1 X140.032 Y76.179 E54.2627
G1 X139.500 Y76.179
G1 X130.410 Y85.679 E54.7000
G1 X129.878 Y85.679
G1 X138.969 Y76.179 E55.1373
G1 X138.437 Y76.179
G1 X129.346 Y85.679 E55.5747
G1 X128.814 Y85.679
G1 X137.905 Y76.179 E56.0120
G1 X137.373 Y76.179
G1 X128.282 Y85.679 E56.4493
G1 X127.750 Y85.679
G1 X136.841 Y76.179 E56.8866
G1 X136.309 Y76.179
G1 X127.218 Y85.679 E57.3240
G1 X126.686 Y85.679
G1 X135.777 Y76.179 E57.7613
G1 X135.245 Y76.179
G1 X126.154 Y85.679 E58.1986
G1 X125.623 Y85.679
G1 X134.713 Y76.179 E58.6359
G1 X134.181 Y76.179
G1 X125.091 Y85.679 E59.0732
G1 X124.559 Y85.679
G1 X133.649 Y76.179 E59.5106
G1 X133.117 Y76.179
G1 X124.027 Y85.679 E59.9479
G1 X123.495 Y85.679
G1 X132.585 Y76.179 E60.3852
G1 X132.053 Y76.179
G1 X122.963 Y85.679 E60.8225
G1 X122.431 Y85.679
G1 X131.521 Y76.179 E61.2598
G1 X130.989 Y76.179
G1 X121.899 Y85.679 E61.6972
G1 X121.367 Y85.679
G1 X130.457 Y76.179 E62.1345
G1 X129.926 Y76.179
G1 X120.835 Y85.679 E62.5718
G1 X120.303 Y85.679
G1 X129.394 Y76.179 E63.0091
G1 X128.862 Y76.179
G1 X119.771 Y85.679 E63.4464
G1 X119.239 Y85.679
G1 X128.330 Y76.179 E63.8838
G1 X127.798 Y76.179
G1 X118.707 Y85.679 E64.3211
G1 X118.175 Y85.679
G1 X127.266 Y76.179 E64.7584
G1 X126.734 Y76.179
G1 X117.643 Y85.679 E65.1957
G1 X117.111 Y85.679
G1 X126.202 Y76.179 E65.6330
G1 X125.670 Y76.179
G1 X116.580 Y85.679 E66.0703
G1 X116.048 Y85.679
G1 X125.138 Y76.179 E66.5077
G1 X124.606 Y76.179
G1 X115.516 Y85.679 E66.9450
G1 X114.984 Y85.679
G1 X124.074 Y76.179 E67.3823
G1 X123.542 Y76.179
G1 X114.452 Y85.679 E67.8196
G1 X113.920 Y85.679
G1 X123.010 Y76.179 E68.2569
G1 X122.478 Y76.179
G1 X113.388 Y85.679 E68.6942
G0 X112.465 Y79.342 F10800
G0 X112.714 Y78.247
G0 X114.407 Y76.276
G1 X114.161 Y76.533 E68.7061 F600
G1 X114.764 Y76.459
G1 X115.031 Y76.179 E68.7190
G1 X115.563 Y76.179
G1 X115.296 Y76.459 E68.7319
G1 X115.756 Y76.534
G1 X116.095 Y76.179 E68.7482
G1 X116.627 Y76.179
G1 X116.120 Y76.710 E68.7726
G1 X116.484 Y76.885
G1 X117.159 Y76.179 E68.8051
G1 X117.691 Y76.179
G1 X116.820 Y77.090 E68.8470
G1 X117.062 Y77.393
G1 X118.223 Y76.179 E68.9028
G1 X118.755 Y76.179
G1 X117.304 Y77.696 E68.9726
G1 X117.545 Y77.999
G1 X119.287 Y76.179 E69.0564
G1 X119.819 Y76.179
G1 X117.670 Y78.425 E69.1598
G1 X117.772 Y78.874
G1 X120.351 Y76.179 E69.2838
G1 X120.883 Y76.179
G1 X117.874 Y79.323 E69.4286
G1 X117.719 Y80.041
G1 X121.414 Y76.179 E69.6063
G1 X121.946 Y76.179
G1 X117.098 Y81.246 E69.8396
G0 X115.654 Y82.199 F10800
G1 X111.759 Y86.269 E70.0270 F600
G1 X111.759 Y85.713
G1 X115.097 Y82.225 E70.1875
G1 X114.565 Y82.225
G1 X111.759 Y85.157 E70.3225
G1 X111.759 Y84.601
G1 X114.122 Y82.132 E70.4362
G1 X113.758 Y81.957
G1 X111.759 Y84.046 E70.5323
G1 X111.759 Y83.490
G1 X113.394 Y81.782 E70.6110
G1 X113.070 Y81.564
G1 X111.759 Y82.934 E70.6740
G1 X111.759 Y82.378
G1 X112.828 Y81.261 E70.7254
G1 X112.587 Y80.958
G1 X111.759 Y81.822 E70.7652
G1 X111.759 Y81.266
G1 X112.345 Y80.654 E70.7934
G0 X113.333 Y87.405 F10800
G1 X111.759 Y89.049 E70.8691 F600
G1 X111.759 Y89.604
G1 X113.333 Y87.961 E70.9447
G1 X113.333 Y88.516
G1 X111.759 Y90.160 E71.0204
G1 X111.759 Y90.716
G1 X113.333 Y89.072 E71.0961
G1 X113.333 Y89.628
G1 X111.759 Y91.272 E71.1718
G1 X111.759 Y91.828
G1 X113.333 Y90.184 E71.2474
G1 X113.333 Y90.740
G1 X111.759 Y92.384 E71.3231
G1 X111.759 Y92.940
G1 X113.333 Y91.296 E71.3988
G1 X113.333 Y91.852
G1 X111.759 Y93.496 E71.4745
G1 X111.759 Y94.052
G1 X113.333 Y92.408 E71.5501
G1 X113.333 Y92.964
G1 X111.759 Y94.607 E71.6258
G1 X111.759 Y95.163
G1 X113.333 Y93.519 E71.7015
G1 X113.333 Y94.075
G1 X111.759 Y95.719 E71.7772
G1 X111.759 Y96.275
G1 X113.333 Y94.631 E71.8528
G1 X113.333 Y95.187
G1 X111.759 Y96.831 E71.9285
G1 X111.759 Y97.387
G1 X113.333 Y95.743 E72.0042
G1 X113.333 Y96.299
G1 X111.759 Y97.943 E72.0799
G1 X111.759 Y98.499
G1 X113.333 Y96.855 E72.1555
G1 X113.333 Y97.411
G1 X111.759 Y99.055 E72.2312
G1 X111.759 Y99.610
G1 X113.333 Y97.967 E72.3069
G1 X113.333 Y98.522
G1 X111.759 Y100.166 E72.3826
G1 X111.759 Y100.722
G1 X113.333 Y99.078 E72.4582
G1 X113.333 Y99.634
G1 X111.759 Y101.278 E72.5339
G1 X111.759 Y101.834
G1 X113.333 Y100.190 E72.6096
G1 X113.333 Y100.746
G1 X111.759 Y102.390 E72.6853
G1 X111.759 Y102.946
G1 X113.333 Y101.302 E72.7610
G1 X113.333 Y101.858
G1 X111.759 Y103.502 E72.8366
G1 X111.759 Y104.058
G1 X113.333 Y102.414 E72.9123
G1 X113.333 Y102.970
G1 X111.759 Y104.613 E72.9880
G1 X111.759 Y105.169
G1 X113.333 Y103.525 E73.0637
G1 X113.333 Y104.081
G1 X111.759 Y105.725 E73.1393
G1 X111.759 Y106.281
G1 X113.333 Y104.637 E73.2150
G1 X113.333 Y105.193
G1 X111.759 Y106.837 E73.2907
G1 X111.759 Y107.393
G1 X113.333 Y105.749 E73.3664
G1 X113.333 Y106.305
G1 X111.759 Y107.949 E73.4420
G1 X111.759 Y108.505
G1 X113.333 Y106.861 E73.5177
G1 X113.333 Y107.417
G1 X111.759 Y109.061 E73.5934
G1 X111.759 Y109.616
G1 X113.333 Y107.973 E73.6691
G1 X113.333 Y108.528
G1 X111.759 Y110.172 E73.7447
G1 X111.759 Y110.728
G1 X113.333 Y109.084 E73.8204
G1 X113.333 Y109.640
G1 X111.759 Y111.284 E73.8961
G1 X111.759 Y111.840
G1 X113.333 Y110.196 E73.9718
G1 X113.333 Y110.752
G1 X111.759 Y112.396 E74.0474
G1 X111.759 Y112.952
G1 X113.333 Y111.308 E74.1231
G1 X113.333 Y111.864
G1 X111.759 Y113.508 E74.1988
G1 X111.759 Y114.064
G1 X113.333 Y112.420 E74.2745
G1 X113.333 Y112.976
G1 X111.759 Y114.619 E74.3501
G1 X111.759 Y115.175
G1 X113.333 Y113.531 E74.4258
G1 X113.333 Y114.087
G1 X111.759 Y115.731 E74.5015
G1 X111.759 Y116.287
G1 X113.333 Y114.643 E74.5772
G1 X113.333 Y115.199
G1 X111.759 Y116.843 E74.6529
G1 X111.759 Y117.399
G1 X113.333 Y115.755 E74.7285
G1 X113.333 Y116.311
G1 X111.759 Y117.955 E74.8042
G1 X111.759 Y118.511
G1 X113.333 Y116.867 E74.8799
G1 X113.333 Y117.423
G1 X111.759 Y119.067 E74.9556
G1 X111.759 Y119.622
G1 X113.333 Y117.979 E75.0312
G1 X113.333 Y118.534
G1 X111.759 Y120.178 E75.1069
G1 X111.759 Y120.734
G1 X113.333 Y119.090 E75.1826
G1 X113.333 Y119.646
G1 X111.759 Y121.290 E75.2583
G1 X111.759 Y121.846
G1 X113.333 Y120.202 E75.3339
G1 X113.333 Y120.758
G1 X111.759 Y122.402 E75.4096
G1 X111.759 Y122.958
G1 X113.333 Y121.314 E75.4853
G1 X113.333 Y121.870
G1 X111.759 Y123.514 E75.5610
G1 X111.759 Y124.070
G1 X113.333 Y122.426 E75.6366
G1 X113.333 Y122.982
G1 X111.759 Y124.625 E75.7123
G1 X111.759 Y125.181
G1 X113.333 Y123.537 E75.7880
G1 X113.333 Y124.093
G1 X111.759 Y125.737 E75.8637
G1 X111.759 Y126.293
G1 X113.333 Y124.649 E75.9393
G1 X113.333 Y125.205
G1 X111.759 Y126.849 E76.0150
G1 X111.759 Y127.405
G1 X113.333 Y125.761 E76.0907
G1 X113.333 Y126.317
G1 X111.759 Y127.961 E76.1664
G1 X111.759 Y128.517
G1 X113.333 Y126.873 E76.2420
G1 X113.333 Y127.429
G1 X111.759 Y129.072 E76.3177
G1 X111.759 Y129.628
G1 X113.333 Y127.985 E76.3934
G1 X113.333 Y128.540
G1 X111.759 Y130.184 E76.4691
G1 X111.759 Y130.740
G1 X113.333 Y129.096 E76.5447
G1 X113.333 Y129.652
G1 X111.759 Y131.296 E76.6204
G1 X111.759 Y131.852
G1 X113.333 Y130.208 E76.6961
G1 X113.333 Y130.764
G1 X111.759 Y132.408 E76.7718
G1 X111.759 Y132.964
G1 X113.333 Y131.320 E76.8475
G1 X113.333 Y131.876
G1 X111.759 Y133.520 E76.9231
G1 X111.759 Y134.076
G1 X113.333 Y132.432 E76.9988
G1 X113.333 Y132.988
G1 X111.759 Y134.631 E77.0745
G1 X111.759 Y135.187
G1 X113.333 Y133.543 E77.1502
G1 X113.333 Y134.099
G1 X111.759 Y135.743 E77.2258
G1 X111.759 Y136.299
G1 X113.333 Y134.655 E77.3015
G1 X113.333 Y135.211
G1 X111.759 Y136.855 E77.3772
G1 X111.759 Y137.411
G1 X113.333 Y135.767 E77.4529
G1 X113.333 Y136.323
G1 X111.759 Y137.967 E77.5285
G1 X111.759 Y138.523
G1 X113.333 Y136.879 E77.6042
G1 X113.333 Y137.435
G1 X111.759 Y139.078 E77.6799
G1 X111.759 Y139.634
G1 X113.333 Y137.991 E77.7556
G1 X113.333 Y138.546
G1 X111.759 Y140.190 E77.8312
G1 X111.759 Y140.746
G1 X113.333 Y139.102 E77.9069
G1 X113.333 Y139.658
G1 X111.759 Y141.302 E77.9826
G1 X111.759 Y141.858
G1 X113.333 Y140.214 E78.0583
G1 X113.333 Y140.770
G1 X111.759 Y142.414 E78.1339
G1 X111.759 Y142.970
G1 X113.333 Y141.326 E78.2096
G1 X113.333 Y141.882
G1 X111.759 Y143.526 E78.2853
G1 X111.759 Y144.081
G1 X113.333 Y142.438 E78.3610
G1 X113.333 Y142.994
G1 X111.759 Y144.637 E78.4366
G1 X111.759 Y145.193
G1 X113.333 Y143.549 E78.5123
G1 X113.333 Y144.105
G1 X111.759 Y145.749 E78.5880
G1 X111.759 Y146.305
G1 X113.333 Y144.661 E78.6637
G1 X113.333 Y145.217
G1 X111.759 Y146.861 E78.7394
G1 X111.759 Y147.417
G1 X113.333 Y145.773 E78.8150
G1 X113.333 Y146.329
G1 X111.759 Y147.973 E78.8907
G1 X111.759 Y148.529
G1 X113.333 Y146.885 E78.9664
G1 X113.333 Y147.441
G1 X111.759 Y149.084 E79.0421
G1 X111.759 Y149.640
G1 X113.333 Y147.997 E79.1177
G1 X113.333 Y148.552
G1 X111.759 Y150.196 E79.1934
G1 X111.759 Y150.752
G1 X113.333 Y149.108 E79.2691
G1 X113.333 Y149.664
G1 X111.759 Y151.308 E79.3448
G1 X111.759 Y151.864
G1 X113.333 Y150.220 E79.4204
G1 X113.333 Y150.776
G1 X111.759 Y152.420 E79.4961
G1 X111.759 Y152.976
G1 X113.333 Y151.332 E79.5718
G1 X113.333 Y151.888
G1 X111.759 Y153.532 E79.6475
G1 X111.759 Y154.087
G1 X113.333 Y152.444 E79.7231
G1 X113.333 Y153.000
G1 X111.759 Y154.643 E79.7988
G1 X111.759 Y155.199
G1 X113.333 Y153.555 E79.8745
G1 X113.333 Y154.111
G1 X111.759 Y155.755 E79.9502
G1 X111.759 Y156.311
G1 X113.333 Y154.667 E80.0258
G1 X113.333 Y155.223
G1 X111.759 Y156.867 E80.1015
G1 X111.759 Y157.423
G1 X113.333 Y155.779 E80.1772
G1 X113.333 Y156.335
G1 X111.759 Y157.979 E80.2529
G1 X111.759 Y158.535
G1 X113.333 Y156.891 E80.3285
G1 X113.333 Y157.447
G1 X111.759 Y159.090 E80.4042
G1 X111.759 Y159.646
G1 X113.333 Y158.003 E80.4799
G1 X113.333 Y158.558
G1 X111.759 Y160.202 E80.5556
G1 X111.759 Y160.758
G1 X113.333 Y159.114 E80.6313
G1 X113.333 Y159.670
G1 X111.759 Y161.314 E80.7069
G1 X111.759 Y161.870
G1 X113.333 Y160.226 E80.7826
G1 X113.333 Y160.782
G1 X111.759 Y162.426 E80.8583
G1 X111.759 Y162.982
G1 X113.333 Y161.338 E80.9340
G1 X113.333 Y161.894
G1 X111.759 Y163.538 E81.0096
G1 X111.759 Y164.093
G1 X113.333 Y162.450 E81.0853
G1 X113.333 Y163.006
G1 X111.759 Y164.649 E81.1610
G1 X111.759 Y165.205
G1 X113.360 Y163.533 E81.2380
G1 X113.892 Y163.533
G1 X111.759 Y165.761 E81.3405
G1 X111.759 Y166.317
G1 X114.424 Y163.533 E81.4687
G1 X114.956 Y163.533
G1 X111.759 Y166.873 E81.6225
G1 X111.759 Y167.429
G1 X115.488 Y163.533 E81.8018
G1 X116.019 Y163.533
G1 X111.759 Y167.985 E82.0067
G1 X111.759 Y168.541
G1 X116.551 Y163.533 E82.2373
G1 X117.083 Y163.533
G1 X113.319 Y167.467 E82.4184
G1 X112.693 Y168.121
G1 X111.759 Y169.096 E82.4633
G1 X111.759 Y169.652
G1 X112.188 Y169.205 E82.4839
G1 X112.045 Y169.910
G1 X111.815 Y170.151 E82.4949
G1 X111.890 Y170.628
G1 X112.147 Y170.359 E82.5073
G0 X112.714 Y168.775 F10800
G0 X114.306 Y166.991
G1 X117.615 Y163.533 E82.6665 F600
G1 X118.147 Y163.533
G1 X114.842 Y166.987 E82.8255
G1 X115.374 Y166.987
G1 X118.679 Y163.533 E82.9845
G1 X119.211 Y163.533
G1 X115.809 Y167.088 E83.1481
G1 X116.173 Y167.263
G1 X119.743 Y163.533 E83.3199
G1 X120.275 Y163.533
G1 X116.537 Y167.439 E83.4997
G1 X116.856 Y167.662
G1 X120.807 Y163.533 E83.6897
G1 X121.339 Y163.533
G1 X117.097 Y167.965 E83.8938
G1 X117.339 Y168.269
G1 X121.871 Y163.533 E84.1118
G1 X122.403 Y163.533
G1 X117.581 Y168.572 E84.3437
G1 X117.685 Y169.019
G1 X122.935 Y163.533 E84.5963
G1 X123.467 Y163.533
G1 X117.787 Y169.468 E84.8695
G1 X117.861 Y169.947
G1 X123.999 Y163.533 E85.1648
G1 X124.531 Y163.533
G1 X117.695 Y170.677 E85.4937
G0 X125.594 Y163.533 F10800
G1 X116.504 Y173.033 E85.9310 F600
G1 X117.036 Y173.033
G1 X126.126 Y163.533 E86.3683
G1 X126.658 Y163.533
G1 X117.568 Y173.033 E86.8056
G1 X118.100 Y173.033
G1 X127.190 Y163.533 E87.2429
G1 X127.722 Y163.533
G1 X118.632 Y173.033 E87.6803
G1 X119.164 Y173.033
G1 X128.254 Y163.533 E88.1176
G1 X128.786 Y163.533
G1 X119.696 Y173.033 E88.5549
G1 X120.227 Y173.033
G1 X129.318 Y163.533 E88.9922
G1 X129.850 Y163.533
G1 X120.759 Y173.033 E89.4295
G1 X121.291 Y173.033
G1 X130.382 Y163.533 E89.8668
G1 X130.914 Y163.533
G1 X121.823 Y173.033 E90.3042
G1 X122.355 Y173.033
G1 X131.446 Y163.533 E90.7415
G1 X131.978 Y163.533
G1 X122.887 Y173.033 E91.1788
G1 X123.419 Y173.033
G1 X132.510 Y163.533 E91.6161
G1 X133.042 Y163.533
G1 X123.951 Y173.033 E92.0534
G1 X124.483 Y173.033
G1 X133.574 Y163.533 E92.4907
G1 X134.105 Y163.533
G1 X125.015 Y173.033 E92.9281
G1 X125.547 Y173.033
G1 X134.637 Y163.533 E93.3654
G1 X135.169 Y163.533
G1 X126.079 Y173.033 E93.8027
G1 X126.611 Y173.033
G1 X135.701 Y163.533 E94.2400
G1 X136.233 Y163.533
G1 X127.143 Y173.033 E94.6773
G1 X127.675 Y173.033
G1 X136.765 Y163.533 E95.1147
G1 X137.297 Y163.533
G1 X128.207 Y173.033 E95.5520
G1 X128.739 Y173.033
G1 X137.829 Y163.533 E95.9893
G1 X138.361 Y163.533
G1 X129.270 Y173.033 E96.4266
G1 X129.802 Y173.033
G1 X138.893 Y163.533 E96.8639
G1 X139.425 Y163.533
G1 X130.334 Y173.033 E97.3012
G1 X130.866 Y173.033
G1 X139.957 Y163.533 E97.7386
G1 X140.489 Y163.533
G1 X131.398 Y173.033 E98.1759
G1 X131.930 Y173.033
G1 X141.021 Y163.533 E98.6132
G1 X141.553 Y163.533
G1 X132.462 Y173.033 E99.0505
G1 X132.994 Y173.033
G1 X142.085 Y163.533 E99.4878
G1 X142.617 Y163.533
G1 X133.526 Y173.033 E99.9251
G1 X134.058 Y173.033
G1 X143.148 Y163.533 E100.3625
G1 X143.680 Y163.533
G1 X134.590 Y173.033 E100.7998
G1 X135.122 Y173.033
G1 X144.212 Y163.533 E101.2371
G1 X144.744 Y163.533
G1 X135.654 Y173.033 E101.6744
G1 X136.186 Y173.033
G1 X145.276 Y163.533 E102.1117
G1 X145.808 Y163.533
G1 X136.718 Y173.033 E102.5490
G1 X137.250 Y173.033
G1 X146.340 Y163.533 E102.9864
G0 X148.240 Y164.883 F10800
G1 X146.056 Y167.165 E103.0914 F600
G1 X145.692 Y166.990
G1 X148.240 Y164.327 E103.2141
G1 X148.240 Y163.771
G1 X145.163 Y166.987 E103.3621
G1 X144.631 Y166.987
G1 X148.240 Y163.215 E103.5357
G1 X148.240 Y162.659
G1 X143.841 Y167.256 E103.7474
G0 X145.594 Y167.422 F10800
G0 X146.590 Y167.903
G0 X147.286 Y168.775
G0 X148.119 Y170.568
G1 X147.706 Y170.999 E103.7672 F600
G1 X147.713 Y171.548
G1 X146.847 Y172.453 E103.8089
G1 X146.322 Y172.446
G1 X145.900 Y172.888 E103.8292
G1 X145.273 Y172.987
G1 X145.496 Y172.753 E103.8399
G1 X144.964 Y172.753
G1 X144.697 Y173.033 E103.8528
G1 X144.165 Y173.033
G1 X144.432 Y172.753 E103.8657
G1 X144.058 Y172.588
G1 X143.633 Y173.033 E103.8861
G1 X143.101 Y173.033
G1 X143.694 Y172.413 E103.9147
G1 X143.330 Y172.237
G1 X142.569 Y173.033 E103.9513
G1 X142.037 Y173.033
G1 X143.056 Y171.968 E104.0003
G1 X142.814 Y171.664
G1 X141.505 Y173.033 E104.0633
G1 X140.973 Y173.033
G1 X142.573 Y171.361 E104.1402
G1 X142.380 Y171.006
G1 X140.441 Y173.033 E104.2335
G1 X139.909 Y173.033
G1 X142.278 Y170.557 E104.3475
G1 X142.176 Y170.108
G1 X139.377 Y173.033 E104.4821
G1 X138.845 Y173.033
G1 X142.199 Y169.528 E104.6435
G1 X142.366 Y168.798
G1 X138.313 Y173.033 E104.8384
G1 X137.782 Y173.033
G1 X148.240 Y162.103 E105.3415
G1 X148.240 Y161.547
G1 X146.667 Y163.191 E105.4172
G1 X146.667 Y162.635
G1 X148.240 Y160.991 E105.4929
G1 X148.240 Y160.435
G1 X146.667 Y162.079 E105.5686
G1 X146.667 Y161.523
G1 X148.240 Y159.880 E105.6442
G1 X148.240 Y159.324
G1 X146.667 Y160.967 E105.7199
G1 X146.667 Y160.412
G1 X148.240 Y158.768 E105.7956
G1 X148.240 Y158.212
G1 X146.667 Y159.856 E105.8713
G1 X146.667 Y159.300
G1 X148.240 Y157.656 E105.9469
G1 X148.240 Y157.100
G1 X146.667 Y158.744 E106.0226
G1 X146.667 Y158.188
G1 X148.240 Y156.544 E106.0983
G1 X148.240 Y155.988
G1 X146.667 Y157.632 E106.1740
G1 X146.667 Y157.076
G1 X148.240 Y155.432 E106.2496
G1 X148.240 Y154.877
G1 X146.667 Y156.520 E106.3253
G1 X146.667 Y155.964
G1 X148.240 Y154.321 E106.4010
G1 X148.240 Y153.765
G1 X146.667 Y155.409 E106.4767
G1 X146.667 Y154.853
G1 X148.240 Y153.209 E106.5523
G1 X148.240 Y152.653
G1 X146.667 Y154.297 E106.6280
G1 X146.667 Y153.741
G1 X148.240 Y152.097 E106.7037
G1 X148.240 Y151.541
G1 X146.667 Y153.185 E106.7794
G1 X146.667 Y152.629
G1 X148.240 Y150.985 E106.8550
G1 X148.240 Y150.429
G1 X146.667 Y152.073 E106.9307
G1 X146.667 Y151.517
G1 X148.240 Y149.874 E107.0064
G1 X148.240 Y149.318
G1 X146.667 Y150.961 E107.0821
G1 X146.667 Y150.406
G1 X148.240 Y148.762 E107.1578
G1 X148.240 Y148.206
G1 X146.667 Y149.850 E107.2334
G1 X146.667 Y149.294
G1 X148.240 Y147.650 E107.3091
G1 X148.240 Y147.094
G1 X146.667 Y148.738 E107.3848
G1 X146.667 Y148.182
G1 X148.240 Y146.538 E107.4605
G1 X148.240 Y145.982
G1 X146.667 Y147.626 E107.5361
G1 X146.667 Y147.070
G1 X148.240 Y145.426 E107.6118
G1 X148.240 Y144.871
G1 X146.667 Y146.514 E107.6875
G1 X146.667 Y145.958
G1 X148.240 Y144.315 E107.7632
G1 X148.240 Y143.759
G1 X146.667 Y145.403 E107.8388
G1 X146.667 Y144.847
G1 X148.240 Y143.203 E107.9145
G1 X148.240 Y142.647
G1 X146.667 Y144.291 E107.9902
G1 X146.667 Y143.735
G1 X148.240 Y142.091 E108.0659
G1 X148.240 Y141.535
G1 X146.667 Y143.179 E108.1415
G1 X146.667 Y142.623
G1 X148.240 Y140.979 E108.2172
G1 X148.240 Y140.423
G1 X146.667 Y142.067 E108.2929
G1 X146.667 Y141.511
G1 X148.240 Y139.868 E108.3686
G1 X148.240 Y139.312
G1 X146.667 Y140.955 E108.4442
G1 X146.667 Y140.400
G1 X148.240 Y138.756 E108.5199
G1 X148.240 Y138.200
G1 X146.667 Y139.844 E108.5956
G1 X146.667 Y139.288
G1 X148.240 Y137.644 E108.6713
G1 X148.240 Y137.088
G1 X146.667 Y138.732 E108.7469
G1 X146.667 Y138.176
G1 X148.240 Y136.532 E108.8226
G1 X148.240 Y135.976
G1 X146.667 Y137.620 E108.8983
G1 X146.667 Y137.064
G1 X148.240 Y135.420 E108.9740
G1 X148.240 Y134.865
G1 X146.667 Y136.508 E109.0497
G1 X146.667 Y135.952
G1 X148.240 Y134.309 E109.1253
G1 X148.240 Y133.753
G1 X146.667 Y135.397 E109.2010
G1 X146.667 Y134.841
G1 X148.240 Y133.197 E109.2767
G1 X148.240 Y132.641
G1 X146.667 Y134.285 E109.3524
G1 X146.667 Y133.729
G1 X148.240 Y132.085 E109.4280
G1 X148.240 Y131.529
G1 X146.667 Y133.173 E109.5037
G1 X146.667 Y132.617
G1 X148.240 Y130.973 E109.5794
G1 X148.240 Y130.417
G1 X146.667 Y132.061 E109.6551
G1 X146.667 Y131.505
G1 X148.240 Y129.862 E109.7307
G1 X148.240 Y129.306
G1 X146.667 Y130.949 E109.8064
G1 X146.667 Y130.394
G1 X148.240 Y128.750 E109.8821
G1 X148.240 Y128.194
G1 X146.667 Y129.838 E109.9578
G1 X146.667 Y129.282
G1 X148.240 Y127.638 E110.0334
G1 X148.240 Y127.082
G1 X146.667 Y128.726 E110.1091
G1 X146.667 Y128.170
G1 X148.240 Y126.526 E110.1848
G1 X148.240 Y125.970
G1 X146.667 Y127.614 E110.2605
G1 X146.667 Y127.058
G1 X148.240 Y125.414 E110.3361
G1 X148.240 Y124.859
G1 X146.667 Y126.502 E110.4118
G1 X146.667 Y125.946
G1 X148.240 Y124.303 E110.4875
G1 X148.240 Y123.747
G1 X146.667 Y125.391 E110.5632
G1 X146.667 Y124.835
G1 X148.240 Y123.191 E110.6388
G1 X148.240 Y122.635
G1 X146.667 Y124.279 E110.7145
G1 X146.667 Y123.723
G1 X148.240 Y122.079 E110.7902
G1 X148.240 Y121.523
G1 X146.667 Y123.167 E110.8659
G1 X146.667 Y122.611
G1 X148.240 Y120.967 E110.9415
G1 X148.240 Y120.411
G1 X146.667 Y122.055 E111.0172
G1 X146.667 Y121.499
G1 X148.240 Y119.856 E111.0929
G1 X148.240 Y119.300
G1 X146.667 Y120.944 E111.1686
G1 X146.667 Y120.388
G1 X148.240 Y118.744 E111.2443
G1 X148.240 Y118.188
G1 X146.667 Y119.832 E111.3199
G1 X146.667 Y119.276
G1 X148.240 Y117.632 E111.3956
G1 X148.240 Y117.076
G1 X146.667 Y118.720 E111.4713
G1 X146.667 Y118.164
G1 X148.240 Y116.520 E111.5470
G1 X148.240 Y115.964
G1 X146.667 Y117.608 E111.6226
G1 X146.667 Y117.052
G1 X148.240 Y115.408 E111.6983
G1 X148.240 Y114.853
G1 X146.667 Y116.496 E111.7740
G1 X146.667 Y115.941
G1 X148.240 Y114.297 E111.8497
G1 X148.240 Y113.741
G1 X146.667 Y115.385 E111.9253
G1 X146.667 Y114.829
G1 X148.240 Y113.185 E112.0010
G1 X148.240 Y112.629
G1 X146.667 Y114.273 E112.0767
G1 X146.667 Y113.717
G1 X148.240 Y112.073 E112.1524
G1 X148.240 Y111.517
G1 X146.667 Y113.161 E112.2280
G1 X146.667 Y112.605
G1 X148.240 Y110.961 E112.3037
G1 X148.240 Y110.405
G1 X146.667 Y112.049 E112.3794
G1 X146.667 Y111.493
G1 X148.240 Y109.850 E112.4551
G1 X148.240 Y109.294
G1 X146.667 Y110.938 E112.5307
G1 X146.667 Y110.382
G1 X148.240 Y108.738 E112.6064
G1 X148.240 Y108.182
G1 X146.667 Y109.826 E112.6821
G1 X146.667 Y109.270
G1 X148.240 Y107.626 E112.7578
G1 X148.240 Y107.070
G1 X146.667 Y108.714 E112.8334
G1 X146.667 Y108.158
G1 X148.240 Y106.514 E112.9091
G1 X148.240 Y105.958
G1 X146.667 Y107.602 E112.9848
G1 X146.667 Y107.046
G1 X148.240 Y105.402 E113.0605
G1 X148.240 Y104.847
G1 X146.667 Y106.490 E113.1362
G1 X146.667 Y105.935
G1 X148.240 Y104.291 E113.2118
G1 X148.240 Y103.735
G1 X146.667 Y105.379 E113.2875
G1 X146.667 Y104.823
G1 X148.240 Y103.179 E113.3632
G1 X148.240 Y102.623
G1 X146.667 Y104.267 E113.4389
G1 X146.667 Y103.711
G1 X148.240 Y102.067 E113.5145
G1 X148.240 Y101.511
G1 X146.667 Y103.155 E113.5902
G1 X146.667 Y102.599
G1 X148.240 Y100.955 E113.6659
G1 X148.240 Y100.399
G1 X146.667 Y102.043 E113.7416
G1 X146.667 Y101.487
G1 X148.240 Y99.844 E113.8172
G1 X148.240 Y99.288
G1 X146.667 Y100.932 E113.8929
G1 X146.667 Y100.376
G1 X148.240 Y98.732 E113.9686
G1 X148.240 Y98.176
G1 X146.667 Y99.820 E114.0443
G1 X146.667 Y99.264
G1 X148.240 Y97.620 E114.1199
G1 X148.240 Y97.064
G1 X146.667 Y98.708 E114.1956
G1 X146.667 Y98.152
G1 X148.240 Y96.508 E114.2713
G1 X148.240 Y95.952
G1 X146.667 Y97.596 E114.3470
G1 X146.667 Y97.040
G1 X148.240 Y95.396 E114.4226
G1 X148.240 Y94.841
G1 X146.667 Y96.484 E114.4983
G1 X146.667 Y95.929
G1 X148.240 Y94.285 E114.5740
G1 X148.240 Y93.729
G1 X146.667 Y95.373 E114.6497
G1 X146.667 Y94.817
G1 X148.240 Y93.173 E114.7253
G1 X148.240 Y92.617
G1 X146.667 Y94.261 E114.8010
G1 X146.667 Y93.705
G1 X148.240 Y92.061 E114.8767
G1 X148.240 Y91.505
G1 X146.667 Y93.149 E114.9524
G1 X146.667 Y92.593
G1 X148.240 Y90.949 E115.0281
G1 X148.240 Y90.393
G1 X146.667 Y92.037 E115.1037
G1 X146.667 Y91.481
G1 X148.240 Y89.838 E115.1794
G1 X148.240 Y89.282
G1 X146.667 Y90.926 E115.2551
G1 X146.667 Y90.370
G1 X148.240 Y88.726 E115.3308
G1 X148.240 Y88.170
G1 X146.667 Y89.814 E115.4064
G1 X146.667 Y89.258
G1 X148.240 Y87.614 E115.4821
G1 X148.240 Y87.058
G1 X146.667 Y88.702 E115.5578
G1 X146.667 Y88.146
G1 X148.240 Y86.502 E115.6335
G1 X148.240 Y85.946
G1 X146.667 Y87.590 E115.7091
G1 X146.667 Y87.034
G1 X148.240 Y85.390 E115.7848
G1 X148.240 Y84.835
G1 X146.667 Y86.478 E115.8605
G1 X146.667 Y85.923
G1 X148.240 Y84.279 E115.9362
G1 X148.240 Y83.723
G1 X146.368 Y85.679 E116.0262
G1 X145.836 Y85.679
G1 X148.240 Y83.167 E116.1419
G1 X148.240 Y82.611
G1 X145.304 Y85.679 E116.2831
G1 X144.772 Y85.679
G1 X148.240 Y82.055 E116.4499
G1 X148.240 Y81.499
G1 X144.240 Y85.679 E116.6424
G1 X143.709 Y85.679
G1 X148.240 Y80.943 E116.8604
G1 X148.240 Y80.387
G1 X143.177 Y85.679 E117.1040
G1 X142.645 Y85.679
G1 X146.176 Y81.989 E117.2739
; ------------------------------------
; Layer #1
; ------------------------------------
G21 ; mm
G90 ; abs
G92 E0 ; reset extr
M106 S255
G0 F4800 E-1.0000
G0 F300 Z0.400
G0 X146.223 Y84.617 F10800
G0 X146.269 Y87.246
G0 X147.704 Y168.730
G0 F4800 E0.0000
;segType:HShell
G1 X148.240 Y169.291 E0.0258 F3600
G1 X148.234 Y169.840
G1 X147.870 Y169.460 E0.0433
G1 X147.919 Y170.067
G1 X148.159 Y170.317 E0.0548
;segType:Loop
G0 X147.496 Y171.018 F10800
G1 X147.485 Y171.069 E0.0566 F3600
G1 X146.726 Y172.022 E0.0971
G1 X145.641 Y172.544 E0.1371
G1 X144.444 Y172.544 E0.1769
G1 X143.360 Y172.022 E0.2170
G1 X142.600 Y171.069 E0.2575
G1 X142.327 Y169.870 E0.2984
G1 X142.600 Y168.671 E0.3393
G1 X143.360 Y167.718 E0.3798
G1 X144.444 Y167.196 E0.4198
G1 X145.641 Y167.196 E0.4597
G1 X146.726 Y167.718 E0.4997
G1 X147.485 Y168.671 E0.5402
G1 X147.758 Y169.870 E0.5811
G1 X147.540 Y170.827 E0.6138
;segType:Perimeter
G0 X148.278 Y170.483 F10800
G1 X148.626 Y171.090 E0.6370 F2159
G1 X148.116 Y172.093 E0.6745
G1 X147.277 Y172.932 E0.7139
G1 X146.218 Y173.471 E0.7535
G1 X145.027 Y173.660 E0.7935
G1 X114.972 Y173.660 E1.7932
G1 X113.782 Y173.471 E1.8333
G1 X112.723 Y172.932 E1.8728
G1 X111.884 Y172.093 E1.9123
G1 X111.347 Y171.038 E1.9516
G1 X111.159 Y169.853 E1.9915
G1 X111.159 Y79.359 E5.0014
G1 X111.347 Y78.174 E5.0413
G1 X111.884 Y77.119 E5.0806
G1 X112.723 Y76.280 E5.1201
G1 X113.782 Y75.741 E5.1596
G1 X114.972 Y75.552 E5.1997
G1 X145.027 Y75.552 E6.1994
G1 X146.218 Y75.741 E6.2394
G1 X147.277 Y76.280 E6.2790
G1 X148.116 Y77.119 E6.3184
G1 X148.653 Y78.174 E6.3578
G1 X148.840 Y79.359 E6.3977
G1 X148.840 Y169.853 E9.4075
G1 X148.662 Y170.980 E9.4455
G1 X148.032 Y171.240
;segType:Loop
G0 X147.814 Y171.796 F10800
G1 X147.793 Y171.837 E9.4470 F3600
G1 X147.046 Y172.585 E9.4822
G1 X146.098 Y173.068 E9.5176
G1 X144.997 Y173.242 E9.5546
G1 X115.002 Y173.242 E10.5522
G1 X113.902 Y173.068 E10.5893
G1 X112.954 Y172.585 E10.6247
G1 X112.207 Y171.837 E10.6598
G1 X111.731 Y170.902 E10.6947
G1 X111.559 Y169.819 E10.7312
G1 X111.559 Y79.393 E13.7388
G1 X111.731 Y78.310 E13.7753
G1 X112.207 Y77.375 E13.8102
G1 X112.954 Y76.628 E13.8453
G1 X113.902 Y76.144 E13.8807
G1 X115.002 Y75.970 E13.9177
G1 X144.997 Y75.970 E14.9154
G1 X146.098 Y76.144 E14.9524
G1 X147.046 Y76.628 E14.9878
G1 X147.793 Y77.375 E15.0230
G1 X148.269 Y78.310 E15.0579
G1 X148.440 Y79.393 E15.0943
G1 X148.440 Y169.819 E18.1019
G1 X148.269 Y170.902 E18.1384
G1 X147.902 Y171.622 E18.1653
G0 F4800 E17.1653
G0 X147.754 Y169.372 F10800
G0 F4800 E18.1653
;segType:Perimeter
G1 X147.334 Y169.927 E18.1884 F2159
G1 X147.117 Y170.877 E18.2208
G1 X146.476 Y171.682 E18.2550
G1 X145.553 Y172.126 E18.2891
G1 X144.532 Y172.126 E18.3231
G1 X143.609 Y171.682 E18.3571
G1 X142.968 Y170.877 E18.3914
G1 X142.738 Y169.870 E18.4257
G1 X142.968 Y168.863 E18.4601
G1 X143.609 Y168.058 E18.4943
G1 X144.532 Y167.614 E18.5284
G1 X145.553 Y167.614 E18.5623
G1 X146.476 Y168.058 E18.5964
G1 X147.117 Y168.863 E18.6306
G1 X147.334 Y169.813 E18.6630
G1 X147.754 Y170.368
G0 X147.286 Y170.965 F10800
G0 X146.590 Y171.838
G0 X145.594 Y172.318
G0 X144.491 Y172.318
G0 X111.759 Y165.633
;segType:HShell
G1 X113.453 Y167.402 E18.7445 F3600
G1 X113.109 Y167.599
G1 X111.759 Y166.188 E18.8094
G1 X111.759 Y166.744
G1 X112.867 Y167.902 E18.8627
G1 X112.626 Y168.205
G1 X111.759 Y167.300 E18.9044
G1 X111.759 Y167.856
G1 X112.384 Y168.509 E18.9344
G1 X112.251 Y168.926
G1 X111.759 Y168.412 E18.9581
G1 X111.759 Y168.968
G1 X112.149 Y169.375 E18.9768
G1 X112.046 Y169.824
G1 X111.759 Y169.524 E18.9906
G1 X111.812 Y170.135
G1 X112.185 Y170.524 E19.0086
;segType:Perimeter
G0 X112.246 Y170.368 F10800
G1 X112.666 Y169.813 E19.0317 F2159
G1 X112.882 Y168.863 E19.0641
G1 X113.524 Y168.058 E19.0983
G1 X114.446 Y167.614 E19.1324
G1 X115.468 Y167.614 E19.1664
G1 X116.391 Y168.058 E19.2004
G1 X117.032 Y168.863 E19.2347
G1 X117.262 Y169.870 E19.2690
G1 X117.032 Y170.877 E19.3034
G1 X116.391 Y171.682 E19.3376
G1 X115.468 Y172.126 E19.3716
G1 X114.446 Y172.126 E19.4056
G1 X113.524 Y171.682 E19.4397
G1 X112.882 Y170.877 E19.4739
G1 X112.666 Y169.927 E19.5063
G1 X112.246 Y169.372
;segType:Loop
G0 X112.503 Y168.722 F10800
G1 X112.515 Y168.671 E19.5080 F3600
G1 X113.274 Y167.718 E19.5486
G1 X114.359 Y167.196 E19.5886
G1 X115.556 Y167.196 E19.6284
G1 X116.640 Y167.718 E19.6684
G1 X117.400 Y168.671 E19.7090
G1 X117.673 Y169.870 E19.7499
G1 X117.400 Y171.069 E19.7908
G1 X116.640 Y172.022 E19.8313
G1 X115.556 Y172.544 E19.8713
G1 X114.359 Y172.544 E19.9111
G1 X113.274 Y172.022 E19.9512
G1 X112.515 Y171.069 E19.9917
G1 X112.241 Y169.870 E20.0326
G1 X112.460 Y168.913 E20.0652
G0 X113.800 Y86.167 F10800
G0 X114.510 Y85.679
;segType:HShell
G1 X111.759 Y82.805 E20.1975 F3600
G1 X111.759 Y83.361
G1 X113.978 Y85.679 E20.3043
G1 X113.446 Y85.679
G1 X111.759 Y83.917 E20.3854
G1 X111.759 Y84.473
G1 X113.333 Y86.117 E20.4611
;segType:Perimeter
G0 X113.364 Y86.577 F10800
G1 X113.989 Y86.306 E20.4837 F2159
G1 X146.067 Y86.306 E21.5506
G1 X146.067 Y162.906 E24.0984
G1 X113.933 Y162.906 E25.1672
G1 X113.933 Y86.365 E27.7129
G1 X114.192 Y85.712
;segType:Loop
G0 X114.967 Y85.888 F10800
G1 X146.467 Y85.888 E28.7606 F3600
G1 X146.467 Y163.324 E31.3361
G1 X113.533 Y163.324 E32.4315
G1 X113.533 Y85.888 E35.0071
G1 X114.779 Y85.888 E35.0485
;segType:HShell
G0 X112.327 Y80.619 F10800
G1 X111.759 Y80.026 E35.0758 F3600
G1 X111.759 Y79.470
G1 X112.161 Y79.889 E35.0951
;segType:Loop
G0 X112.503 Y78.194 F10800
G1 X112.515 Y78.143 E35.0968 F3600
G1 X113.274 Y77.191 E35.1374
G1 X114.359 Y76.668 E35.1774
G1 X115.556 Y76.668 E35.2172
G1 X116.640 Y77.191 E35.2572
G1 X117.400 Y78.143 E35.2978
G1 X117.673 Y79.342 E35.3387
G1 X117.400 Y80.541 E35.3796
G1 X116.640 Y81.494 E35.4201
G1 X115.556 Y82.016 E35.4601
G1 X114.359 Y82.016 E35.4999
G1 X113.274 Y81.494 E35.5400
G1 X112.515 Y80.541 E35.5805
G1 X112.241 Y79.342 E35.6214
G1 X112.460 Y78.385 E35.6541
;segType:Perimeter
G0 X112.246 Y79.840 F10800
G1 X112.666 Y79.285 E35.6772 F2159
G1 X112.882 Y78.335 E35.7096
G1 X113.524 Y77.531 E35.7438
G1 X114.446 Y77.086 E35.7779
G1 X115.468 Y77.086 E35.8119
G1 X116.391 Y77.531 E35.8459
G1 X117.032 Y78.335 E35.8801
G1 X117.262 Y79.342 E35.9145
G1 X117.032 Y80.349 E35.9488
G1 X116.391 Y81.154 E35.9831
G1 X115.468 Y81.598 E36.0171
G1 X114.446 Y81.598 E36.0511
G1 X113.524 Y81.154 E36.0852
G1 X112.882 Y80.349 E36.1194
G1 X112.666 Y79.399 E36.1518
G1 X112.246 Y78.844
G0 X114.406 Y76.894 F10800
G0 X115.508 Y76.894
G0 X148.240 Y83.684
;segType:HShell
G1 X146.479 Y81.843 E36.2365 F3600
G1 X146.843 Y81.667
G1 X148.240 Y83.128 E36.3038
G1 X148.240 Y82.572
G1 X147.087 Y81.367 E36.3593
G1 X147.329 Y81.064
G1 X148.240 Y82.016 E36.4031
G1 X148.240 Y81.460
G1 X147.571 Y80.760 E36.4353
G1 X147.729 Y80.371
G1 X148.240 Y80.904 E36.4599
G1 X148.240 Y80.348
G1 X147.832 Y79.922 E36.4796
G1 X147.934 Y79.473
G1 X148.240 Y79.793 E36.4943
G1 X148.207 Y79.202
G1 X147.846 Y78.825 E36.5117
;segType:Perimeter
G0 X147.754 Y78.844 F10800
G1 X147.334 Y79.399 E36.5348 F2159
G1 X147.117 Y80.349 E36.5672
G1 X146.476 Y81.154 E36.6015
G1 X145.553 Y81.598 E36.6355
G1 X144.532 Y81.598 E36.6695
G1 X143.609 Y81.154 E36.7036
G1 X142.968 Y80.349 E36.7378
G1 X142.738 Y79.342 E36.7721
G1 X142.968 Y78.335 E36.8065
G1 X143.609 Y77.531 E36.8407
G1 X144.532 Y77.086 E36.8748
G1 X145.553 Y77.086 E36.9088
G1 X146.476 Y77.531 E36.9428
G1 X147.117 Y78.335 E36.9770
G1 X147.334 Y79.285 E37.0094
G1 X147.754 Y79.840
;segType:Loop
G0 X147.496 Y80.490 F10800
G1 X147.485 Y80.541 E37.0112 F3600
G1 X146.726 Y81.494 E37.0517
G1 X145.641 Y82.016 E37.0917
G1 X144.444 Y82.016 E37.1315
G1 X143.360 Y81.494 E37.1716
G1 X142.600 Y80.541 E37.2121
G1 X142.327 Y79.342 E37.2530
G1 X142.600 Y78.143 E37.2939
G1 X143.360 Y77.191 E37.3344
G1 X144.444 Y76.668 E37.3744
G1 X145.641 Y76.668 E37.4143
G1 X146.726 Y77.191 E37.4543
G1 X147.485 Y78.143 E37.4948
G1 X147.758 Y79.342 E37.5357
G1 X147.540 Y80.299 E37.5684
;segType:HShell
G0 X148.102 Y78.536 F10800
G1 X147.680 Y78.095 E37.5887 F3600
G0 X146.482 Y76.843 F10800
G1 X146.001 Y76.341 E37.6118 F3600
G1 X145.374 Y76.241
G1 X145.582 Y76.459 E37.6218
G1 X145.050 Y76.459
G1 X144.783 Y76.179 E37.6347
G1 X144.251 Y76.179
G1 X144.519 Y76.459 E37.6476
G1 X144.117 Y76.595
G1 X143.719 Y76.179 E37.6667
G1 X143.187 Y76.179
G1 X143.753 Y76.771 E37.6940
G1 X143.389 Y76.946
G1 X142.655 Y76.179 E37.7293
G1 X142.123 Y76.179
G1 X143.095 Y77.195 E37.7760
G1 X142.854 Y77.499
G1 X141.591 Y76.179 E37.8368
G1 X141.059 Y76.179
G1 X142.612 Y77.802 E37.9115
G1 X142.397 Y78.133
G1 X140.527 Y76.179 E38.0014
G1 X139.995 Y76.179
G1 X142.295 Y78.582 E38.1120
G1 X142.192 Y79.031
G1 X139.463 Y76.179 E38.2433
G1 X138.931 Y76.179
G1 X142.173 Y79.566 E38.3992
G1 X142.339 Y80.296
G1 X138.400 Y76.179 E38.5887
G1 X137.868 Y76.179
G1 X148.240 Y87.019 E39.0877
G1 X148.240 Y87.575
G1 X146.667 Y85.931 E39.1634
G1 X146.667 Y86.487
G1 X148.240 Y88.131 E39.2390
G1 X148.240 Y88.687
G1 X146.667 Y87.043 E39.3147
G1 X146.667 Y87.599
G1 X148.240 Y89.243 E39.3904
G1 X148.240 Y89.799
G1 X146.667 Y88.155 E39.4661
G1 X146.667 Y88.711
G1 X148.240 Y90.354 E39.5417
G1 X148.240 Y90.910
G1 X146.667 Y89.267 E39.6174
G1 X146.667 Y89.822
G1 X148.240 Y91.466 E39.6931
G1 X148.240 Y92.022
G1 X146.667 Y90.378 E39.7688
G1 X146.667 Y90.934
G1 X148.240 Y92.578 E39.8444
G1 X148.240 Y93.134
G1 X146.667 Y91.490 E39.9201
G1 X146.667 Y92.046
G1 X148.240 Y93.690 E39.9958
G1 X148.240 Y94.246
G1 X146.667 Y92.602 E40.0714
G1 X146.667 Y93.158
G1 X148.240 Y94.802 E40.1471
G1 X148.240 Y95.357
G1 X146.667 Y93.714 E40.2228
G1 X146.667 Y94.270
G1 X148.240 Y95.913 E40.2985
G1 X148.240 Y96.469
G1 X146.667 Y94.825 E40.3741
G1 X146.667 Y95.381
G1 X148.240 Y97.025 E40.4498
G1 X148.240 Y97.581
G1 X146.667 Y95.937 E40.5255
G1 X146.667 Y96.493
G1 X148.240 Y98.137 E40.6011
G1 X148.240 Y98.693
G1 X146.667 Y97.049 E40.6768
G1 X146.667 Y97.605
G1 X148.240 Y99.249 E40.7525
G1 X148.240 Y99.805
G1 X146.667 Y98.161 E40.8282
G1 X146.667 Y98.717
G1 X148.240 Y100.360 E40.9038
G1 X148.240 Y100.916
G1 X146.667 Y99.273 E40.9795
G1 X146.667 Y99.828
G1 X148.240 Y101.472 E41.0552
G1 X148.240 Y102.028
G1 X146.667 Y100.384 E41.1309
G1 X146.667 Y100.940
G1 X148.240 Y102.584 E41.2065
G1 X148.240 Y103.140
G1 X146.667 Y101.496 E41.2822
G1 X146.667 Y102.052
G1 X148.240 Y103.696 E41.3579
G1 X148.240 Y104.252
G1 X146.667 Y102.608 E41.4335
G1 X146.667 Y103.164
G1 X148.240 Y104.808 E41.5092
G1 X148.240 Y105.363
G1 X146.667 Y103.720 E41.5849
G1 X146.667 Y104.276
G1 X148.240 Y105.919 E41.6606
G1 X148.240 Y106.475
G1 X146.667 Y104.831 E41.7362
G1 X146.667 Y105.387
G1 X148.240 Y107.031 E41.8119
G1 X148.240 Y107.587
G1 X146.667 Y105.943 E41.8876
G1 X146.667 Y106.499
G1 X148.240 Y108.143 E41.9632
G1 X148.240 Y108.699
G1 X146.667 Y107.055 E42.0389
G1 X146.667 Y107.611
G1 X148.240 Y109.255 E42.1146
G1 X148.240 Y109.811
G1 X146.667 Y108.167 E42.1903
G1 X146.667 Y108.723
G1 X148.240 Y110.366 E42.2659
G1 X148.240 Y110.922
G1 X146.667 Y109.279 E42.3416
G1 X146.667 Y109.834
G1 X148.240 Y111.478 E42.4173
G1 X148.240 Y112.034
G1 X146.667 Y110.390 E42.4930
G1 X146.667 Y110.946
G1 X148.240 Y112.590 E42.5686
G1 X148.240 Y113.146
G1 X146.667 Y111.502 E42.6443
G1 X146.667 Y112.058
G1 X148.240 Y113.702 E42.7200
G1 X148.240 Y114.258
G1 X146.667 Y112.614 E42.7956
G1 X146.667 Y113.170
G1 X148.240 Y114.814 E42.8713
G1 X148.240 Y115.369
G1 X146.667 Y113.726 E42.9470
G1 X146.667 Y114.282
G1 X148.240 Y115.925 E43.0227
G1 X148.240 Y116.481
G1 X146.667 Y114.837 E43.0983
G1 X146.667 Y115.393
G1 X148.240 Y117.037 E43.1740
G1 X148.240 Y117.593
G1 X146.667 Y115.949 E43.2497
G1 X146.667 Y116.505
G1 X148.240 Y118.149 E43.3253
G1 X148.240 Y118.705
G1 X146.667 Y117.061 E43.4010
G1 X146.667 Y117.617
G1 X148.240 Y119.261 E43.4767
G1 X148.240 Y119.817
G1 X146.667 Y118.173 E43.5524
G1 X146.667 Y118.729
G1 X148.240 Y120.372 E43.6280
G1 X148.240 Y120.928
G1 X146.667 Y119.285 E43.7037
G1 X146.667 Y119.840
G1 X148.240 Y121.484 E43.7794
G1 X148.240 Y122.040
G1 X146.667 Y120.396 E43.8551
G1 X146.667 Y120.952
G1 X148.240 Y122.596 E43.9307
G1 X148.240 Y123.152
G1 X146.667 Y121.508 E44.0064
G1 X146.667 Y122.064
G1 X148.240 Y123.708 E44.0821
G1 X148.240 Y124.264
G1 X146.667 Y122.620 E44.1577
G1 X146.667 Y123.176
G1 X148.240 Y124.820 E44.2334
G1 X148.240 Y125.375
G1 X146.667 Y123.732 E44.3091
G1 X146.667 Y124.288
G1 X148.240 Y125.931 E44.3848
G1 X148.240 Y126.487
G1 X146.667 Y124.843 E44.4604
G1 X146.667 Y125.399
G1 X148.240 Y127.043 E44.5361
G1 X148.240 Y127.599
G1 X146.667 Y125.955 E44.6118
G1 X146.667 Y126.511
G1 X148.240 Y128.155 E44.6874
G1 X148.240 Y128.711
G1 X146.667 Y127.067 E44.7631
G1 X146.667 Y127.623
G1 X148.240 Y129.267 E44.8388
G1 X148.240 Y129.823
G1 X146.667 Y128.179 E44.9145
G1 X146.667 Y128.735
G1 X148.240 Y130.378 E44.9901
G1 X148.240 Y130.934
G1 X146.667 Y129.291 E45.0658
G1 X146.667 Y129.846
G1 X148.240 Y131.490 E45.1415
G1 X148.240 Y132.046
G1 X146.667 Y130.402 E45.2171
G1 X146.667 Y130.958
G1 X148.240 Y132.602 E45.2928
G1 X148.240 Y133.158
G1 X146.667 Y131.514 E45.3685
G1 X146.667 Y132.070
G1 X148.240 Y133.714 E45.4442
G1 X148.240 Y134.270
G1 X146.667 Y132.626 E45.5198
G1 X146.667 Y133.182
G1 X148.240 Y134.826 E45.5955
G1 X148.240 Y135.381
G1 X146.667 Y133.738 E45.6712
G1 X146.667 Y134.293
G1 X148.240 Y135.937 E45.7469
G1 X148.240 Y136.493
G1 X146.667 Y134.849 E45.8225
G1 X146.667 Y135.405
G1 X148.240 Y137.049 E45.8982
G1 X148.240 Y137.605
G1 X146.667 Y135.961 E45.9739
G1 X146.667 Y136.517
G1 X148.240 Y138.161 E46.0495
G1 X148.240 Y138.717
G1 X146.667 Y137.073 E46.1252
G1 X146.667 Y137.629
G1 X148.240 Y139.273 E46.2009
G1 X148.240 Y139.829
G1 X146.667 Y138.185 E46.2766
G1 X146.667 Y138.741
G1 X148.240 Y140.384 E46.3522
G1 X148.240 Y140.940
G1 X146.667 Y139.296 E46.4279
G1 X146.667 Y139.852
G1 X148.240 Y141.496 E46.5036
G1 X148.240 Y142.052
G1 X146.667 Y140.408 E46.5792
G1 X146.667 Y140.964
G1 X148.240 Y142.608 E46.6549
G1 X148.240 Y143.164
G1 X146.667 Y141.520 E46.7306
G1 X146.667 Y142.076
G1 X148.240 Y143.720 E46.8063
G1 X148.240 Y144.276
G1 X146.667 Y142.632 E46.8819
G1 X146.667 Y143.188
G1 X148.240 Y144.832 E46.9576
G1 X148.240 Y145.387
G1 X146.667 Y143.744 E47.0333
G1 X146.667 Y144.299
G1 X148.240 Y145.943 E47.1090
G1 X148.240 Y146.499
G1 X146.667 Y144.855 E47.1846
G1 X146.667 Y145.411
G1 X148.240 Y147.055 E47.2603
G1 X148.240 Y147.611
G1 X146.667 Y145.967 E47.3360
G1 X146.667 Y146.523
G1 X148.240 Y148.167 E47.4116
G1 X148.240 Y148.723
G1 X146.667 Y147.079 E47.4873
G1 X146.667 Y147.635
G1 X148.240 Y149.279 E47.5630
G1 X148.240 Y149.835
G1 X146.667 Y148.191 E47.6387
G1 X146.667 Y148.747
G1 X148.240 Y150.390 E47.7143
G1 X148.240 Y150.946
G1 X146.667 Y149.302 E47.7900
G1 X146.667 Y149.858
G1 X148.240 Y151.502 E47.8657
G1 X148.240 Y152.058
G1 X146.667 Y150.414 E47.9413
G1 X146.667 Y150.970
G1 X148.240 Y152.614 E48.0170
G1 X148.240 Y153.170
G1 X146.667 Y151.526 E48.0927
G1 X146.667 Y152.082
G1 X148.240 Y153.726 E48.1684
G1 X148.240 Y154.282
G1 X146.667 Y152.638 E48.2440
G1 X146.667 Y153.194
G1 X148.240 Y154.838 E48.3197
G1 X148.240 Y155.393
G1 X146.667 Y153.750 E48.3954
G1 X146.667 Y154.305
G1 X148.240 Y155.949 E48.4711
G1 X148.240 Y156.505
G1 X146.667 Y154.861 E48.5467
G1 X146.667 Y155.417
G1 X148.240 Y157.061 E48.6224
G1 X148.240 Y157.617
G1 X146.667 Y155.973 E48.6981
G1 X146.667 Y156.529
G1 X148.240 Y158.173 E48.7737
G1 X148.240 Y158.729
G1 X146.667 Y157.085 E48.8494
G1 X146.667 Y157.641
G1 X148.240 Y159.285 E48.9251
G1 X148.240 Y159.841
G1 X146.667 Y158.197 E49.0008
G1 X146.667 Y158.753
G1 X148.240 Y160.396 E49.0764
G1 X148.240 Y160.952
G1 X146.667 Y159.308 E49.1521
G1 X146.667 Y159.864
G1 X148.240 Y161.508 E49.2278
G1 X148.240 Y162.064
G1 X146.667 Y160.420 E49.3034
G1 X146.667 Y160.976
G1 X148.240 Y162.620 E49.3791
G1 X148.240 Y163.176
G1 X146.667 Y161.532 E49.4548
G1 X146.667 Y162.088
G1 X148.240 Y163.732 E49.5305
G1 X148.240 Y164.288
G1 X146.667 Y162.644 E49.6061
G1 X146.667 Y163.200
G1 X148.240 Y164.844 E49.6818
G1 X148.240 Y165.399
G1 X146.454 Y163.533 E49.7677
G1 X145.922 Y163.533
G1 X148.240 Y165.955 E49.8792
G1 X148.240 Y166.511
G1 X145.390 Y163.533 E50.0163
G1 X144.858 Y163.533
G1 X148.240 Y167.067 E50.1790
G1 X148.240 Y167.623
G1 X144.327 Y163.533 E50.3673
G1 X143.795 Y163.533
G1 X148.240 Y168.179 E50.5812
G1 X148.240 Y168.735
G1 X143.263 Y163.533 E50.8207
G1 X142.731 Y163.533
G1 X146.336 Y167.301 E50.9941
G1 X145.504 Y166.987
G1 X142.199 Y163.533 E51.1531
G1 X141.667 Y163.533
G1 X144.972 Y166.987 E51.3121
G1 X144.440 Y166.987
G1 X141.135 Y163.533 E51.4711
G1 X140.603 Y163.533
G1 X144.063 Y167.149 E51.6376
G1 X143.699 Y167.325
G1 X140.071 Y163.533 E51.8121
G1 X139.539 Y163.533
G1 X143.335 Y167.500 E51.9947
G1 X143.060 Y167.768
G1 X139.007 Y163.533 E52.1897
G1 X138.475 Y163.533
G1 X142.818 Y168.071 E52.3986
G1 X142.576 Y168.374
G1 X137.943 Y163.533 E52.6215
G1 X137.411 Y163.533
G1 X142.382 Y168.727 E52.8606
G1 X142.279 Y169.176
G1 X136.879 Y163.533 E53.1204
G1 X136.347 Y163.533
G1 X142.177 Y169.625 E53.4009
G1 X142.197 Y170.202
G1 X135.815 Y163.533 E53.7079
G1 X135.284 Y163.533
G1 X142.363 Y170.931 E54.0484
G0 X143.495 Y171.838 F10800
G0 X144.491 Y172.318
G0 X145.594 Y172.318
G0 X146.590 Y171.838
G0 X148.083 Y170.794
G1 X147.817 Y170.516 E54.0613 F3600
G1 X147.714 Y170.965
G1 X147.908 Y171.166 E54.0706
G1 X147.723 Y171.529
G1 X147.535 Y171.333 E54.0796
G1 X147.293 Y171.636
G1 X147.494 Y171.846 E54.0893
G1 X147.222 Y172.118
G1 X147.051 Y171.939 E54.0975
G1 X146.789 Y172.221
G1 X146.951 Y172.390 E54.1053
G1 X146.600 Y172.579
G1 X146.425 Y172.397 E54.1137
G1 X146.061 Y172.572
G1 X146.242 Y172.761 E54.1224
G1 X145.840 Y172.897
G1 X145.697 Y172.747 E54.1293
G1 X145.170 Y172.753
G1 X145.378 Y172.970 E54.1393
G1 X144.906 Y173.033
G1 X144.638 Y172.753 E54.1522
G1 X143.855 Y172.490
G1 X144.374 Y173.033 E54.1771
G1 X143.842 Y173.033
G1 X134.752 Y163.533 E54.6144
G1 X134.220 Y163.533
G1 X143.310 Y173.033 E55.0518
G1 X142.778 Y173.033
G1 X133.688 Y163.533 E55.4891
G1 X133.156 Y163.533
G1 X142.246 Y173.033 E55.9264
G1 X141.714 Y173.033
G1 X132.624 Y163.533 E56.3637
G1 X132.092 Y163.533
G1 X141.182 Y173.033 E56.8010
G1 X140.650 Y173.033
G1 X131.560 Y163.533 E57.2384
G1 X131.028 Y163.533
G1 X140.118 Y173.033 E57.6757
G1 X139.587 Y173.033
G1 X130.496 Y163.533 E58.1130
G1 X129.964 Y163.533
G1 X139.055 Y173.033 E58.5503
G1 X138.523 Y173.033
G1 X129.432 Y163.533 E58.9876
G1 X128.900 Y163.533
G1 X137.991 Y173.033 E59.4250
G1 X137.459 Y173.033
G1 X128.368 Y163.533 E59.8623
G1 X127.836 Y163.533
G1 X136.927 Y173.033 E60.2996
G1 X136.395 Y173.033
G1 X127.304 Y163.533 E60.7369
G1 X126.772 Y163.533
G1 X135.863 Y173.033 E61.1742
G1 X135.331 Y173.033
G1 X126.240 Y163.533 E61.6116
G1 X125.709 Y163.533
G1 X134.799 Y173.033 E62.0489
G1 X134.267 Y173.033
G1 X125.177 Y163.533 E62.4862
G1 X124.645 Y163.533
G1 X133.735 Y173.033 E62.9235
G1 X133.203 Y173.033
G1 X124.113 Y163.533 E63.3608
G1 X123.581 Y163.533
G1 X132.671 Y173.033 E63.7982
G1 X132.139 Y173.033
G1 X123.049 Y163.533 E64.2355
G1 X122.517 Y163.533
G1 X131.607 Y173.033 E64.6728
G1 X131.075 Y173.033
G1 X121.985 Y163.533 E65.1101
G1 X121.453 Y163.533
G1 X130.544 Y173.033 E65.5474
G1 X130.012 Y173.033
G1 X120.921 Y163.533 E65.9848
G1 X120.389 Y163.533
G1 X129.480 Y173.033 E66.4221
G1 X128.948 Y173.033
G1 X119.857 Y163.533 E66.8594
G1 X119.325 Y163.533
G1 X128.416 Y173.033 E67.2967
G1 X127.884 Y173.033
G1 X118.793 Y163.533 E67.7340
G1 X118.261 Y163.533
G1 X127.352 Y173.033 E68.1713
G1 X126.820 Y173.033
G1 X117.729 Y163.533 E68.6087
G1 X117.197 Y163.533
G1 X126.288 Y173.033 E69.0460
G1 X125.756 Y173.033
G1 X116.666 Y163.533 E69.4833
G1 X116.134 Y163.533
G1 X125.224 Y173.033 E69.9206
G1 X124.692 Y173.033
G1 X115.602 Y163.533 E70.3579
G1 X115.070 Y163.533
G1 X124.160 Y173.033 E70.7952
G1 X123.628 Y173.033
G1 X114.538 Y163.533 E71.2326
G1 X114.006 Y163.533
G1 X123.096 Y173.033 E71.6699
G1 X122.564 Y173.033
G1 X113.474 Y163.533 E72.1072
G0 X115.814 Y167.090 F10800
G1 X111.759 Y162.853 E72.3022 F3600
G1 X111.759 Y163.409
G1 X115.183 Y166.987 E72.4669
G1 X114.651 Y166.987
G1 X111.759 Y163.965 E72.6060
G1 X111.759 Y164.521
G1 X114.181 Y167.051 E72.7225
G1 X113.817 Y167.227
G1 X111.759 Y165.077 E72.8215
G0 X111.918 Y170.801 F10800
G1 X112.655 Y171.571 E72.8570 F3600
G0 X113.333 Y172.280 F10800
G1 X113.828 Y172.797 E72.8808 F3600
G1 X114.508 Y172.952
G1 X114.318 Y172.753 E72.8899
G1 X114.850 Y172.753
G1 X115.117 Y173.033 E72.9028
G1 X115.649 Y173.033
G1 X115.382 Y172.753 E72.9157
G1 X115.814 Y172.650
G1 X116.181 Y173.033 E72.9333
G1 X116.713 Y173.033
G1 X116.179 Y172.474 E72.9591
G1 X116.543 Y172.299
G1 X117.245 Y173.033 E72.9928
G1 X117.777 Y173.033
G1 X116.859 Y172.074 E73.0370
G1 X117.101 Y171.770
G1 X118.309 Y173.033 E73.0951
G1 X118.841 Y173.033
G1 X117.343 Y171.467 E73.1672
G1 X117.584 Y171.163
G1 X119.373 Y173.033 E73.2532
G1 X119.905 Y173.033
G1 X117.686 Y170.714 E73.3600
G1 X117.788 Y170.265
G1 X120.437 Y173.033 E73.4874
G1 X120.969 Y173.033
G1 X117.858 Y169.783 E73.6370
G1 X117.692 Y169.053
G1 X121.500 Y173.033 E73.8202
G1 X122.032 Y173.033
G1 X111.759 Y162.297 E74.3144
G1 X111.759 Y161.741
G1 X113.333 Y163.385 E74.3901
G1 X113.333 Y162.829
G1 X111.759 Y161.185 E74.4657
G1 X111.759 Y160.630
G1 X113.333 Y162.273 E74.5414
G1 X113.333 Y161.718
G1 X111.759 Y160.074 E74.6171
G1 X111.759 Y159.518
G1 X113.333 Y161.162 E74.6928
G1 X113.333 Y160.606
G1 X111.759 Y158.962 E74.7685
G1 X111.759 Y158.406
G1 X113.333 Y160.050 E74.8441
G1 X113.333 Y159.494
G1 X111.759 Y157.850 E74.9198
G1 X111.759 Y157.294
G1 X113.333 Y158.938 E74.9955
G1 X113.333 Y158.382
G1 X111.759 Y156.738 E75.0712
G1 X111.759 Y156.182
G1 X113.333 Y157.826 E75.1468
G1 X113.333 Y157.270
G1 X111.759 Y155.627 E75.2225
G1 X111.759 Y155.071
G1 X113.333 Y156.715 E75.2982
G1 X113.333 Y156.159
G1 X111.759 Y154.515 E75.3739
G1 X111.759 Y153.959
G1 X113.333 Y155.603 E75.4495
G1 X113.333 Y155.047
G1 X111.759 Y153.403 E75.5252
G1 X111.759 Y152.847
G1 X113.333 Y154.491 E75.6009
G1 X113.333 Y153.935
G1 X111.759 Y152.291 E75.6766
G1 X111.759 Y151.735
G1 X113.333 Y153.379 E75.7522
G1 X113.333 Y152.823
G1 X111.759 Y151.179 E75.8279
G1 X111.759 Y150.624
G1 X113.333 Y152.267 E75.9036
G1 X113.333 Y151.712
G1 X111.759 Y150.068 E75.9793
G1 X111.759 Y149.512
G1 X113.333 Y151.156 E76.0549
G1 X113.333 Y150.600
G1 X111.759 Y148.956 E76.1306
G1 X111.759 Y148.400
G1 X113.333 Y150.044 E76.2063
G1 X113.333 Y149.488
G1 X111.759 Y147.844 E76.2820
G1 X111.759 Y147.288
G1 X113.333 Y148.932 E76.3576
G1 X113.333 Y148.376
G1 X111.759 Y146.732 E76.4333
G1 X111.759 Y146.176
G1 X113.333 Y147.820 E76.5090
G1 X113.333 Y147.264
G1 X111.759 Y145.621 E76.5847
G1 X111.759 Y145.065
G1 X113.333 Y146.709 E76.6604
G1 X113.333 Y146.153
G1 X111.759 Y144.509 E76.7360
G1 X111.759 Y143.953
G1 X113.333 Y145.597 E76.8117
G1 X113.333 Y145.041
G1 X111.759 Y143.397 E76.8874
G1 X111.759 Y142.841
G1 X113.333 Y144.485 E76.9631
G1 X113.333 Y143.929
G1 X111.759 Y142.285 E77.0387
G1 X111.759 Y141.729
G1 X113.333 Y143.373 E77.1144
G1 X113.333 Y142.817
G1 X111.759 Y141.173 E77.1901
G1 X111.759 Y140.618
G1 X113.333 Y142.261 E77.2658
G1 X113.333 Y141.706
G1 X111.759 Y140.062 E77.3414
G1 X111.759 Y139.506
G1 X113.333 Y141.150 E77.4171
G1 X113.333 Y140.594
G1 X111.759 Y138.950 E77.4928
G1 X111.759 Y138.394
G1 X113.333 Y140.038 E77.5685
G1 X113.333 Y139.482
G1 X111.759 Y137.838 E77.6441
G1 X111.759 Y137.282
G1 X113.333 Y138.926 E77.7198
G1 X113.333 Y138.370
G1 X111.759 Y136.726 E77.7955
G1 X111.759 Y136.170
G1 X113.333 Y137.814 E77.8712
G1 X113.333 Y137.258
G1 X111.759 Y135.615 E77.9468
G1 X111.759 Y135.059
G1 X113.333 Y136.703 E78.0225
G1 X113.333 Y136.147
G1 X111.759 Y134.503 E78.0982
G1 X111.759 Y133.947
G1 X113.333 Y135.591 E78.1739
G1 X113.333 Y135.035
G1 X111.759 Y133.391 E78.2495
G1 X111.759 Y132.835
G1 X113.333 Y134.479 E78.3252
G1 X113.333 Y133.923
G1 X111.759 Y132.279 E78.4009
G1 X111.759 Y131.723
G1 X113.333 Y133.367 E78.4766
G1 X113.333 Y132.811
G1 X111.759 Y131.167 E78.5522
G1 X111.759 Y130.612
G1 X113.333 Y132.255 E78.6279
G1 X113.333 Y131.700
G1 X111.759 Y130.056 E78.7036
G1 X111.759 Y129.500
G1 X113.333 Y131.144 E78.7793
G1 X113.333 Y130.588
G1 X111.759 Y128.944 E78.8550
G1 X111.759 Y128.388
G1 X113.333 Y130.032 E78.9306
G1 X113.333 Y129.476
G1 X111.759 Y127.832 E79.0063
G1 X111.759 Y127.276
G1 X113.333 Y128.920 E79.0820
G1 X113.333 Y128.364
G1 X111.759 Y126.720 E79.1577
G1 X111.759 Y126.164
G1 X113.333 Y127.808 E79.2333
G1 X113.333 Y127.252
G1 X111.759 Y125.609 E79.3090
G1 X111.759 Y125.053
G1 X113.333 Y126.697 E79.3847
G1 X113.333 Y126.141
G1 X111.759 Y124.497 E79.4604
G1 X111.759 Y123.941
G1 X113.333 Y125.585 E79.5360
G1 X113.333 Y125.029
G1 X111.759 Y123.385 E79.6117
G1 X111.759 Y122.829
G1 X113.333 Y124.473 E79.6874
G1 X113.333 Y123.917
G1 X111.759 Y122.273 E79.7631
G1 X111.759 Y121.717
G1 X113.333 Y123.361 E79.8387
G1 X113.333 Y122.805
G1 X111.759 Y121.162 E79.9144
G1 X111.759 Y120.606
G1 X113.333 Y122.249 E79.9901
G1 X113.333 Y121.694
G1 X111.759 Y120.050 E80.0658
G1 X111.759 Y119.494
G1 X113.333 Y121.138 E80.1414
G1 X113.333 Y120.582
G1 X111.759 Y118.938 E80.2171
G1 X111.759 Y118.382
G1 X113.333 Y120.026 E80.2928
G1 X113.333 Y119.470
G1 X111.759 Y117.826 E80.3685
G1 X111.759 Y117.270
G1 X113.333 Y118.914 E80.4441
G1 X113.333 Y118.358
G1 X111.759 Y116.714 E80.5198
G1 X111.759 Y116.159
G1 X113.333 Y117.802 E80.5955
G1 X113.333 Y117.246
G1 X111.759 Y115.603 E80.6712
G1 X111.759 Y115.047
G1 X113.333 Y116.691 E80.7469
G1 X113.333 Y116.135
G1 X111.759 Y114.491 E80.8225
G1 X111.759 Y113.935
G1 X113.333 Y115.579 E80.8982
G1 X113.333 Y115.023
G1 X111.759 Y113.379 E80.9739
G1 X111.759 Y112.823
G1 X113.333 Y114.467 E81.0496
G1 X113.333 Y113.911
G1 X111.759 Y112.267 E81.1252
G1 X111.759 Y111.711
G1 X113.333 Y113.355 E81.2009
G1 X113.333 Y112.799
G1 X111.759 Y111.156 E81.2766
G1 X111.759 Y110.600
G1 X113.333 Y112.243 E81.3523
G1 X113.333 Y111.688
G1 X111.759 Y110.044 E81.4279
G1 X111.759 Y109.488
G1 X113.333 Y111.132 E81.5036
G1 X113.333 Y110.576
G1 X111.759 Y108.932 E81.5793
G1 X111.759 Y108.376
G1 X113.333 Y110.020 E81.6550
G1 X113.333 Y109.464
G1 X111.759 Y107.820 E81.7306
G1 X111.759 Y107.264
G1 X113.333 Y108.908 E81.8063
G1 X113.333 Y108.352
G1 X111.759 Y106.708 E81.8820
G1 X111.759 Y106.153
G1 X113.333 Y107.796 E81.9577
G1 X113.333 Y107.240
G1 X111.759 Y105.597 E82.0333
G1 X111.759 Y105.041
G1 X113.333 Y106.685 E82.1090
G1 X113.333 Y106.129
G1 X111.759 Y104.485 E82.1847
G1 X111.759 Y103.929
G1 X113.333 Y105.573 E82.2604
G1 X113.333 Y105.017
G1 X111.759 Y103.373 E82.3360
G1 X111.759 Y102.817
G1 X113.333 Y104.461 E82.4117
G1 X113.333 Y103.905
G1 X111.759 Y102.261 E82.4874
G1 X111.759 Y101.705
G1 X113.333 Y103.349 E82.5631
G1 X113.333 Y102.793
G1 X111.759 Y101.150 E82.6388
G1 X111.759 Y100.594
G1 X113.333 Y102.237 E82.7144
G1 X113.333 Y101.682
G1 X111.759 Y100.038 E82.7901
G1 X111.759 Y99.482
G1 X113.333 Y101.126 E82.8658
G1 X113.333 Y100.570
G1 X111.759 Y98.926 E82.9415
G1 X111.759 Y98.370
G1 X113.333 Y100.014 E83.0171
G1 X113.333 Y99.458
G1 X111.759 Y97.814 E83.0928
G1 X111.759 Y97.258
G1 X113.333 Y98.902 E83.1685
G1 X113.333 Y98.346
G1 X111.759 Y96.702 E83.2442
G1 X111.759 Y96.147
G1 X113.333 Y97.790 E83.3198
G1 X113.333 Y97.234
G1 X111.759 Y95.591 E83.3955
G1 X111.759 Y95.035
G1 X113.333 Y96.679 E83.4712
G1 X113.333 Y96.123
G1 X111.759 Y94.479 E83.5469
G1 X111.759 Y93.923
G1 X113.333 Y95.567 E83.6225
G1 X113.333 Y95.011
G1 X111.759 Y93.367 E83.6982
G1 X111.759 Y92.811
G1 X113.333 Y94.455 E83.7739
G1 X113.333 Y93.899
G1 X111.759 Y92.255 E83.8496
G1 X111.759 Y91.699
G1 X113.333 Y93.343 E83.9252
G1 X113.333 Y92.787
G1 X111.759 Y91.144 E84.0009
G1 X111.759 Y90.588
G1 X113.333 Y92.231 E84.0766
G1 X113.333 Y91.676
G1 X111.759 Y90.032 E84.1523
G1 X111.759 Y89.476
G1 X113.333 Y91.120 E84.2279
G1 X113.333 Y90.564
G1 X111.759 Y88.920 E84.3036
G1 X111.759 Y88.364
G1 X113.333 Y90.008 E84.3793
G1 X113.333 Y89.452
G1 X111.759 Y87.808 E84.4550
G1 X111.759 Y87.252
G1 X113.333 Y88.896 E84.5307
G1 X113.333 Y88.340
G1 X111.759 Y86.696 E84.6063
G1 X111.759 Y86.141
G1 X113.333 Y87.784 E84.6820
G1 X113.333 Y87.228
G1 X111.759 Y85.585 E84.7577
G1 X111.759 Y85.029
G1 X113.333 Y86.673 E84.8334
G0 X113.745 Y86.306 F10800
G0 X115.042 Y85.679
G1 X111.759 Y82.249 E84.9912 F3600
G1 X111.759 Y81.693
G1 X115.574 Y85.679 E85.1747
G1 X116.105 Y85.679
G1 X111.759 Y81.138 E85.3838
G1 X111.759 Y80.582
G1 X116.637 Y85.679 E85.6185
G1 X117.169 Y85.679
G1 X113.479 Y81.822 E85.7960
G0 X114.396 Y82.225 F10800
G1 X117.701 Y85.679 E85.9550 F3600
G1 X118.233 Y85.679
G1 X114.928 Y82.225 E86.1140
G1 X115.460 Y82.225
G1 X118.765 Y85.679 E86.2730
G1 X119.297 Y85.679
G1 X115.868 Y82.096 E86.4380
G1 X116.232 Y81.920
G1 X119.829 Y85.679 E86.6110
G1 X120.361 Y85.679
G1 X116.596 Y81.745 E86.7921
G1 X116.895 Y81.501
G1 X120.893 Y85.679 E86.9844
G1 X121.425 Y85.679
G1 X117.137 Y81.198 E87.1907
G1 X117.378 Y80.895
G1 X121.957 Y85.679 E87.4110
G1 X122.489 Y85.679
G1 X117.599 Y80.569 E87.6462
G1 X117.701 Y80.120
G1 X123.021 Y85.679 E87.9021
G1 X123.553 Y85.679
G1 X117.803 Y79.671 E88.1787
G1 X117.834 Y79.147
G1 X124.085 Y85.679 E88.4794
G1 X124.617 Y85.679
G1 X117.668 Y78.418 E88.8137
G0 X116.505 Y77.375 F10800
G0 X115.508 Y76.894
G0 X114.406 Y76.894
G0 X113.409 Y77.375
G0 X112.062 Y79.230
G1 X111.827 Y78.984 E88.8250 F3600
G1 X111.902 Y78.507
G1 X112.164 Y78.781 E88.8376
G1 X112.266 Y78.332
G1 X112.058 Y78.114 E88.8476
G1 X112.242 Y77.751
G1 X112.419 Y77.936 E88.8561
G1 X112.661 Y77.633
G1 X112.455 Y77.417 E88.8661
G1 X112.726 Y77.145
G1 X112.903 Y77.330 E88.8746
G1 X113.145 Y77.026
G1 X112.998 Y76.873 E88.8816
G1 X113.333 Y76.667
G1 X113.507 Y76.848 E88.8900
G1 X113.871 Y76.673
G1 X113.691 Y76.485 E88.8986
G1 X114.073 Y76.329
G1 X114.235 Y76.498 E88.9064
G1 X114.730 Y76.459
G1 X114.535 Y76.256 E88.9158
G1 X114.997 Y76.183
G1 X115.262 Y76.459 E88.9285
G1 X115.960 Y76.632
G1 X115.526 Y76.179 E88.9494
G1 X116.058 Y76.179
G1 X125.148 Y85.679 E89.3867
G1 X125.680 Y85.679
G1 X116.590 Y76.179 E89.8240
G1 X117.122 Y76.179
G1 X126.212 Y85.679 E90.2613
G1 X126.744 Y85.679
G1 X117.654 Y76.179 E90.6986
G1 X118.186 Y76.179
G1 X127.276 Y85.679 E91.1359
G1 X127.808 Y85.679
G1 X118.718 Y76.179 E91.5733
G1 X119.250 Y76.179
G1 X128.340 Y85.679 E92.0106
G1 X128.872 Y85.679
G1 X119.782 Y76.179 E92.4479
G1 X120.314 Y76.179
G1 X129.404 Y85.679 E92.8852
G1 X129.936 Y85.679
G1 X120.845 Y76.179 E93.3225
G1 X121.377 Y76.179
G1 X130.468 Y85.679 E93.7598
G1 X131.000 Y85.679
G1 X121.909 Y76.179 E94.1972
G1 X122.441 Y76.179
G1 X131.532 Y85.679 E94.6345
G1 X132.064 Y85.679
G1 X122.973 Y76.179 E95.0718
G1 X123.505 Y76.179
G1 X132.596 Y85.679 E95.5091
G1 X133.128 Y85.679
G1 X124.037 Y76.179 E95.9464
G1 X124.569 Y76.179
G1 X133.660 Y85.679 E96.3837
G1 X134.191 Y85.679
G1 X125.101 Y76.179 E96.8211
G1 X125.633 Y76.179
G1 X134.723 Y85.679 E97.2584
G1 X135.255 Y85.679
G1 X126.165 Y76.179 E97.6957
G1 X126.697 Y76.179
G1 X135.787 Y85.679 E98.1330
G1 X136.319 Y85.679
G1 X127.229 Y76.179 E98.5703
G1 X127.761 Y76.179
G1 X136.851 Y85.679 E99.0076
G1 X137.383 Y85.679
G1 X128.293 Y76.179 E99.4450
G1 X128.825 Y76.179
G1 X137.915 Y85.679 E99.8823
G1 X138.447 Y85.679
G1 X129.357 Y76.179 E100.3196
G1 X129.888 Y76.179
G1 X138.979 Y85.679 E100.7569
G1 X139.511 Y85.679
G1 X130.420 Y76.179 E101.1942
G1 X130.952 Y76.179
G1 X140.043 Y85.679 E101.6315
G1 X140.575 Y85.679
G1 X131.484 Y76.179 E102.0689
G1 X132.016 Y76.179
G1 X141.107 Y85.679 E102.5062
G1 X141.639 Y85.679
G1 X132.548 Y76.179 E102.9435
G1 X133.080 Y76.179
G1 X142.171 Y85.679 E103.3808
G1 X142.703 Y85.679
G1 X133.612 Y76.179 E103.8181
G1 X134.144 Y76.179
G1 X143.234 Y85.679 E104.2554
G1 X143.766 Y85.679
G1 X134.676 Y76.179 E104.6928
G1 X135.208 Y76.179
G1 X144.298 Y85.679 E105.1301
G1 X144.830 Y85.679
G1 X135.740 Y76.179 E105.5674
G1 X136.272 Y76.179
G1 X145.362 Y85.679 E106.0047
G1 X145.894 Y85.679
G1 X136.804 Y76.179 E106.4420
G1 X137.336 Y76.179
G1 X146.426 Y85.679 E106.8793
G0 X148.240 Y84.240 F10800
G1 X146.115 Y82.018 E106.9816 F3600
G1 X145.751 Y82.194
G1 X148.240 Y84.796 E107.1014
G1 X148.240 Y85.351
G1 X145.249 Y82.225 E107.2453
G1 X144.717 Y82.225
G1 X148.240 Y85.907 E107.4148
G1 X148.240 Y86.463
G1 X144.001 Y82.033 E107.6188
; ------------------------------------
; Layer #2
; ------------------------------------
G21 ; mm
G90 ; abs
G92 E0 ; reset extr
M106 S255
G0 F4800 E-1.0000
G0 F300 Z0.600
G0 X146.466 Y85.889 F10800
G0 X147.706 Y170.999
G0 F4800 E0.0000
;segType:HShell
G1 X148.119 Y170.568 E0.0198 F3600
G1 X148.224 Y169.902
G1 X147.873 Y170.270 E0.0368
;segType:Loop
G0 X147.496 Y171.018 F10800
G1 X147.485 Y171.069 E0.0385 F3600
G1 X146.726 Y172.022 E0.0790
G1 X145.641 Y172.544 E0.1190
G1 X144.444 Y172.544 E0.1589
G1 X143.360 Y172.022 E0.1989
G1 X142.600 Y171.069 E0.2394
G1 X142.327 Y169.870 E0.2803
G1 X142.600 Y168.671 E0.3212
G1 X143.360 Y167.718 E0.3617
G1 X144.444 Y167.196 E0.4018
G1 X145.641 Y167.196 E0.4416
G1 X146.726 Y167.718 E0.4816
G1 X147.485 Y168.671 E0.5221
G1 X147.758 Y169.870 E0.5630
G1 X147.540 Y170.827 E0.5957
;segType:Perimeter
G0 X148.278 Y170.483 F10800
G1 X148.626 Y171.090 E0.6190 F2159
G1 X148.116 Y172.093 E0.6564
G1 X147.277 Y172.932 E0.6959
G1 X146.218 Y173.471 E0.7354
G1 X145.027 Y173.660 E0.7755
G1 X114.972 Y173.660 E1.7751
G1 X113.782 Y173.471 E1.8152
G1 X112.723 Y172.932 E1.8547
G1 X111.884 Y172.093 E1.8942
G1 X111.347 Y171.038 E1.9336
G1 X111.159 Y169.853 E1.9735
G1 X111.159 Y79.359 E4.9833
G1 X111.347 Y78.174 E5.0232
G1 X111.884 Y77.119 E5.0626
G1 X112.723 Y76.280 E5.1020
G1 X113.782 Y75.741 E5.1416
G1 X114.972 Y75.552 E5.1816
G1 X145.027 Y75.552 E6.1813
G1 X146.218 Y75.741 E6.2214
G1 X147.277 Y76.280 E6.2609
G1 X148.116 Y77.119 E6.3004
G1 X148.653 Y78.174 E6.3397
G1 X148.840 Y79.359 E6.3796
G1 X148.840 Y169.853 E9.3895
G1 X148.662 Y170.980 E9.4274
G1 X148.032 Y171.240
;segType:HShell
G0 X147.815 Y169.218 F10800
G1 X148.240 Y168.774 E9.4479 F3600
G1 X148.240 Y169.330
G1 X147.918 Y169.667 E9.4634
;segType:Loop
G0 X147.814 Y171.796 F10800
G1 X147.793 Y171.837 E9.4649 F3600
G1 X147.046 Y172.585 E9.5001
G1 X146.098 Y173.068 E9.5355
G1 X144.997 Y173.242 E9.5725
G1 X115.002 Y173.242 E10.5702
G1 X113.902 Y173.068 E10.6072
G1 X112.954 Y172.585 E10.6426
G1 X112.207 Y171.837 E10.6777
G1 X111.731 Y170.902 E10.7126
G1 X111.559 Y169.819 E10.7491
G1 X111.559 Y79.393 E13.7567
G1 X111.731 Y78.310 E13.7932
G1 X112.207 Y77.375 E13.8281
G1 X112.954 Y76.628 E13.8632
G1 X113.902 Y76.144 E13.8986
G1 X115.002 Y75.970 E13.9356
G1 X144.997 Y75.970 E14.9333
G1 X146.098 Y76.144 E14.9703
G1 X147.046 Y76.628 E15.0057
G1 X147.793 Y77.375 E15.0409
G1 X148.269 Y78.310 E15.0758
G1 X148.440 Y79.393 E15.1123
G1 X148.440 Y169.819 E18.1198
G1 X148.269 Y170.902 E18.1563
G1 X147.902 Y171.622 E18.1832
G0 F4800 E17.1832
G0 X147.754 Y169.372 F10800
G0 F4800 E18.1832
;segType:Perimeter
G1 X147.334 Y169.927 E18.2063 F2159
G1 X147.117 Y170.877 E18.2387
G1 X146.476 Y171.682 E18.2729
G1 X145.553 Y172.126 E18.3070
G1 X144.532 Y172.126 E18.3410
G1 X143.609 Y171.682 E18.3750
G1 X142.968 Y170.877 E18.4093
G1 X142.738 Y169.870 E18.4436
G1 X142.968 Y168.863 E18.4780
G1 X143.609 Y168.058 E18.5122
G1 X144.532 Y167.614 E18.5463
G1 X145.553 Y167.614 E18.5802
G1 X146.476 Y168.058 E18.6143
G1 X147.117 Y168.863 E18.6485
G1 X147.334 Y169.813 E18.6809
G1 X147.754 Y170.368
G0 X147.397 Y170.498 F10800
G0 X147.535 Y169.870
G0 X147.286 Y168.775
G0 X146.590 Y167.903
G0 X145.594 Y167.422
G0 X125.062 Y163.533
;segType:HShell
G1 X115.972 Y173.033 E19.1182 F3600
G1 X115.800 Y172.657
G1 X115.440 Y173.033 E19.1356
G1 X114.922 Y173.018
G1 X115.176 Y172.753 E19.1477
G1 X114.644 Y172.753
G1 X114.460 Y172.945 E19.1566
G1 X113.998 Y172.871
G1 X114.176 Y172.686 E19.1651
G1 X113.812 Y172.511
G1 X113.633 Y172.698 E19.1737
G1 X113.275 Y172.516
G1 X113.448 Y172.335 E19.1820
G1 X113.106 Y172.137
G1 X112.954 Y172.295 E19.1893
G1 X112.682 Y172.023
G1 X112.864 Y171.834 E19.1980
G1 X112.622 Y171.530
G1 X112.411 Y171.751 E19.2082
G1 X112.212 Y171.403
G1 X112.380 Y171.227 E19.2163
G1 X112.250 Y170.808
G1 X112.028 Y171.040 E19.2270
G1 X111.890 Y170.628
G1 X112.147 Y170.359 E19.2393
G1 X112.045 Y169.910
G1 X111.815 Y170.151 E19.2504
;segType:Perimeter
G0 X112.246 Y170.368 F10800
G1 X112.666 Y169.813 E19.2736 F2159
G1 X112.882 Y168.863 E19.3060
G1 X113.524 Y168.058 E19.3402
G1 X114.446 Y167.614 E19.3742
G1 X115.468 Y167.614 E19.4082
G1 X116.391 Y168.058 E19.4423
G1 X117.032 Y168.863 E19.4765
G1 X117.262 Y169.870 E19.5109
G1 X117.032 Y170.877 E19.5452
G1 X116.391 Y171.682 E19.5794
G1 X115.468 Y172.126 E19.6135
G1 X114.446 Y172.126 E19.6475
G1 X113.524 Y171.682 E19.6815
G1 X112.882 Y170.877 E19.7158
G1 X112.666 Y169.927 E19.7482
G1 X112.246 Y169.372
;segType:Loop
G0 X112.503 Y168.722 F10800
G1 X112.515 Y168.671 E19.7499 F3600
G1 X113.274 Y167.718 E19.7904
G1 X114.359 Y167.196 E19.8304
G1 X115.556 Y167.196 E19.8703
G1 X116.640 Y167.718 E19.9103
G1 X117.400 Y168.671 E19.9508
G1 X117.673 Y169.870 E19.9917
G1 X117.400 Y171.069 E20.0326
G1 X116.640 Y172.022 E20.0731
G1 X115.556 Y172.544 E20.1132
G1 X114.359 Y172.544 E20.1530
G1 X113.274 Y172.022 E20.1930
G1 X112.515 Y171.069 E20.2335
G1 X112.241 Y169.870 E20.2744
G1 X112.460 Y168.913 E20.3071
G0 X113.800 Y86.167 F10800
G0 X122.478 Y76.179
;segType:HShell
G1 X113.388 Y85.679 E20.7444 F3600
G1 X113.333 Y86.293
G1 X111.759 Y87.937 E20.8201
G1 X111.759 Y87.381
G1 X113.333 Y85.737 E20.8958
;segType:Perimeter
G0 X113.364 Y86.577 F10800
G1 X113.989 Y86.306 E20.9184 F2159
G1 X146.067 Y86.306 E21.9854
G1 X146.067 Y162.906 E24.5331
G1 X113.933 Y162.906 E25.6019
G1 X113.933 Y86.365 E28.1476
G1 X114.192 Y85.712
;segType:Loop
G0 X114.967 Y85.888 F10800
G1 X146.467 Y85.888 E29.1953 F3600
G1 X146.467 Y163.324 E31.7708
G1 X113.533 Y163.324 E32.8662
G1 X113.533 Y85.888 E35.4418
G1 X114.779 Y85.888 E35.4832
G0 X112.714 Y80.437 F10800
G0 X112.465 Y79.342
G0 X112.714 Y78.247
G0 X113.660 Y76.500
;segType:HShell
G1 X113.174 Y77.009 E35.5066 F3600
G1 X113.085 Y77.102
G1 X111.991 Y78.245 E35.5593
G1 X111.829 Y78.970
G1 X112.212 Y78.570 E35.5777
G0 X112.132 Y79.765 F10800
G1 X111.759 Y80.154 E35.5956 F3600
G1 X111.759 Y79.598
G1 X112.046 Y79.299 E35.6094
;segType:Loop
G0 X112.503 Y78.194 F10800
G1 X112.515 Y78.143 E35.6111 F3600
G1 X113.274 Y77.191 E35.6516
G1 X114.359 Y76.668 E35.6917
G1 X115.556 Y76.668 E35.7315
G1 X116.640 Y77.191 E35.7715
G1 X117.400 Y78.143 E35.8120
G1 X117.673 Y79.342 E35.8529
G1 X117.400 Y80.541 E35.8938
G1 X116.640 Y81.494 E35.9344
G1 X115.556 Y82.016 E35.9744
G1 X114.359 Y82.016 E36.0142
G1 X113.274 Y81.494 E36.0542
G1 X112.515 Y80.541 E36.0948
G1 X112.241 Y79.342 E36.1357
G1 X112.460 Y78.385 E36.1683
;segType:Perimeter
G0 X112.246 Y79.840 F10800
G1 X112.666 Y79.285 E36.1915 F2159
G1 X112.882 Y78.335 E36.2239
G1 X113.524 Y77.531 E36.2581
G1 X114.446 Y77.086 E36.2922
G1 X115.468 Y77.086 E36.3261
G1 X116.391 Y77.531 E36.3602
G1 X117.032 Y78.335 E36.3944
G1 X117.262 Y79.342 E36.4288
G1 X117.032 Y80.349 E36.4631
G1 X116.391 Y81.154 E36.4973
G1 X115.468 Y81.598 E36.5314
G1 X114.446 Y81.598 E36.5654
G1 X113.524 Y81.154 E36.5995
G1 X112.882 Y80.349 E36.6337
G1 X112.666 Y79.399 E36.6661
G1 X112.246 Y78.844
G0 X114.406 Y76.894 F10800
G0 X143.696 Y76.799
;segType:HShell
G1 X144.288 Y76.179 E36.6946 F3600
G1 X144.820 Y76.179
G1 X144.552 Y76.459 E36.7074
G1 X145.084 Y76.459
G1 X145.303 Y76.230 E36.7180
G1 X145.765 Y76.303
G1 X145.616 Y76.459 E36.7252
G1 X146.002 Y76.612
G1 X146.184 Y76.421 E36.7339
G1 X146.542 Y76.603
G1 X146.366 Y76.787 E36.7424
G1 X146.730 Y76.963
G1 X146.899 Y76.786 E36.7505
G1 X147.178 Y77.050
G1 X147.012 Y77.224 E36.7585
G1 X147.254 Y77.527
G1 X147.450 Y77.322 E36.7680
G1 X147.693 Y77.624
G1 X147.496 Y77.830 E36.7774
G1 X147.698 Y78.175
G1 X147.878 Y77.987 E36.7861
G1 X148.063 Y78.350
G1 X147.800 Y78.624 E36.7987
;segType:Loop
G0 X147.496 Y80.490 F10800
G1 X147.485 Y80.541 E36.8004 F3600
G1 X146.726 Y81.494 E36.8410
G1 X145.641 Y82.016 E36.8810
G1 X144.444 Y82.016 E36.9208
G1 X143.360 Y81.494 E36.9609
G1 X142.600 Y80.541 E37.0014
G1 X142.327 Y79.342 E37.0423
G1 X142.600 Y78.143 E37.0832
G1 X143.360 Y77.191 E37.1237
G1 X144.444 Y76.668 E37.1637
G1 X145.641 Y76.668 E37.2035
G1 X146.726 Y77.191 E37.2436
G1 X147.485 Y78.143 E37.2841
G1 X147.758 Y79.342 E37.3250
G1 X147.540 Y80.299 E37.3577
;segType:Perimeter
G0 X147.754 Y78.844 F10800
G1 X147.334 Y79.399 E37.3808 F2159
G1 X147.117 Y80.349 E37.4132
G1 X146.476 Y81.154 E37.4474
G1 X145.553 Y81.598 E37.4815
G1 X144.532 Y81.598 E37.5155
G1 X143.609 Y81.154 E37.5495
G1 X142.968 Y80.349 E37.5838
G1 X142.738 Y79.342 E37.6181
G1 X142.968 Y78.335 E37.6525
G1 X143.609 Y77.531 E37.6867
G1 X144.532 Y77.086 E37.7207
G1 X145.553 Y77.086 E37.7547
G1 X146.476 Y77.531 E37.7888
G1 X147.117 Y78.335 E37.8230
G1 X147.334 Y79.285 E37.8554
G1 X147.754 Y79.840
;segType:HShell
G0 X147.897 Y79.634 F10800
G1 X148.222 Y79.295 E37.8710 F3600
G1 X148.147 Y78.818
G1 X147.903 Y79.073 E37.8828
G0 X146.176 Y81.989 F10800
G1 X142.645 Y85.679 E38.0527 F3600
G1 X142.113 Y85.679
G1 X145.418 Y82.225 E38.2117
G1 X144.886 Y82.225
G1 X141.581 Y85.679 E38.3707
G1 X141.049 Y85.679
G1 X144.368 Y82.210 E38.5304
G1 X144.004 Y82.035
G1 X140.517 Y85.679 E38.6981
G1 X139.985 Y85.679
G1 X143.640 Y81.859 E38.8740
G1 X143.276 Y81.684
G1 X139.453 Y85.679 E39.0579
G1 X138.921 Y85.679
G1 X143.021 Y81.395 E39.2551
G1 X142.779 Y81.092
G1 X138.389 Y85.679 E39.4663
G1 X137.857 Y85.679
G1 X142.537 Y80.789 E39.6914
G1 X142.365 Y80.412
G1 X137.325 Y85.679 E39.9339
G1 X136.793 Y85.679
G1 X142.263 Y79.963 E40.1970
G1 X142.161 Y79.514
G1 X136.261 Y85.679 E40.4808
G1 X135.729 Y85.679
G1 X142.224 Y78.892 E40.7933
G1 X142.390 Y78.163
G1 X135.197 Y85.679 E41.1393
G1 X134.666 Y85.679
G1 X143.756 Y76.179 E41.5766
G1 X143.224 Y76.179
G1 X134.134 Y85.679 E42.0139
G1 X133.602 Y85.679
G1 X142.692 Y76.179 E42.4512
G1 X142.160 Y76.179
G1 X133.070 Y85.679 E42.8885
G1 X132.538 Y85.679
G1 X141.628 Y76.179 E43.3259
G1 X141.096 Y76.179
G1 X132.006 Y85.679 E43.7632
G1 X131.474 Y85.679
G1 X140.564 Y76.179 E44.2005
G1 X140.032 Y76.179
G1 X130.942 Y85.679 E44.6378
G1 X130.410 Y85.679
G1 X139.500 Y76.179 E45.0751
G1 X138.969 Y76.179
G1 X129.878 Y85.679 E45.5125
G1 X129.346 Y85.679
G1 X138.437 Y76.179 E45.9498
G1 X137.905 Y76.179
G1 X128.814 Y85.679 E46.3871
G1 X128.282 Y85.679
G1 X137.373 Y76.179 E46.8244
G1 X136.841 Y76.179
G1 X127.750 Y85.679 E47.2617
G1 X127.218 Y85.679
G1 X136.309 Y76.179 E47.6991
G1 X135.777 Y76.179
G1 X126.686 Y85.679 E48.1364
G1 X126.154 Y85.679
G1 X135.245 Y76.179 E48.5737
G1 X134.713 Y76.179
G1 X125.623 Y85.679 E49.0110
G1 X125.091 Y85.679
G1 X134.181 Y76.179 E49.4483
G1 X133.649 Y76.179
G1 X124.559 Y85.679 E49.8857
G1 X124.027 Y85.679
G1 X133.117 Y76.179 E50.3230
G1 X132.585 Y76.179
G1 X123.495 Y85.679 E50.7603
G1 X122.963 Y85.679
G1 X132.053 Y76.179 E51.1976
G1 X131.521 Y76.179
G1 X122.431 Y85.679 E51.6349
G1 X121.899 Y85.679
G1 X130.989 Y76.179 E52.0723
G1 X130.457 Y76.179
G1 X121.367 Y85.679 E52.5096
G1 X120.835 Y85.679
G1 X129.926 Y76.179 E52.9469
G1 X129.394 Y76.179
G1 X120.303 Y85.679 E53.3842
G1 X119.771 Y85.679
G1 X128.862 Y76.179 E53.8215
G1 X128.330 Y76.179
G1 X119.239 Y85.679 E54.2589
G1 X118.707 Y85.679
G1 X127.798 Y76.179 E54.6962
G1 X127.266 Y76.179
G1 X118.175 Y85.679 E55.1335
G1 X117.643 Y85.679
G1 X126.734 Y76.179 E55.5708
G1 X126.202 Y76.179
G1 X117.111 Y85.679 E56.0081
G1 X116.580 Y85.679
G1 X125.670 Y76.179 E56.4455
G1 X125.138 Y76.179
G1 X116.048 Y85.679 E56.8828
G1 X115.516 Y85.679
G1 X124.606 Y76.179 E57.3201
G1 X124.074 Y76.179
G1 X114.984 Y85.679 E57.7574
G1 X114.452 Y85.679
G1 X123.542 Y76.179 E58.1947
G1 X123.010 Y76.179
G1 X113.920 Y85.679 E58.6321
G0 X112.235 Y80.214 F10800
G1 X111.759 Y80.710 E58.6549 F3600
G1 X111.759 Y81.266
G1 X112.345 Y80.654 E58.6831
G1 X112.587 Y80.958
G1 X111.759 Y81.822 E58.7229
G1 X111.759 Y82.378
G1 X112.828 Y81.261 E58.7743
G1 X113.070 Y81.564
G1 X111.759 Y82.934 E58.8373
G1 X111.759 Y83.490
G1 X113.394 Y81.782 E58.9160
G1 X113.758 Y81.957
G1 X111.759 Y84.046 E59.0121
G1 X111.759 Y84.601
G1 X114.122 Y82.132 E59.1258
G1 X114.565 Y82.225
G1 X111.759 Y85.157 E59.2607
G1 X111.759 Y85.713
G1 X115.097 Y82.225 E59.4213
G1 X115.654 Y82.199
G1 X111.759 Y86.269 E59.6087
G1 X111.759 Y86.825
G1 X116.642 Y81.723 E59.8435
G1 X117.098 Y81.246
G1 X121.946 Y76.179 E60.0768
G0 X117.719 Y80.041 F10800
G1 X121.415 Y76.179 E60.2546 F3600
G1 X120.883 Y76.179
G1 X117.874 Y79.323 E60.3993
G1 X117.772 Y78.874
G1 X120.351 Y76.179 E60.5234
G1 X119.819 Y76.179
G1 X117.670 Y78.425 E60.6268
G1 X117.545 Y77.999
G1 X119.287 Y76.179 E60.7105
G1 X118.755 Y76.179
G1 X117.304 Y77.696 E60.7803
G1 X117.062 Y77.393
G1 X118.223 Y76.179 E60.8362
G1 X117.691 Y76.179
G1 X116.820 Y77.090 E60.8781
G1 X116.484 Y76.885
G1 X117.159 Y76.179 E60.9106
G1 X116.627 Y76.179
G1 X116.120 Y76.710 E60.9350
G1 X115.756 Y76.534
G1 X116.095 Y76.179 E60.9513
G1 X115.563 Y76.179
G1 X115.296 Y76.459 E60.9642
G1 X114.764 Y76.459
G1 X115.031 Y76.179 E60.9771
G1 X114.407 Y76.276
G1 X114.161 Y76.533 E60.9889
G0 X112.714 Y78.247 F10800
G0 X112.465 Y79.342
G0 X113.333 Y86.849
G1 X111.759 Y88.493 E61.0646 F3600
G1 X111.759 Y89.049
G1 X113.333 Y87.405 E61.1403
G1 X113.333 Y87.961
G1 X111.759 Y89.604 E61.2159
G1 X111.759 Y90.160
G1 X113.333 Y88.516 E61.2916
G1 X113.333 Y89.072
G1 X111.759 Y90.716 E61.3673
G1 X111.759 Y91.272
G1 X113.333 Y89.628 E61.4429
G1 X113.333 Y90.184
G1 X111.759 Y91.828 E61.5186
G1 X111.759 Y92.384
G1 X113.333 Y90.740 E61.5943
G1 X113.333 Y91.296
G1 X111.759 Y92.940 E61.6700
G1 X111.759 Y93.496
G1 X113.333 Y91.852 E61.7456
G1 X113.333 Y92.408
G1 X111.759 Y94.052 E61.8213
G1 X111.759 Y94.607
G1 X113.333 Y92.964 E61.8970
G1 X113.333 Y93.519
G1 X111.759 Y95.163 E61.9727
G1 X111.759 Y95.719
G1 X113.333 Y94.075 E62.0483
G1 X113.333 Y94.631
G1 X111.759 Y96.275 E62.1240
G1 X111.759 Y96.831
G1 X113.333 Y95.187 E62.1997
G1 X113.333 Y95.743
G1 X111.759 Y97.387 E62.2754
G1 X111.759 Y97.943
G1 X113.333 Y96.299 E62.3510
G1 X113.333 Y96.855
G1 X111.759 Y98.499 E62.4267
G1 X111.759 Y99.055
G1 X113.333 Y97.411 E62.5024
G1 X113.333 Y97.967
G1 X111.759 Y99.610 E62.5781
G1 X111.759 Y100.166
G1 X113.333 Y98.522 E62.6537
G1 X113.333 Y99.078
G1 X111.759 Y100.722 E62.7294
G1 X111.759 Y101.278
G1 X113.333 Y99.634 E62.8051
G1 X113.333 Y100.190
G1 X111.759 Y101.834 E62.8808
G1 X111.759 Y102.390
G1 X113.333 Y100.746 E62.9564
G1 X113.333 Y101.302
G1 X111.759 Y102.946 E63.0321
G1 X111.759 Y103.502
G1 X113.333 Y101.858 E63.1078
G1 X113.333 Y102.414
G1 X111.759 Y104.058 E63.1834
G1 X111.759 Y104.613
G1 X113.333 Y102.970 E63.2591
G1 X113.333 Y103.525
G1 X111.759 Y105.169 E63.3348
G1 X111.759 Y105.725
G1 X113.333 Y104.081 E63.4105
G1 X113.333 Y104.637
G1 X111.759 Y106.281 E63.4861
G1 X111.759 Y106.837
G1 X113.333 Y105.193 E63.5618
G1 X113.333 Y105.749
G1 X111.759 Y107.393 E63.6375
G1 X111.759 Y107.949
G1 X113.333 Y106.305 E63.7132
G1 X113.333 Y106.861
G1 X111.759 Y108.505 E63.7888
G1 X111.759 Y109.061
G1 X113.333 Y107.417 E63.8645
G1 X113.333 Y107.973
G1 X111.759 Y109.616 E63.9402
G1 X111.759 Y110.172
G1 X113.333 Y108.528 E64.0159
G1 X113.333 Y109.084
G1 X111.759 Y110.728 E64.0915
G1 X111.759 Y111.284
G1 X113.333 Y109.640 E64.1672
G1 X113.333 Y110.196
G1 X111.759 Y111.840 E64.2429
G1 X111.759 Y112.396
G1 X113.333 Y110.752 E64.3186
G1 X113.333 Y111.308
G1 X111.759 Y112.952 E64.3942
G1 X111.759 Y113.508
G1 X113.333 Y111.864 E64.4699
G1 X113.333 Y112.420
G1 X111.759 Y114.064 E64.5456
G1 X111.759 Y114.619
G1 X113.333 Y112.976 E64.6213
G1 X113.333 Y113.531
G1 X111.759 Y115.175 E64.6969
G1 X111.759 Y115.731
G1 X113.333 Y114.087 E64.7726
G1 X113.333 Y114.643
G1 X111.759 Y116.287 E64.8483
G1 X111.759 Y116.843
G1 X113.333 Y115.199 E64.9240
G1 X113.333 Y115.755
G1 X111.759 Y117.399 E64.9997
G1 X111.759 Y117.955
G1 X113.333 Y116.311 E65.0753
G1 X113.333 Y116.867
G1 X111.759 Y118.511 E65.1510
G1 X111.759 Y119.067
G1 X113.333 Y117.423 E65.2267
G1 X113.333 Y117.979
G1 X111.759 Y119.622 E65.3024
G1 X111.759 Y120.178
G1 X113.333 Y118.534 E65.3780
G1 X113.333 Y119.090
G1 X111.759 Y120.734 E65.4537
G1 X111.759 Y121.290
G1 X113.333 Y119.646 E65.5294
G1 X113.333 Y120.202
G1 X111.759 Y121.846 E65.6051
G1 X111.759 Y122.402
G1 X113.333 Y120.758 E65.6807
G1 X113.333 Y121.314
G1 X111.759 Y122.958 E65.7564
G1 X111.759 Y123.514
G1 X113.333 Y121.870 E65.8321
G1 X113.333 Y122.426
G1 X111.759 Y124.070 E65.9078
G1 X111.759 Y124.625
G1 X113.333 Y122.982 E65.9834
G1 X113.333 Y123.537
G1 X111.759 Y125.181 E66.0591
G1 X111.759 Y125.737
G1 X113.333 Y124.093 E66.1348
G1 X113.333 Y124.649
G1 X111.759 Y126.293 E66.2105
G1 X111.759 Y126.849
G1 X113.333 Y125.205 E66.2861
G1 X113.333 Y125.761
G1 X111.759 Y127.405 E66.3618
G1 X111.759 Y127.961
G1 X113.333 Y126.317 E66.4375
G1 X113.333 Y126.873
G1 X111.759 Y128.517 E66.5132
G1 X111.759 Y129.072
G1 X113.333 Y127.429 E66.5888
G1 X113.333 Y127.985
G1 X111.759 Y129.628 E66.6645
G1 X111.759 Y130.184
G1 X113.333 Y128.540 E66.7402
G1 X113.333 Y129.096
G1 X111.759 Y130.740 E66.8159
G1 X111.759 Y131.296
G1 X113.333 Y129.652 E66.8916
G1 X113.333 Y130.208
G1 X111.759 Y131.852 E66.9672
G1 X111.759 Y132.408
G1 X113.333 Y130.764 E67.0429
G1 X113.333 Y131.320
G1 X111.759 Y132.964 E67.1186
G1 X111.759 Y133.520
G1 X113.333 Y131.876 E67.1943
G1 X113.333 Y132.432
G1 X111.759 Y134.076 E67.2699
G1 X111.759 Y134.631
G1 X113.333 Y132.988 E67.3456
G1 X113.333 Y133.543
G1 X111.759 Y135.187 E67.4213
G1 X111.759 Y135.743
G1 X113.333 Y134.099 E67.4970
G1 X113.333 Y134.655
G1 X111.759 Y136.299 E67.5726
G1 X111.759 Y136.855
G1 X113.333 Y135.211 E67.6483
G1 X113.333 Y135.767
G1 X111.759 Y137.411 E67.7240
G1 X111.759 Y137.967
G1 X113.333 Y136.323 E67.7997
G1 X113.333 Y136.879
G1 X111.759 Y138.523 E67.8753
G1 X111.759 Y139.078
G1 X113.333 Y137.435 E67.9510
G1 X113.333 Y137.991
G1 X111.759 Y139.634 E68.0267
G1 X111.759 Y140.190
G1 X113.333 Y138.546 E68.1024
G1 X113.333 Y139.102
G1 X111.759 Y140.746 E68.1780
G1 X111.759 Y141.302
G1 X113.333 Y139.658 E68.2537
G1 X113.333 Y140.214
G1 X111.759 Y141.858 E68.3294
G1 X111.759 Y142.414
G1 X113.333 Y140.770 E68.4051
G1 X113.333 Y141.326
G1 X111.759 Y142.970 E68.4807
G1 X111.759 Y143.526
G1 X113.333 Y141.882 E68.5564
G1 X113.333 Y142.438
G1 X111.759 Y144.081 E68.6321
G1 X111.759 Y144.637
G1 X113.333 Y142.994 E68.7078
G1 X113.333 Y143.549
G1 X111.759 Y145.193 E68.7835
G1 X111.759 Y145.749
G1 X113.333 Y144.105 E68.8591
G1 X113.333 Y144.661
G1 X111.759 Y146.305 E68.9348
G1 X111.759 Y146.861
G1 X113.333 Y145.217 E69.0105
G1 X113.333 Y145.773
G1 X111.759 Y147.417 E69.0862
G1 X111.759 Y147.973
G1 X113.333 Y146.329 E69.1618
G1 X113.333 Y146.885
G1 X111.759 Y148.529 E69.2375
G1 X111.759 Y149.084
G1 X113.333 Y147.441 E69.3132
G1 X113.333 Y147.997
G1 X111.759 Y149.640 E69.3889
G1 X111.759 Y150.196
G1 X113.333 Y148.552 E69.4645
G1 X113.333 Y149.108
G1 X111.759 Y150.752 E69.5402
G1 X111.759 Y151.308
G1 X113.333 Y149.664 E69.6159
G1 X113.333 Y150.220
G1 X111.759 Y151.864 E69.6916
G1 X111.759 Y152.420
G1 X113.333 Y150.776 E69.7672
G1 X113.333 Y151.332
G1 X111.759 Y152.976 E69.8429
G1 X111.759 Y153.532
G1 X113.333 Y151.888 E69.9186
G1 X113.333 Y152.444
G1 X111.759 Y154.087 E69.9943
G1 X111.759 Y154.643
G1 X113.333 Y153.000 E70.0699
G1 X113.333 Y153.555
G1 X111.759 Y155.199 E70.1456
G1 X111.759 Y155.755
G1 X113.333 Y154.111 E70.2213
G1 X113.333 Y154.667
G1 X111.759 Y156.311 E70.2970
G1 X111.759 Y156.867
G1 X113.333 Y155.223 E70.3726
G1 X113.333 Y155.779
G1 X111.759 Y157.423 E70.4483
G1 X111.759 Y157.979
G1 X113.333 Y156.335 E70.5240
G1 X113.333 Y156.891
G1 X111.759 Y158.535 E70.5997
G1 X111.759 Y159.090
G1 X113.333 Y157.447 E70.6753
G1 X113.333 Y158.003
G1 X111.759 Y159.646 E70.7510
G1 X111.759 Y160.202
G1 X113.333 Y158.558 E70.8267
G1 X113.333 Y159.114
G1 X111.759 Y160.758 E70.9024
G1 X111.759 Y161.314
G1 X113.333 Y159.670 E70.9781
G1 X113.333 Y160.226
G1 X111.759 Y161.870 E71.0537
G1 X111.759 Y162.426
G1 X113.333 Y160.782 E71.1294
G1 X113.333 Y161.338
G1 X111.759 Y162.982 E71.2051
G1 X111.759 Y163.538
G1 X113.333 Y161.894 E71.2808
G1 X113.333 Y162.450
G1 X111.759 Y164.093 E71.3564
G1 X111.759 Y164.649
G1 X113.333 Y163.006 E71.4321
G1 X113.360 Y163.533
G1 X111.759 Y165.205 E71.5091
G1 X111.759 Y165.761
G1 X113.892 Y163.533 E71.6117
G1 X114.424 Y163.533
G1 X111.759 Y166.317 E71.7398
G1 X111.759 Y166.873
G1 X114.956 Y163.533 E71.8936
G1 X115.488 Y163.533
G1 X111.759 Y167.429 E72.0729
G1 X111.759 Y167.985
G1 X116.019 Y163.533 E72.2779
G1 X116.551 Y163.533
G1 X111.759 Y168.541 E72.5084
G1 X111.759 Y169.096
G1 X112.693 Y168.121 E72.5533
G0 X112.188 Y169.205 F10800
G1 X111.759 Y169.652 E72.5739 F3600
G0 X113.409 Y167.903 F10800
G0 X114.406 Y167.422
G0 X115.509 Y167.422
G0 X116.505 Y167.903
G0 X117.200 Y168.775
G0 X117.861 Y169.947
G1 X123.999 Y163.533 E72.8692 F3600
G1 X123.467 Y163.533
G1 X117.787 Y169.468 E73.1424
G1 X117.685 Y169.019
G1 X122.935 Y163.533 E73.3950
G1 X122.403 Y163.533
G1 X117.581 Y168.572 E73.6269
G1 X117.339 Y168.269
G1 X121.871 Y163.533 E73.8449
G1 X121.339 Y163.533
G1 X117.097 Y167.965 E74.0490
G1 X116.856 Y167.662
G1 X120.807 Y163.533 E74.2391
G1 X120.275 Y163.533
G1 X116.537 Y167.439 E74.4189
G1 X116.173 Y167.263
G1 X119.743 Y163.533 E74.5906
G1 X119.211 Y163.533
G1 X115.809 Y167.088 E74.7542
G1 X115.374 Y166.987
G1 X118.679 Y163.533 E74.9132
G1 X118.147 Y163.533
G1 X114.842 Y166.987 E75.0722
G1 X114.306 Y166.991
G1 X117.615 Y163.533 E75.2314
G1 X117.083 Y163.533
G1 X113.319 Y167.467 E75.4125
G0 X124.531 Y163.533 F10800
G1 X117.695 Y170.677 E75.7414 F3600
G0 X116.504 Y173.033 F10800
G1 X125.594 Y163.533 E76.1787 F3600
G1 X126.126 Y163.533
G1 X117.036 Y173.033 E76.6160
G1 X117.568 Y173.033
G1 X126.658 Y163.533 E77.0533
G1 X127.190 Y163.533
G1 X118.100 Y173.033 E77.4906
G1 X118.632 Y173.033
G1 X127.722 Y163.533 E77.9279
G1 X128.254 Y163.533
G1 X119.164 Y173.033 E78.3653
G1 X119.696 Y173.033
G1 X128.786 Y163.533 E78.8026
G1 X129.318 Y163.533
G1 X120.227 Y173.033 E79.2399
G1 X120.759 Y173.033
G1 X129.850 Y163.533 E79.6772
G1 X130.382 Y163.533
G1 X121.291 Y173.033 E80.1145
G1 X121.823 Y173.033
G1 X130.914 Y163.533 E80.5518
G1 X131.446 Y163.533
G1 X122.355 Y173.033 E80.9892
G1 X122.887 Y173.033
G1 X131.978 Y163.533 E81.4265
G1 X132.510 Y163.533
G1 X123.419 Y173.033 E81.8638
G1 X123.951 Y173.033
G1 X133.042 Y163.533 E82.3011
G1 X133.574 Y163.533
G1 X124.483 Y173.033 E82.7384
G1 X125.015 Y173.033
G1 X134.105 Y163.533 E83.1757
G1 X134.637 Y163.533
G1 X125.547 Y173.033 E83.6131
G1 X126.079 Y173.033
G1 X135.169 Y163.533 E84.0504
G1 X135.701 Y163.533
G1 X126.611 Y173.033 E84.4877
G1 X127.143 Y173.033
G1 X136.233 Y163.533 E84.9250
G1 X136.765 Y163.533
G1 X127.675 Y173.033 E85.3623
G1 X128.207 Y173.033
G1 X137.297 Y163.533 E85.7996
G1 X137.829 Y163.533
G1 X128.739 Y173.033 E86.2370
G1 X129.270 Y173.033
G1 X138.361 Y163.533 E86.6743
G1 X138.893 Y163.533
G1 X129.802 Y173.033 E87.1116
G1 X130.334 Y173.033
G1 X139.425 Y163.533 E87.5489
G1 X139.957 Y163.533
G1 X130.866 Y173.033 E87.9862
G1 X131.398 Y173.033
G1 X140.489 Y163.533 E88.4235
G1 X141.021 Y163.533
G1 X131.930 Y173.033 E88.8609
G1 X132.462 Y173.033
G1 X141.553 Y163.533 E89.2982
G1 X142.085 Y163.533
G1 X132.994 Y173.033 E89.7355
G1 X133.526 Y173.033
G1 X142.617 Y163.533 E90.1728
G1 X143.148 Y163.533
G1 X134.058 Y173.033 E90.6101
G1 X134.590 Y173.033
G1 X143.680 Y163.533 E91.0475
G1 X144.212 Y163.533
G1 X135.122 Y173.033 E91.4848
G1 X135.654 Y173.033
G1 X144.744 Y163.533 E91.9221
G1 X145.276 Y163.533
G1 X136.186 Y173.033 E92.3594
G1 X136.718 Y173.033
G1 X145.808 Y163.533 E92.7967
G1 X146.340 Y163.533
G1 X137.250 Y173.033 E93.2340
G1 X137.782 Y173.033
G1 X148.240 Y162.103 E93.7372
G1 X148.240 Y162.659
G1 X143.841 Y167.256 E93.9488
G0 X142.366 Y168.798 F10800
G1 X138.313 Y173.033 E94.1437 F3600
G1 X138.845 Y173.033
G1 X142.199 Y169.528 E94.3051
G1 X142.176 Y170.108
G1 X139.377 Y173.033 E94.4397
G1 X139.909 Y173.033
G1 X142.278 Y170.557 E94.5537
G1 X142.380 Y171.006
G1 X140.441 Y173.033 E94.6469
G1 X140.973 Y173.033
G1 X142.573 Y171.361 E94.7239
G1 X142.814 Y171.664
G1 X141.505 Y173.033 E94.7869
G1 X142.037 Y173.033
G1 X143.056 Y171.968 E94.8359
G1 X143.330 Y172.237
G1 X142.569 Y173.033 E94.8725
G1 X143.101 Y173.033
G1 X143.694 Y172.413 E94.9010
G1 X144.058 Y172.588
G1 X143.633 Y173.033 E94.9215
G1 X144.165 Y173.033
G1 X144.432 Y172.753 E94.9344
G1 X144.964 Y172.753
G1 X144.697 Y173.033 E94.9473
G1 X145.273 Y172.987
G1 X145.496 Y172.753 E94.9580
G1 X146.322 Y172.446
G1 X145.900 Y172.888 E94.9783
G0 X146.847 Y172.453 F10800
G1 X147.713 Y171.548 E95.0200 F3600
G0 X147.713 Y168.769 F10800
G1 X148.240 Y168.218 E95.0454 F3600
G1 X148.240 Y167.662
G1 X147.531 Y168.403 E95.0794
G1 X147.290 Y168.099
G1 X148.240 Y167.106 E95.1252
G1 X148.240 Y166.550
G1 X147.048 Y167.796 E95.1825
G1 X146.784 Y167.516
G1 X148.240 Y165.994 E95.2526
G1 X148.240 Y165.438
G1 X146.420 Y167.341 E95.3402
G1 X146.056 Y167.165
G1 X148.240 Y164.883 E95.4453
G1 X148.240 Y164.327
G1 X145.692 Y166.990 E95.5679
G1 X145.163 Y166.987
G1 X148.240 Y163.771 E95.7159
G1 X148.240 Y163.215
G1 X144.631 Y166.987 E95.8896
G0 X146.667 Y163.191 F10800
G1 X148.240 Y161.547 E95.9653 F3600
G1 X148.240 Y160.991
G1 X146.667 Y162.635 E96.0409
G1 X146.667 Y162.079
G1 X148.240 Y160.435 E96.1166
G1 X148.240 Y159.880
G1 X146.667 Y161.523 E96.1923
G1 X146.667 Y160.967
G1 X148.240 Y159.324 E96.2680
G1 X148.240 Y158.768
G1 X146.667 Y160.412 E96.3436
G1 X146.667 Y159.856
G1 X148.240 Y158.212 E96.4193
G1 X148.240 Y157.656
G1 X146.667 Y159.300 E96.4950
G1 X146.667 Y158.744
G1 X148.240 Y157.100 E96.5707
G1 X148.240 Y156.544
G1 X146.667 Y158.188 E96.6463
G1 X146.667 Y157.632
G1 X148.240 Y155.988 E96.7220
G1 X148.240 Y155.432
G1 X146.667 Y157.076 E96.7977
G1 X146.667 Y156.520
G1 X148.240 Y154.877 E96.8734
G1 X148.240 Y154.321
G1 X146.667 Y155.964 E96.9490
G1 X146.667 Y155.409
G1 X148.240 Y153.765 E97.0247
G1 X148.240 Y153.209
G1 X146.667 Y154.853 E97.1004
G1 X146.667 Y154.297
G1 X148.240 Y152.653 E97.1761
G1 X148.240 Y152.097
G1 X146.667 Y153.741 E97.2518
G1 X146.667 Y153.185
G1 X148.240 Y151.541 E97.3274
G1 X148.240 Y150.985
G1 X146.667 Y152.629 E97.4031
G1 X146.667 Y152.073
G1 X148.240 Y150.429 E97.4788
G1 X148.240 Y149.874
G1 X146.667 Y151.517 E97.5545
G1 X146.667 Y150.961
G1 X148.240 Y149.318 E97.6301
G1 X148.240 Y148.762
G1 X146.667 Y150.406 E97.7058
G1 X146.667 Y149.850
G1 X148.240 Y148.206 E97.7815
G1 X148.240 Y147.650
G1 X146.667 Y149.294 E97.8572
G1 X146.667 Y148.738
G1 X148.240 Y147.094 E97.9328
G1 X148.240 Y146.538
G1 X146.667 Y148.182 E98.0085
G1 X146.667 Y147.626
G1 X148.240 Y145.982 E98.0842
G1 X148.240 Y145.426
G1 X146.667 Y147.070 E98.1599
G1 X146.667 Y146.514
G1 X148.240 Y144.871 E98.2355
G1 X148.240 Y144.315
G1 X146.667 Y145.958 E98.3112
G1 X146.667 Y145.403
G1 X148.240 Y143.759 E98.3869
G1 X148.240 Y143.203
G1 X146.667 Y144.847 E98.4626
G1 X146.667 Y144.291
G1 X148.240 Y142.647 E98.5382
G1 X148.240 Y142.091
G1 X146.667 Y143.735 E98.6139
G1 X146.667 Y143.179
G1 X148.240 Y141.535 E98.6896
G1 X148.240 Y140.979
G1 X146.667 Y142.623 E98.7653
G1 X146.667 Y142.067
G1 X148.240 Y140.423 E98.8409
G1 X148.240 Y139.868
G1 X146.667 Y141.511 E98.9166
G1 X146.667 Y140.955
G1 X148.240 Y139.312 E98.9923
G1 X148.240 Y138.756
G1 X146.667 Y140.400 E99.0680
G1 X146.667 Y139.844
G1 X148.240 Y138.200 E99.1436
G1 X148.240 Y137.644
G1 X146.667 Y139.288 E99.2193
G1 X146.667 Y138.732
G1 X148.240 Y137.088 E99.2950
G1 X148.240 Y136.532
G1 X146.667 Y138.176 E99.3707
G1 X146.667 Y137.620
G1 X148.240 Y135.976 E99.4464
G1 X148.240 Y135.420
G1 X146.667 Y137.064 E99.5220
G1 X146.667 Y136.508
G1 X148.240 Y134.865 E99.5977
G1 X148.240 Y134.309
G1 X146.667 Y135.952 E99.6734
G1 X146.667 Y135.397
G1 X148.240 Y133.753 E99.7491
G1 X148.240 Y133.197
G1 X146.667 Y134.841 E99.8247
G1 X146.667 Y134.285
G1 X148.240 Y132.641 E99.9004
G1 X148.240 Y132.085
G1 X146.667 Y133.729 E99.9761
G1 X146.667 Y133.173
G1 X148.240 Y131.529 E100.0518
G1 X148.240 Y130.973
G1 X146.667 Y132.617 E100.1274
G1 X146.667 Y132.061
G1 X148.240 Y130.417 E100.2031
G1 X148.240 Y129.862
G1 X146.667 Y131.505 E100.2788
G1 X146.667 Y130.949
G1 X148.240 Y129.306 E100.3545
G1 X148.240 Y128.750
G1 X146.667 Y130.394 E100.4301
G1 X146.667 Y129.838
G1 X148.240 Y128.194 E100.5058
G1 X148.240 Y127.638
G1 X146.667 Y129.282 E100.5815
G1 X146.667 Y128.726
G1 X148.240 Y127.082 E100.6572
G1 X148.240 Y126.526
G1 X146.667 Y128.170 E100.7328
G1 X146.667 Y127.614
G1 X148.240 Y125.970 E100.8085
G1 X148.240 Y125.414
G1 X146.667 Y127.058 E100.8842
G1 X146.667 Y126.502
G1 X148.240 Y124.859 E100.9599
G1 X148.240 Y124.303
G1 X146.667 Y125.947 E101.0355
G1 X146.667 Y125.391
G1 X148.240 Y123.747 E101.1112
G1 X148.240 Y123.191
G1 X146.667 Y124.835 E101.1869
G1 X146.667 Y124.279
G1 X148.240 Y122.635 E101.2626
G1 X148.240 Y122.079
G1 X146.667 Y123.723 E101.3383
G1 X146.667 Y123.167
G1 X148.240 Y121.523 E101.4139
G1 X148.240 Y120.967
G1 X146.667 Y122.611 E101.4896
G1 X146.667 Y122.055
G1 X148.240 Y120.411 E101.5653
G1 X148.240 Y119.856
G1 X146.667 Y121.499 E101.6410
G1 X146.667 Y120.944
G1 X148.240 Y119.300 E101.7166
G1 X148.240 Y118.744
G1 X146.667 Y120.388 E101.7923
G1 X146.667 Y119.832
G1 X148.240 Y118.188 E101.8680
G1 X148.240 Y117.632
G1 X146.667 Y119.276 E101.9437
G1 X146.667 Y118.720
G1 X148.240 Y117.076 E102.0193
G1 X148.240 Y116.520
G1 X146.667 Y118.164 E102.0950
G1 X146.667 Y117.608
G1 X148.240 Y115.964 E102.1707
G1 X148.240 Y115.408
G1 X146.667 Y117.052 E102.2464
G1 X146.667 Y116.496
G1 X148.240 Y114.853 E102.3220
G1 X148.240 Y114.297
G1 X146.667 Y115.941 E102.3977
G1 X146.667 Y115.385
G1 X148.240 Y113.741 E102.4734
G1 X148.240 Y113.185
G1 X146.667 Y114.829 E102.5491
G1 X146.667 Y114.273
G1 X148.240 Y112.629 E102.6247
G1 X148.240 Y112.073
G1 X146.667 Y113.717 E102.7004
G1 X146.667 Y113.161
G1 X148.240 Y111.517 E102.7761
G1 X148.240 Y110.961
G1 X146.667 Y112.605 E102.8518
G1 X146.667 Y112.049
G1 X148.240 Y110.405 E102.9274
G1 X148.240 Y109.850
G1 X146.667 Y111.493 E103.0031
G1 X146.667 Y110.938
G1 X148.240 Y109.294 E103.0788
G1 X148.240 Y108.738
G1 X146.667 Y110.382 E103.1545
G1 X146.667 Y109.826
G1 X148.240 Y108.182 E103.2302
G1 X148.240 Y107.626
G1 X146.667 Y109.270 E103.3058
G1 X146.667 Y108.714
G1 X148.240 Y107.070 E103.3815
G1 X148.240 Y106.514
G1 X146.667 Y108.158 E103.4572
G1 X146.667 Y107.602
G1 X148.240 Y105.958 E103.5329
G1 X148.240 Y105.402
G1 X146.667 Y107.046 E103.6085
G1 X146.667 Y106.490
G1 X148.240 Y104.847 E103.6842
G1 X148.240 Y104.291
G1 X146.667 Y105.935 E103.7599
G1 X146.667 Y105.379
G1 X148.240 Y103.735 E103.8356
G1 X148.240 Y103.179
G1 X146.667 Y104.823 E103.9112
G1 X146.667 Y104.267
G1 X148.240 Y102.623 E103.9869
G1 X148.240 Y102.067
G1 X146.667 Y103.711 E104.0626
G1 X146.667 Y103.155
G1 X148.240 Y101.511 E104.1383
G1 X148.240 Y100.955
G1 X146.667 Y102.599 E104.2139
G1 X146.667 Y102.043
G1 X148.240 Y100.399 E104.2896
G1 X148.240 Y99.844
G1 X146.667 Y101.487 E104.3653
G1 X146.667 Y100.932
G1 X148.240 Y99.288 E104.4410
G1 X148.240 Y98.732
G1 X146.667 Y100.376 E104.5166
G1 X146.667 Y99.820
G1 X148.240 Y98.176 E104.5923
G1 X148.240 Y97.620
G1 X146.667 Y99.264 E104.6680
G1 X146.667 Y98.708
G1 X148.240 Y97.064 E104.7437
G1 X148.240 Y96.508
G1 X146.667 Y98.152 E104.8193
G1 X146.667 Y97.596
G1 X148.240 Y95.952 E104.8950
G1 X148.240 Y95.396
G1 X146.667 Y97.040 E104.9707
G1 X146.667 Y96.484
G1 X148.240 Y94.841 E105.0464
G1 X148.240 Y94.285
G1 X146.667 Y95.929 E105.1221
G1 X146.667 Y95.373
G1 X148.240 Y93.729 E105.1977
G1 X148.240 Y93.173
G1 X146.667 Y94.817 E105.2734
G1 X146.667 Y94.261
G1 X148.240 Y92.617 E105.3491
G1 X148.240 Y92.061
G1 X146.667 Y93.705 E105.4248
G1 X146.667 Y93.149
G1 X148.240 Y91.505 E105.5004
G1 X148.240 Y90.949
G1 X146.667 Y92.593 E105.5761
G1 X146.667 Y92.037
G1 X148.240 Y90.393 E105.6518
G1 X148.240 Y89.838
G1 X146.667 Y91.481 E105.7275
G1 X146.667 Y90.926
G1 X148.240 Y89.282 E105.8031
G1 X148.240 Y88.726
G1 X146.667 Y90.370 E105.8788
G1 X146.667 Y89.814
G1 X148.240 Y88.170 E105.9545
G1 X148.240 Y87.614
G1 X146.667 Y89.258 E106.0302
G1 X146.667 Y88.702
G1 X148.240 Y87.058 E106.1058
G1 X148.240 Y86.502
G1 X146.667 Y88.146 E106.1815
G1 X146.667 Y87.590
G1 X148.240 Y85.946 E106.2572
G1 X148.240 Y85.390
G1 X146.667 Y87.034 E106.3329
G1 X146.667 Y86.478
G1 X148.240 Y84.835 E106.4085
G1 X148.240 Y84.279
G1 X146.667 Y85.923 E106.4842
G1 X146.368 Y85.679
G1 X148.240 Y83.723 E106.5743
G1 X148.240 Y83.167
G1 X145.836 Y85.679 E106.6899
G1 X145.304 Y85.679
G1 X148.240 Y82.611 E106.8312
G1 X148.240 Y82.055
G1 X144.772 Y85.679 E106.9980
G1 X144.240 Y85.679
G1 X148.240 Y81.499 E107.1904
G1 X148.240 Y80.943
G1 X143.709 Y85.679 E107.4084
G1 X143.177 Y85.679
G1 X148.240 Y80.387 E107.6520
G1 X148.240 Y79.832
G1 X147.731 Y80.364 E107.6765
; ------------------------------------
; Layer #3
; ------------------------------------
G21 ; mm
G90 ; abs
G92 E0 ; reset extr
M106 S255
G0 F4800 E-1.0000
G0 F300 Z0.800
G0 X147.503 Y168.428 F10800
G0 X147.496 Y171.018
G0 F4800 E0.0000
;segType:Loop
G1 X147.485 Y171.069 E0.0017 F3600
G1 X146.726 Y172.022 E0.0422
G1 X145.641 Y172.544 E0.0823
G1 X144.444 Y172.544 E0.1221
G1 X143.360 Y172.022 E0.1621
G1 X142.600 Y171.069 E0.2026
G1 X142.327 Y169.870 E0.2435
G1 X142.600 Y168.671 E0.2845
G1 X143.360 Y167.718 E0.3250
G1 X144.444 Y167.196 E0.3650
G1 X145.641 Y167.196 E0.4048
G1 X146.726 Y167.718 E0.4449
G1 X147.485 Y168.671 E0.4854
G1 X147.758 Y169.870 E0.5263
G1 X147.540 Y170.827 E0.5589
;segType:Perimeter
G0 X148.278 Y170.483 F10800
G1 X148.626 Y171.090 E0.5822 F2159
G1 X148.116 Y172.093 E0.6196
G1 X147.277 Y172.932 E0.6591
G1 X146.218 Y173.471 E0.6986
G1 X145.027 Y173.660 E0.7387
G1 X114.972 Y173.660 E1.7384
G1 X113.782 Y173.471 E1.7784
G1 X112.723 Y172.932 E1.8180
G1 X111.884 Y172.093 E1.8574
G1 X111.347 Y171.038 E1.8968
G1 X111.159 Y169.853 E1.9367
G1 X111.159 Y79.359 E4.9465
G1 X111.347 Y78.174 E4.9864
G1 X111.884 Y77.119 E5.0258
G1 X112.723 Y76.280 E5.0653
G1 X113.782 Y75.741 E5.1048
G1 X114.972 Y75.552 E5.1449
G1 X145.027 Y75.552 E6.1445
G1 X146.218 Y75.741 E6.1846
G1 X147.277 Y76.280 E6.2241
G1 X148.116 Y77.119 E6.2636
G1 X148.653 Y78.174 E6.3030
G1 X148.840 Y79.359 E6.3429
G1 X148.840 Y169.853 E9.3527
G1 X148.662 Y170.980 E9.3907
G1 X148.032 Y171.240
;segType:Loop
G0 X147.814 Y171.796 F10800
G1 X147.793 Y171.837 E9.3922 F3600
G1 X147.046 Y172.585 E9.4273
G1 X146.098 Y173.068 E9.4627
G1 X144.997 Y173.242 E9.4998
G1 X115.002 Y173.242 E10.4974
G1 X113.902 Y173.068 E10.5345
G1 X112.954 Y172.585 E10.5699
G1 X112.207 Y171.837 E10.6050
G1 X111.731 Y170.902 E10.6399
G1 X111.559 Y169.819 E10.6764
G1 X111.559 Y79.393 E13.6839
G1 X111.731 Y78.310 E13.7204
G1 X112.207 Y77.375 E13.7553
G1 X112.954 Y76.628 E13.7905
G1 X113.902 Y76.144 E13.8259
G1 X115.002 Y75.970 E13.8629
G1 X144.997 Y75.970 E14.8606
G1 X146.098 Y76.144 E14.8976
G1 X147.046 Y76.628 E14.9330
G1 X147.793 Y77.375 E14.9681
G1 X148.269 Y78.310 E15.0030
G1 X148.440 Y79.393 E15.0395
G1 X148.440 Y169.819 E18.0471
