; GCode generated by CraftWare

G28 X0 Y0
G28 Z0

M190 S70 ;set bed temp (wait)
M109 S220 ;set head temp (wait)
; ------------------------------------
; Layer #0
; ------------------------------------
G21 ; mm
G90 ; abs
G92 E0 ; reset extr
M106 S0
;segType:Skirt
G0 F4800 E-1.0000
G0 F300 Z0.200
G0 X98.865 Y163.350 F10800
G0 F4800 E0.0000
G1 X101.652 Y166.118 E0.1306 F600
G1 X101.851 Y166.315 E0.1400
G1 X165.951 Y166.315 E2.2719
G1 X166.282 Y166.118 E2.2848
G1 X169.069 Y163.350 E2.4154
G1 X169.069 Y71.094 E5.4838
G1 X169.003 Y70.633 E5.4993
G1 X165.951 Y67.602 E5.6424
G1 X97.737 Y67.602 E7.9112
G1 X97.604 Y67.734 E7.9175
G1 X96.808 Y67.734 E7.9439
G1 X96.675 Y67.866 E7.9502
G1 X96.409 Y67.866 E7.9590
G1 X95.414 Y68.458 E7.9975
G1 X91.433 Y72.412 E8.1841
G1 X91.300 Y72.808 E8.1980
G1 X91.101 Y73.137 E8.2108
G1 X91.035 Y73.598 E8.2263
G1 X90.902 Y73.730 E8.2325
G1 X90.902 Y74.257 E8.2501
G1 X90.769 Y74.653 E8.2639
G1 X90.769 Y117.572 E9.6914
G0 F4800 E8.6914
G0 X95.087 Y132.287 F10800
G0 X106.023 Y157.600
G0 F4800 E9.6914
;segType:Support
G1 X160.600 Y157.600 E11.2344 F900
G1 X160.600 Y155.800 E11.2853
G1 X106.023 Y155.800 E12.8282
G0 F4800 E11.8282
G0 X105.633 Y153.321 F10800
G0 X105.243 Y150.842
G0 X104.852 Y148.364
G0 X103.507 Y134.433
G0 X101.766 Y134.257
G0 F4800 E12.8282
;segType:HShell
G1 X104.623 Y131.420 E12.9621 F600
G1 X104.623 Y131.980
G1 X102.330 Y134.257 E13.0696
G1 X102.893 Y134.257
G1 X104.623 Y132.540 E13.1506
G1 X104.623 Y133.100
G1 X103.457 Y134.257 E13.2053
G1 X103.684 Y134.591
G1 X104.623 Y133.659 E13.2493
G1 X104.623 Y134.219
G1 X103.684 Y135.151 E13.2932
;segType:Perimeter
G1 X103.024 Y134.853 E13.3171 F359
G1 X98.902 Y134.853 E13.4542
G1 X97.713 Y134.665 E13.4942
G1 X96.655 Y134.125 E13.5337
G1 X95.816 Y133.286 E13.5732
G1 X95.276 Y132.227 E13.6127
G1 X95.088 Y131.037 E13.6528
G1 X95.088 Y75.581 E15.4973
G1 X95.276 Y74.392 E15.5373
G1 X95.816 Y73.333 E15.5768
G1 X96.655 Y72.493 E15.6163
G1 X97.713 Y71.954 E15.6558
G1 X98.902 Y71.766 E15.6959
G1 X164.883 Y71.766 E17.8904
G1 X164.883 Y162.151 E20.8966
G1 X103.084 Y162.151 E22.9521
G1 X103.084 Y134.912 E23.8581
G1 X102.810 Y134.254
;segType:Loop
G0 X101.988 Y134.456 F10800
G1 X98.933 Y134.456 E23.9597 F600
G1 X97.839 Y134.282 E23.9965
G1 X96.894 Y133.801 E24.0318
G1 X96.144 Y133.050 E24.0671
G1 X95.662 Y132.103 E24.1024
G1 X95.488 Y131.006 E24.1394
G1 X95.488 Y75.612 E25.9818
G1 X95.662 Y74.516 E26.0187
G1 X96.144 Y73.569 E26.0541
G1 X96.894 Y72.818 E26.0894
G1 X97.839 Y72.336 E26.1246
G1 X98.933 Y72.163 E26.1615
G1 X164.483 Y72.163 E28.3417
G1 X164.483 Y161.754 E31.3215
G1 X103.484 Y161.754 E33.3503
G1 X103.484 Y134.456 E34.2583
G1 X102.187 Y134.456 E34.3014
G0 X99.518 Y133.461 F10800
G0 X98.328 Y133.491
G0 X97.324 Y133.007
G0 X96.630 Y132.137
G0 X96.129 Y130.340
;segType:HShell
G1 X95.688 Y130.778 E34.3221 F600
G1 X95.735 Y131.291
G1 X95.968 Y131.059 E34.3330
G1 X96.072 Y131.516
G1 X95.812 Y131.774 E34.3452
G1 X95.939 Y132.208
G1 X96.176 Y131.972 E34.3563
G1 X96.316 Y132.393
G1 X96.128 Y132.580 E34.3651
G1 X96.322 Y132.947
G1 X96.566 Y132.705 E34.3765
G1 X96.815 Y133.017
G1 X96.603 Y133.228 E34.3864
G1 X96.884 Y133.508
G1 X97.064 Y133.330 E34.3949
G1 X97.443 Y133.512
G1 X97.214 Y133.740 E34.4057
G1 X97.586 Y133.930
G1 X97.823 Y133.695 E34.4167
G1 X98.202 Y133.878
G1 X97.976 Y134.103 E34.4273
G1 X98.462 Y134.180
G1 X98.750 Y133.894 E34.4408
G1 X99.314 Y133.894
G1 X98.948 Y134.257 E34.4580
G1 X99.512 Y134.257
G1 X100.199 Y133.575 E34.4902
;segType:Perimeter
G0 X99.986 Y133.606 F10800
G1 X99.339 Y133.298 E34.5140 F359
G1 X98.373 Y133.298 E34.5461
G1 X97.449 Y132.853 E34.5802
G1 X96.810 Y132.052 E34.6143
G1 X96.582 Y131.053 E34.6484
G1 X96.810 Y130.054 E34.6825
G1 X97.449 Y129.252 E34.7166
G1 X98.373 Y128.807 E34.7507
G1 X99.399 Y128.807 E34.7848
G1 X100.323 Y129.252 E34.8189
G1 X100.962 Y130.054 E34.8530
G1 X101.190 Y131.053 E34.8871
G1 X100.962 Y132.052 E34.9212
G1 X100.323 Y132.853 E34.9553
G1 X99.453 Y133.272 E34.9874
G1 X99.006 Y133.830
G0 F4800 E33.9874
G0 X98.303 Y133.695 F10800
G0 F4800 E34.9874
;segType:Loop
G1 X98.281 Y133.695 E34.9881 F600
G1 X97.192 Y133.170 E35.0283
G1 X96.439 Y132.227 E35.0685
G1 X96.172 Y131.053 E35.1085
G1 X96.439 Y129.878 E35.1486
G1 X97.192 Y128.935 E35.1887
G1 X98.281 Y128.410 E35.2290
G1 X99.491 Y128.410 E35.2692
G1 X100.580 Y128.935 E35.3094
G1 X101.332 Y129.878 E35.3495
G1 X101.600 Y131.053 E35.3896
G1 X101.332 Y132.227 E35.4297
G1 X100.580 Y133.170 E35.4698
G1 X99.491 Y133.695 E35.5100
G1 X98.502 Y133.695 E35.5429
G0 X96.630 Y132.137 F10800
G0 X96.383 Y131.053
G0 X104.623 Y74.330
;segType:HShell
G1 X95.688 Y83.202 E35.9617 F600
G1 X95.688 Y82.643
G1 X100.345 Y78.018 E36.1800
;segType:Perimeter
G0 X99.986 Y78.119 F10800
G1 X99.339 Y77.812 E36.2038 F359
G1 X98.373 Y77.812 E36.2360
G1 X97.449 Y77.366 E36.2701
G1 X96.810 Y76.565 E36.3042
G1 X96.582 Y75.566 E36.3383
G1 X96.810 Y74.567 E36.3723
G1 X97.449 Y73.766 E36.4064
G1 X98.373 Y73.321 E36.4405
G1 X99.399 Y73.321 E36.4747
G1 X100.323 Y73.766 E36.5088
G1 X100.962 Y74.567 E36.5429
G1 X101.190 Y75.566 E36.5769
G1 X100.962 Y76.565 E36.6110
G1 X100.323 Y77.366 E36.6451
G1 X99.453 Y77.786 E36.6772
G1 X99.006 Y78.343
;segType:Loop
G0 X98.303 Y78.209 F10800
G1 X98.281 Y78.209 E36.6780 F600
G1 X97.192 Y77.684 E36.7182
G1 X96.439 Y76.741 E36.7583
G1 X96.172 Y75.566 E36.7984
G1 X96.439 Y74.391 E36.8385
G1 X97.192 Y73.448 E36.8786
G1 X98.281 Y72.923 E36.9188
G1 X99.491 Y72.923 E36.9590
G1 X100.580 Y73.448 E36.9993
G1 X101.332 Y74.391 E37.0394
G1 X101.600 Y75.566 E37.0795
G1 X101.332 Y76.741 E37.1195
G1 X100.580 Y77.684 E37.1597
G1 X99.491 Y78.209 E37.1999
G1 X98.502 Y78.209 E37.2327
G0 X105.023 Y77.936 F10800
G0 X105.082 Y73.768
G0 X158.627 Y73.312
;segType:HShell
G1 X159.584 Y72.362 E37.2776 F600
G1 X160.148 Y72.362
G1 X159.191 Y73.312 E37.3224
G1 X159.755 Y73.312
G1 X160.711 Y72.362 E37.3673
G1 X161.275 Y72.362
G1 X160.318 Y73.312 E37.4121
G1 X160.882 Y73.312
G1 X161.839 Y72.362 E37.4570
G1 X162.402 Y72.362
G1 X161.445 Y73.312 E37.5018
G1 X162.009 Y73.312
G1 X162.966 Y72.362 E37.5467
G1 X163.529 Y72.362
G1 X162.573 Y73.312 E37.5915
;segType:Perimeter
G0 X162.470 Y73.309 F10800
G1 X162.745 Y73.967 E37.6152 F359
G1 X162.745 Y160.009 E40.4770
G1 X105.223 Y160.009 E42.3902
G1 X105.223 Y73.908 E45.2540
G1 X162.685 Y73.908 E47.1652
G1 X163.348 Y74.181
;segType:Loop
G0 X163.145 Y74.996 F10800
G1 X163.145 Y160.406 E50.0059 F600
G1 X104.823 Y160.406 E51.9457
G1 X104.823 Y73.511 E54.8359
G1 X163.145 Y73.511 E56.7757
G1 X163.145 Y74.798 E56.8185
;segType:HShell
G0 X163.136 Y73.312 F10800
G1 X164.093 Y72.362 E56.8634 F600
G1 X164.283 Y72.732
G1 X163.345 Y73.664 E56.9074
G1 X163.345 Y74.224
G1 X164.283 Y73.292 E56.9514
G1 X164.283 Y73.852
G1 X163.345 Y74.784 E56.9953
G1 X163.345 Y75.343
G1 X164.283 Y74.412 E57.0393
G1 X164.283 Y74.971
G1 X163.345 Y75.903 E57.0833
G1 X163.345 Y76.463
G1 X164.283 Y75.531 E57.1273
G1 X164.283 Y76.091
G1 X163.345 Y77.023 E57.1713
G1 X163.345 Y77.582
G1 X164.283 Y76.650 E57.2153
G1 X164.283 Y77.210
G1 X163.345 Y78.142 E57.2592
G1 X163.345 Y78.702
G1 X164.283 Y77.770 E57.3032
G1 X164.283 Y78.330
G1 X163.345 Y79.261 E57.3472
G1 X163.345 Y79.821
G1 X164.283 Y78.889 E57.3912
G1 X164.283 Y79.449
G1 X163.345 Y80.381 E57.4352
G1 X163.345 Y80.941
G1 X164.283 Y80.009 E57.4792
G1 X164.283 Y80.568
G1 X163.345 Y81.500 E57.5231
G1 X163.345 Y82.060
G1 X164.283 Y81.128 E57.5671
G1 X164.283 Y81.688
G1 X163.345 Y82.620 E57.6111
G1 X163.345 Y83.179
G1 X164.283 Y82.248 E57.6551
G1 X164.283 Y82.807
G1 X163.345 Y83.739 E57.6991
G1 X163.345 Y84.299
G1 X164.283 Y83.367 E57.7431
G1 X164.283 Y83.927
G1 X163.345 Y84.859 E57.7870
G1 X163.345 Y85.418
G1 X164.283 Y84.486 E57.8310
G1 X164.283 Y85.046
G1 X163.345 Y85.978 E57.8750
G1 X163.345 Y86.538
G1 X164.283 Y85.606 E57.9190
G1 X164.283 Y86.166
G1 X163.345 Y87.097 E57.9630
G1 X163.345 Y87.657
G1 X164.283 Y86.725 E58.0070
G1 X164.283 Y87.285
G1 X163.345 Y88.217 E58.0509
G1 X163.345 Y88.777
G1 X164.283 Y87.845 E58.0949
G1 X164.283 Y88.404
G1 X163.345 Y89.336 E58.1389
G1 X163.345 Y89.896
G1 X164.283 Y88.964 E58.1829
G1 X164.283 Y89.524
G1 X163.345 Y90.456 E58.2269
G1 X163.345 Y91.015
G1 X164.283 Y90.084 E58.2709
G1 X164.283 Y90.643
G1 X163.345 Y91.575 E58.3148
G1 X163.345 Y92.135
G1 X164.283 Y91.203 E58.3588
G1 X164.283 Y91.763
G1 X163.345 Y92.695 E58.4028
G1 X163.345 Y93.254
G1 X164.283 Y92.322 E58.4468
G1 X164.283 Y92.882
G1 X163.345 Y93.814 E58.4908
G1 X163.345 Y94.374
G1 X164.283 Y93.442 E58.5348
G1 X164.283 Y94.002
G1 X163.345 Y94.933 E58.5787
G1 X163.345 Y95.493
G1 X164.283 Y94.561 E58.6227
G1 X164.283 Y95.121
G1 X163.345 Y96.053 E58.6667
G1 X163.345 Y96.613
G1 X164.283 Y95.681 E58.7107
G1 X164.283 Y96.240
G1 X163.345 Y97.172 E58.7547
G1 X163.345 Y97.732
G1 X164.283 Y96.800 E58.7987
G1 X164.283 Y97.360
G1 X163.345 Y98.292 E58.8426
G1 X163.345 Y98.851
G1 X164.283 Y97.920 E58.8866
G1 X164.283 Y98.479
G1 X163.345 Y99.411 E58.9306
G1 X163.345 Y99.971
G1 X164.283 Y99.039 E58.9746
G1 X164.283 Y99.599
G1 X163.345 Y100.531 E59.0186
G1 X163.345 Y101.090
G1 X164.283 Y100.158 E59.0626
G1 X164.283 Y100.718
G1 X163.345 Y101.650 E59.1065
G1 X163.345 Y102.210
G1 X164.283 Y101.278 E59.1505
G1 X164.283 Y101.838
G1 X163.345 Y102.769 E59.1945
G1 X163.345 Y103.329
G1 X164.283 Y102.397 E59.2385
G1 X164.283 Y102.957
G1 X163.345 Y103.889 E59.2825
G1 X163.345 Y104.449
G1 X164.283 Y103.517 E59.3265
G1 X164.283 Y104.076
G1 X163.345 Y105.008 E59.3704
G1 X163.345 Y105.568
G1 X164.283 Y104.636 E59.4144
G1 X164.283 Y105.196
G1 X163.345 Y106.128 E59.4584
G1 X163.345 Y106.687
G1 X164.283 Y105.756 E59.5024
G1 X164.283 Y106.315
G1 X163.345 Y107.247 E59.5464
G1 X163.345 Y107.807
G1 X164.283 Y106.875 E59.5904
G1 X164.283 Y107.435
G1 X163.345 Y108.367 E59.6343
G1 X163.345 Y108.926
G1 X164.283 Y107.994 E59.6783
G1 X164.283 Y108.554
G1 X163.345 Y109.486 E59.7223
G1 X163.345 Y110.046
G1 X164.283 Y109.114 E59.7663
G1 X164.283 Y109.674
G1 X163.345 Y110.605 E59.8103
G1 X163.345 Y111.165
G1 X164.283 Y110.233 E59.8543
G1 X164.283 Y110.793
G1 X163.345 Y111.725 E59.8982
G1 X163.345 Y112.285
G1 X164.283 Y111.353 E59.9422
G1 X164.283 Y111.912
G1 X163.345 Y112.844 E59.9862
G1 X163.345 Y113.404
G1 X164.283 Y112.472 E60.0302
G1 X164.283 Y113.032
G1 X163.345 Y113.964 E60.0742
G1 X163.345 Y114.523
G1 X164.283 Y113.592 E60.1182
G1 X164.283 Y114.151
G1 X163.345 Y115.083 E60.1622
G1 X163.345 Y115.643
G1 X164.283 Y114.711 E60.2061
G1 X164.283 Y115.271
G1 X163.345 Y116.202 E60.2501
G1 X163.345 Y116.762
G1 X164.283 Y115.830 E60.2941
G1 X164.283 Y116.390
G1 X163.345 Y117.322 E60.3381
G1 X163.345 Y117.882
G1 X164.283 Y116.950 E60.3821
G1 X164.283 Y117.510
G1 X163.345 Y118.441 E60.4261
G1 X163.345 Y119.001
G1 X164.283 Y118.069 E60.4700
G1 X164.283 Y118.629
G1 X163.345 Y119.561 E60.5140
G1 X163.345 Y120.120
G1 X164.283 Y119.189 E60.5580
G1 X164.283 Y119.748
G1 X163.345 Y120.680 E60.6020
G1 X163.345 Y121.240
G1 X164.283 Y120.308 E60.6460
G1 X164.283 Y120.868
G1 X163.345 Y121.800 E60.6900
G1 X163.345 Y122.359
G1 X164.283 Y121.428 E60.7339
G1 X164.283 Y121.987
G1 X163.345 Y122.919 E60.7779
G1 X163.345 Y123.479
G1 X164.283 Y122.547 E60.8219
G1 X164.283 Y123.107
G1 X163.345 Y124.038 E60.8659
G1 X163.345 Y124.598
G1 X164.283 Y123.666 E60.9099
G1 X164.283 Y124.226
G1 X163.345 Y125.158 E60.9539
G1 X163.345 Y125.718
G1 X164.283 Y124.786 E60.9978
G1 X164.283 Y125.346
G1 X163.345 Y126.277 E61.0418
G1 X163.345 Y126.837
G1 X164.283 Y125.905 E61.0858
G1 X164.283 Y126.465
G1 X163.345 Y127.397 E61.1298
G1 X163.345 Y127.956
G1 X164.283 Y127.025 E61.1738
G1 X164.283 Y127.584
G1 X163.345 Y128.516 E61.2178
G1 X163.345 Y129.076
G1 X164.283 Y128.144 E61.2617
G1 X164.283 Y128.704
G1 X163.345 Y129.636 E61.3057
G1 X163.345 Y130.195
G1 X164.283 Y129.264 E61.3497
G1 X164.283 Y129.823
G1 X163.345 Y130.755 E61.3937
G1 X163.345 Y131.315
G1 X164.283 Y130.383 E61.4377
G1 X164.283 Y130.943
G1 X163.345 Y131.874 E61.4817
G1 X163.345 Y132.434
G1 X164.283 Y131.502 E61.5256
G1 X164.283 Y132.062
G1 X163.345 Y132.994 E61.5696
G1 X163.345 Y133.554
G1 X164.283 Y132.622 E61.6136
G1 X164.283 Y133.182
G1 X163.345 Y134.113 E61.6576
G1 X163.345 Y134.673
G1 X164.283 Y133.741 E61.7016
G1 X164.283 Y134.301
G1 X163.345 Y135.233 E61.7456
G1 X163.345 Y135.792
G1 X164.283 Y134.861 E61.7895
G1 X164.283 Y135.420
G1 X163.345 Y136.352 E61.8335
G1 X163.345 Y136.912
G1 X164.283 Y135.980 E61.8775
G1 X164.283 Y136.540
G1 X163.345 Y137.472 E61.9215
G1 X163.345 Y138.031
G1 X164.283 Y137.099 E61.9655
G1 X164.283 Y137.659
G1 X163.345 Y138.591 E62.0095
G1 X163.345 Y139.151
G1 X164.283 Y138.219 E62.0534
G1 X164.283 Y138.779
G1 X163.345 Y139.710 E62.0974
G1 X163.345 Y140.270
G1 X164.283 Y139.338 E62.1414
G1 X164.283 Y139.898
G1 X163.345 Y140.830 E62.1854
G1 X163.345 Y141.390
G1 X164.283 Y140.458 E62.2294
G1 X164.283 Y141.017
G1 X163.345 Y141.949 E62.2734
G1 X163.345 Y142.509
G1 X164.283 Y141.577 E62.3173
G1 X164.283 Y142.137
G1 X163.345 Y143.069 E62.3613
G1 X163.345 Y143.628
G1 X164.283 Y142.697 E62.4053
G1 X164.283 Y143.256
G1 X163.345 Y144.188 E62.4493
G1 X163.345 Y144.748
G1 X164.283 Y143.816 E62.4933
G1 X164.283 Y144.376
G1 X163.345 Y145.308 E62.5373
G1 X163.345 Y145.867
G1 X164.283 Y144.935 E62.5812
G1 X164.283 Y145.495
G1 X163.345 Y146.427 E62.6252
G1 X163.345 Y146.987
G1 X164.283 Y146.055 E62.6692
G1 X164.283 Y146.615
G1 X163.345 Y147.546 E62.7132
G1 X163.345 Y148.106
G1 X164.283 Y147.174 E62.7572
G1 X164.283 Y147.734
G1 X163.345 Y148.666 E62.8012
G1 X163.345 Y149.226
G1 X164.283 Y148.294 E62.8451
G1 X164.283 Y148.853
G1 X163.345 Y149.785 E62.8891
G1 X163.345 Y150.345
G1 X164.283 Y149.413 E62.9331
G1 X164.283 Y149.973
G1 X163.345 Y150.905 E62.9771
G1 X163.345 Y151.464
G1 X164.283 Y150.533 E63.0211
G1 X164.283 Y151.092
G1 X163.345 Y152.024 E63.0651
G1 X163.345 Y152.584
G1 X164.283 Y151.652 E63.1090
G1 X164.283 Y152.212
G1 X163.345 Y153.144 E63.1530
G1 X163.345 Y153.703
G1 X164.283 Y152.771 E63.1970
G1 X164.283 Y153.331
G1 X163.345 Y154.263 E63.2410
G1 X163.345 Y154.823
G1 X164.283 Y153.891 E63.2850
G1 X164.283 Y154.451
G1 X163.345 Y155.382 E63.3290
G1 X163.345 Y155.942
G1 X164.283 Y155.010 E63.3729
G1 X164.283 Y155.570
G1 X163.345 Y156.502 E63.4169
G1 X163.345 Y157.062
G1 X164.283 Y156.130 E63.4609
G1 X164.283 Y156.689
G1 X163.345 Y157.621 E63.5049
G1 X163.345 Y158.181
G1 X164.283 Y157.249 E63.5489
G1 X164.283 Y157.809
G1 X163.345 Y158.741 E63.5929
G1 X163.345 Y159.300
G1 X164.283 Y158.369 E63.6368
G1 X164.283 Y158.928
G1 X163.345 Y159.860 E63.6808
G1 X163.345 Y160.420
G1 X164.283 Y159.488 E63.7248
G1 X164.283 Y160.048
G1 X162.765 Y161.555 E63.7960
G1 X163.329 Y161.555
G1 X164.283 Y160.607 E63.8407
G1 X164.283 Y161.167
G1 X163.893 Y161.555 E63.8590
G0 X163.158 Y160.605 F10800
G1 X162.202 Y161.555 E63.9039 F600
G1 X161.638 Y161.555
G1 X162.595 Y160.605 E63.9487
G1 X162.031 Y160.605
G1 X161.074 Y161.555 E63.9936
G1 X160.511 Y161.555
G1 X161.468 Y160.605 E64.0384
G1 X160.904 Y160.605
G1 X159.947 Y161.555 E64.0833
G1 X159.384 Y161.555
G1 X160.340 Y160.605 E64.1281
G1 X159.777 Y160.605
G1 X158.820 Y161.555 E64.1729
G1 X158.256 Y161.555
G1 X159.213 Y160.605 E64.2178
G1 X158.650 Y160.605
G1 X157.693 Y161.555 E64.2626
G1 X157.129 Y161.555
G1 X158.086 Y160.605 E64.3075
G1 X157.522 Y160.605
G1 X156.566 Y161.555 E64.3523
G1 X156.002 Y161.555
G1 X156.959 Y160.605 E64.3972
G1 X156.395 Y160.605
G1 X155.438 Y161.555 E64.4420
G1 X154.875 Y161.555
G1 X155.831 Y160.605 E64.4869
G1 X155.268 Y160.605
G1 X154.311 Y161.555 E64.5317
G1 X153.747 Y161.555
G1 X154.704 Y160.605 E64.5766
G1 X154.141 Y160.605
G1 X153.184 Y161.555 E64.6214
G1 X152.620 Y161.555
G1 X153.577 Y160.605 E64.6662
G1 X153.013 Y160.605
G1 X152.057 Y161.555 E64.7111
G1 X151.493 Y161.555
G1 X152.450 Y160.605 E64.7559
G1 X151.886 Y160.605
G1 X150.929 Y161.555 E64.8008
G1 X150.366 Y161.555
G1 X151.323 Y160.605 E64.8456
G1 X150.759 Y160.605
G1 X149.802 Y161.555 E64.8905
G1 X149.239 Y161.555
G1 X150.195 Y160.605 E64.9353
G1 X149.632 Y160.605
G1 X148.675 Y161.555 E64.9802
G1 X148.111 Y161.555
G1 X149.068 Y160.605 E65.0250
G1 X148.504 Y160.605
G1 X147.548 Y161.555 E65.0699
G1 X146.984 Y161.555
G1 X147.941 Y160.605 E65.1147
G1 X147.377 Y160.605
G1 X146.420 Y161.555 E65.1595
G1 X145.857 Y161.555
G1 X146.814 Y160.605 E65.2044
G1 X146.250 Y160.605
G1 X145.293 Y161.555 E65.2492
G1 X144.730 Y161.555
G1 X145.686 Y160.605 E65.2941
G1 X145.123 Y160.605
G1 X144.166 Y161.555 E65.3389
G1 X143.602 Y161.555
G1 X144.559 Y160.605 E65.3838
G1 X143.995 Y160.605
G1 X143.039 Y161.555 E65.4286
G1 X142.475 Y161.555
G1 X143.432 Y160.605 E65.4735
G1 X142.868 Y160.605
G1 X141.912 Y161.555 E65.5183
G1 X141.348 Y161.555
G1 X142.305 Y160.605 E65.5632
G1 X141.741 Y160.605
G1 X140.784 Y161.555 E65.6080
G1 X140.221 Y161.555
G1 X141.177 Y160.605 E65.6529
G1 X140.614 Y160.605
G1 X139.657 Y161.555 E65.6977
G1 X139.093 Y161.555
G1 X140.050 Y160.605 E65.7425
G1 X139.487 Y160.605
G1 X138.530 Y161.555 E65.7874
G1 X137.966 Y161.555
G1 X138.923 Y160.605 E65.8322
G1 X138.359 Y160.605
G1 X137.403 Y161.555 E65.8771
G1 X136.839 Y161.555
G1 X137.796 Y160.605 E65.9219
G1 X137.232 Y160.605
G1 X136.275 Y161.555 E65.9668
G1 X135.712 Y161.555
G1 X136.668 Y160.605 E66.0116
G1 X136.105 Y160.605
G1 X135.148 Y161.555 E66.0565
G1 X134.585 Y161.555
G1 X135.541 Y160.605 E66.1013
G1 X134.978 Y160.605
G1 X134.021 Y161.555 E66.1462
G1 X133.457 Y161.555
G1 X134.414 Y160.605 E66.1910
G1 X133.850 Y160.605
G1 X132.894 Y161.555 E66.2358
G1 X132.330 Y161.555
G1 X133.287 Y160.605 E66.2807
G1 X132.723 Y160.605
G1 X131.766 Y161.555 E66.3255
G1 X131.203 Y161.555
G1 X132.160 Y160.605 E66.3704
G1 X131.596 Y160.605
G1 X130.639 Y161.555 E66.4152
G1 X130.076 Y161.555
G1 X131.032 Y160.605 E66.4601
G1 X130.469 Y160.605
G1 X129.512 Y161.555 E66.5049
G1 X128.948 Y161.555
G1 X129.905 Y160.605 E66.5498
G1 X129.341 Y160.605
G1 X128.385 Y161.555 E66.5946
G1 X127.821 Y161.555
G1 X128.778 Y160.605 E66.6395
G1 X128.214 Y160.605
G1 X127.258 Y161.555 E66.6843
G1 X126.694 Y161.555
G1 X127.651 Y160.605 E66.7291
G1 X127.087 Y160.605
G1 X126.130 Y161.555 E66.7740
G1 X125.567 Y161.555
G1 X126.523 Y160.605 E66.8188
G1 X125.960 Y160.605
G1 X125.003 Y161.555 E66.8637
G1 X124.439 Y161.555
G1 X125.396 Y160.605 E66.9085
G1 X124.833 Y160.605
G1 X123.876 Y161.555 E66.9534
G1 X123.312 Y161.555
G1 X124.269 Y160.605 E66.9982
G1 X123.705 Y160.605
G1 X122.749 Y161.555 E67.0431
G1 X122.185 Y161.555
G1 X123.142 Y160.605 E67.0879
G1 X122.578 Y160.605
G1 X121.621 Y161.555 E67.1328
G1 X121.058 Y161.555
G1 X122.014 Y160.605 E67.1776
G1 X121.451 Y160.605
G1 X120.494 Y161.555 E67.2224
G1 X119.931 Y161.555
G1 X120.887 Y160.605 E67.2673
G1 X120.324 Y160.605
G1 X119.367 Y161.555 E67.3121
G1 X118.803 Y161.555
G1 X119.760 Y160.605 E67.3570
G1 X119.196 Y160.605
G1 X118.240 Y161.555 E67.4018
G1 X117.676 Y161.555
G1 X118.633 Y160.605 E67.4467
G1 X118.069 Y160.605
G1 X117.112 Y161.555 E67.4915
G1 X116.549 Y161.555
G1 X117.506 Y160.605 E67.5364
G1 X116.942 Y160.605
G1 X115.985 Y161.555 E67.5812
G1 X115.422 Y161.555
G1 X116.378 Y160.605 E67.6261
G1 X115.815 Y160.605
G1 X114.858 Y161.555 E67.6709
G1 X114.294 Y161.555
G1 X115.251 Y160.605 E67.7157
G1 X114.687 Y160.605
G1 X113.731 Y161.555 E67.7606
G1 X113.167 Y161.555
G1 X114.124 Y160.605 E67.8054
G1 X113.560 Y160.605
G1 X112.604 Y161.555 E67.8503
G1 X112.040 Y161.555
G1 X112.997 Y160.605 E67.8951
G1 X112.433 Y160.605
G1 X111.476 Y161.555 E67.9400
G1 X110.913 Y161.555
G1 X111.869 Y160.605 E67.9848
G1 X111.306 Y160.605
G1 X110.349 Y161.555 E68.0297
G1 X109.785 Y161.555
G1 X110.742 Y160.605 E68.0745
G1 X110.179 Y160.605
G1 X109.222 Y161.555 E68.1194
G1 X108.658 Y161.555
G1 X109.615 Y160.605 E68.1642
G1 X109.051 Y160.605
G1 X108.095 Y161.555 E68.2090
G1 X107.531 Y161.555
G1 X108.488 Y160.605 E68.2539
G1 X107.924 Y160.605
G1 X106.967 Y161.555 E68.2987
G1 X106.404 Y161.555
G1 X107.360 Y160.605 E68.3436
G1 X106.797 Y160.605
G1 X105.840 Y161.555 E68.3884
G1 X105.277 Y161.555
G1 X106.233 Y160.605 E68.4333
G1 X105.670 Y160.605
G1 X104.713 Y161.555 E68.4781
G1 X104.149 Y161.555
G1 X105.106 Y160.605 E68.5230
G1 X104.623 Y160.526
G1 X103.684 Y161.457 E68.5670
G1 X103.684 Y160.898
G1 X104.623 Y159.966 E68.6109
G1 X104.623 Y159.406
G1 X103.684 Y160.338 E68.6549
G1 X103.684 Y159.778
G1 X104.623 Y158.846 E68.6989
G1 X104.623 Y158.287
G1 X103.684 Y159.219 E68.7429
G1 X103.684 Y158.659
G1 X104.623 Y157.727 E68.7869
G1 X104.623 Y157.167
G1 X103.684 Y158.099 E68.8309
G1 X103.684 Y157.539
G1 X104.623 Y156.608 E68.8748
G1 X104.623 Y156.048
G1 X103.684 Y156.980 E68.9188
G1 X103.684 Y156.420
G1 X104.623 Y155.488 E68.9628
G1 X104.623 Y154.928
G1 X103.684 Y155.860 E69.0068
G1 X103.684 Y155.301
G1 X104.623 Y154.369 E69.0508
G1 X104.623 Y153.809
G1 X103.684 Y154.741 E69.0948
G1 X103.684 Y154.181
G1 X104.623 Y153.249 E69.1387
G1 X104.623 Y152.690
G1 X103.684 Y153.621 E69.1827
G1 X103.684 Y153.062
G1 X104.623 Y152.130 E69.2267
G1 X104.623 Y151.570
G1 X103.684 Y152.502 E69.2707
G1 X103.684 Y151.942
G1 X104.623 Y151.010 E69.3147
G1 X104.623 Y150.451
G1 X103.684 Y151.383 E69.3587
G1 X103.684 Y150.823
G1 X104.623 Y149.891 E69.4026
G1 X104.623 Y149.331
G1 X103.684 Y150.263 E69.4466
G1 X103.684 Y149.703
G1 X104.623 Y148.772 E69.4906
G1 X104.623 Y148.212
G1 X103.684 Y149.144 E69.5346
G1 X103.684 Y148.584
G1 X104.623 Y147.652 E69.5786
G1 X104.623 Y147.092
G1 X103.684 Y148.024 E69.6226
G1 X103.684 Y147.465
G1 X104.623 Y146.533 E69.6665
G1 X104.623 Y145.973
G1 X103.684 Y146.905 E69.7105
G1 X103.684 Y146.345
G1 X104.623 Y145.413 E69.7545
G1 X104.623 Y144.854
G1 X103.684 Y145.785 E69.7985
G1 X103.684 Y145.226
G1 X104.623 Y144.294 E69.8425
G1 X104.623 Y143.734
G1 X103.684 Y144.666 E69.8865
G1 X103.684 Y144.106
G1 X104.623 Y143.174 E69.9304
G1 X104.623 Y142.615
G1 X103.684 Y143.547 E69.9744
G1 X103.684 Y142.987
G1 X104.623 Y142.055 E70.0184
G1 X104.623 Y141.495
G1 X103.684 Y142.427 E70.0624
G1 X103.684 Y141.867
G1 X104.623 Y140.936 E70.1064
G1 X104.623 Y140.376
G1 X103.684 Y141.308 E70.1504
G1 X103.684 Y140.748
G1 X104.623 Y139.816 E70.1943
G1 X104.623 Y139.256
G1 X103.684 Y140.188 E70.2383
G1 X103.684 Y139.629
G1 X104.623 Y138.697 E70.2823
G1 X104.623 Y138.137
G1 X103.684 Y139.069 E70.3263
G1 X103.684 Y138.509
G1 X104.623 Y137.577 E70.3703
G1 X104.623 Y137.018
G1 X103.684 Y137.949 E70.4143
G1 X103.684 Y137.390
G1 X104.623 Y136.458 E70.4582
G1 X104.623 Y135.898
G1 X103.684 Y136.830 E70.5022
G1 X103.684 Y136.270
G1 X104.623 Y135.338 E70.5462
G1 X104.623 Y134.779
G1 X103.684 Y135.711 E70.5902
G0 X103.225 Y134.713 F10800
G0 X101.203 Y134.257
G1 X104.623 Y130.861 E70.7505 F600
G1 X104.623 Y130.301
G1 X100.639 Y134.257 E70.9372
G1 X100.075 Y134.257
G1 X104.623 Y129.741 E71.1504
G1 X104.623 Y129.182
G1 X101.532 Y132.251 E71.2952
G1 X101.697 Y131.527
G1 X104.623 Y128.622 E71.4324
G1 X104.623 Y128.062
G1 X101.769 Y130.896 E71.5661
G1 X101.665 Y130.439
G1 X104.623 Y127.502 E71.7047
G1 X104.623 Y126.943
G1 X101.561 Y129.983 E71.8482
G1 X101.373 Y129.610
G1 X104.623 Y126.383 E72.0005
G1 X104.623 Y125.823
G1 X101.124 Y129.297 E72.1645
G1 X100.875 Y128.985
G1 X104.623 Y125.264 E72.3402
G1 X104.623 Y124.704
G1 X100.583 Y128.716 E72.5295
G1 X100.203 Y128.533
G1 X104.623 Y124.144 E72.7367
G1 X104.623 Y123.584
G1 X99.824 Y128.350 E72.9616
G1 X99.400 Y128.211
G1 X104.623 Y123.025 E73.2064
G1 X104.623 Y122.465
G1 X98.836 Y128.211 E73.4776
G1 X98.273 Y128.211
G1 X104.623 Y121.905 E73.7753
G1 X104.623 Y121.346
G1 X97.213 Y128.704 E74.1226
G1 X96.770 Y129.144
G1 X95.688 Y130.218 E74.1733
G1 X95.688 Y129.659
G1 X104.623 Y120.786 E74.5921
G1 X104.623 Y120.226
G1 X95.688 Y129.099 E75.0109
G1 X95.688 Y128.539
G1 X104.623 Y119.667 E75.4297
G1 X104.623 Y119.107
G1 X95.688 Y127.979 E75.8485
G1 X95.688 Y127.420
G1 X104.623 Y118.547 E76.2673
G1 X104.623 Y117.987
G1 X95.688 Y126.860 E76.6861
G1 X95.688 Y126.300
G1 X104.623 Y117.428 E77.1049
G1 X104.623 Y116.868
G1 X95.688 Y125.741 E77.5237
G1 X95.688 Y125.181
G1 X104.623 Y116.308 E77.9425
G1 X104.623 Y115.749
G1 X95.688 Y124.621 E78.3613
G1 X95.688 Y124.061
G1 X104.623 Y115.189 E78.7801
G1 X104.623 Y114.629
G1 X95.688 Y123.502 E79.1989
G1 X95.688 Y122.942
G1 X104.623 Y114.069 E79.6177
G1 X104.623 Y113.510
G1 X95.688 Y122.382 E80.0365
G1 X95.688 Y121.823
G1 X104.623 Y112.950 E80.4553
G1 X104.623 Y112.390
G1 X95.688 Y121.263 E80.8741
G1 X95.688 Y120.703
G1 X104.623 Y111.831 E81.2929
G1 X104.623 Y111.271
G1 X95.688 Y120.143 E81.7117
G1 X95.688 Y119.584
G1 X104.623 Y110.711 E82.1305
G1 X104.623 Y110.151
G1 X95.688 Y119.024 E82.5493
G1 X95.688 Y118.464
G1 X104.623 Y109.592 E82.9681
G1 X104.623 Y109.032
G1 X95.688 Y117.905 E83.3869
G1 X95.688 Y117.345
G1 X104.623 Y108.472 E83.8057
G1 X104.623 Y107.913
G1 X95.688 Y116.785 E84.2245
G1 X95.688 Y116.225
G1 X104.623 Y107.353 E84.6433
G1 X104.623 Y106.793
G1 X95.688 Y115.666 E85.0621
G1 X95.688 Y115.106
G1 X104.623 Y106.233 E85.4809
G1 X104.623 Y105.674
G1 X95.688 Y114.546 E85.8997
G1 X95.688 Y113.987
G1 X104.623 Y105.114 E86.3185
G1 X104.623 Y104.554
G1 X95.688 Y113.427 E86.7373
G1 X95.688 Y112.867
G1 X104.623 Y103.995 E87.1561
G1 X104.623 Y103.435
G1 X95.688 Y112.307 E87.5749
G1 X95.688 Y111.748
G1 X104.623 Y102.875 E87.9937
G1 X104.623 Y102.315
G1 X95.688 Y111.188 E88.4125
G1 X95.688 Y110.628
G1 X104.623 Y101.756 E88.8313
G1 X104.623 Y101.196
G1 X95.688 Y110.069 E89.2501
G1 X95.688 Y109.509
G1 X104.623 Y100.636 E89.6689
G1 X104.623 Y100.077
G1 X95.688 Y108.949 E90.0877
G1 X95.688 Y108.389
G1 X104.623 Y99.517 E90.5065
G1 X104.623 Y98.957
G1 X95.688 Y107.830 E90.9253
G1 X95.688 Y107.270
G1 X104.623 Y98.397 E91.3441
G1 X104.623 Y97.838
G1 X95.688 Y106.710 E91.7629
G1 X95.688 Y106.151
G1 X104.623 Y97.278 E92.1817
G1 X104.623 Y96.718
G1 X95.688 Y105.591 E92.6005
G1 X95.688 Y105.031
G1 X104.623 Y96.159 E93.0193
G1 X104.623 Y95.599
G1 X95.688 Y104.471 E93.4381
G1 X95.688 Y103.912
G1 X104.623 Y95.039 E93.8569
G1 X104.623 Y94.479
G1 X95.688 Y103.352 E94.2757
G1 X95.688 Y102.792
G1 X104.623 Y93.920 E94.6945
G1 X104.623 Y93.360
G1 X95.688 Y102.233 E95.1133
G1 X95.688 Y101.673
G1 X104.623 Y92.800 E95.5321
G1 X104.623 Y92.241
G1 X95.688 Y101.113 E95.9509
G1 X95.688 Y100.553
G1 X104.623 Y91.681 E96.3697
G1 X104.623 Y91.121
G1 X95.688 Y99.994 E96.7885
G1 X95.688 Y99.434
G1 X104.623 Y90.561 E97.2073
G1 X104.623 Y90.002
G1 X95.688 Y98.874 E97.6261
G1 X95.688 Y98.315
G1 X104.623 Y89.442 E98.0449
G1 X104.623 Y88.882
G1 X95.688 Y97.755 E98.4637
G1 X95.688 Y97.195
G1 X104.623 Y88.323 E98.8825
G1 X104.623 Y87.763
G1 X95.688 Y96.635 E99.3013
G1 X95.688 Y96.076
G1 X104.623 Y87.203 E99.7201
G1 X104.623 Y86.643
G1 X95.688 Y95.516 E100.1389
G1 X95.688 Y94.956
G1 X104.623 Y86.084 E100.5577
G1 X104.623 Y85.524
G1 X95.688 Y94.397 E100.9765
G1 X95.688 Y93.837
G1 X104.623 Y84.964 E101.3953
G1 X104.623 Y84.405
G1 X95.688 Y93.277 E101.8141
G1 X95.688 Y92.717
G1 X104.623 Y83.845 E102.2329
G1 X104.623 Y83.285
G1 X95.688 Y92.158 E102.6517
G1 X95.688 Y91.598
G1 X104.623 Y82.725 E103.0705
G1 X104.623 Y82.166
G1 X95.688 Y91.038 E103.4893
G1 X95.688 Y90.479
G1 X104.623 Y81.606 E103.9081
G1 X104.623 Y81.046
G1 X95.688 Y89.919 E104.3269
G1 X95.688 Y89.359
G1 X104.623 Y80.487 E104.7457
G1 X104.623 Y79.927
G1 X95.688 Y88.800 E105.1645
G1 X95.688 Y88.240
G1 X104.623 Y79.367 E105.5833
G1 X104.623 Y78.807
G1 X95.688 Y87.680 E106.0021
G1 X95.688 Y87.120
G1 X104.623 Y78.248 E106.4209
G1 X104.623 Y77.688
G1 X95.688 Y86.561 E106.8397
G1 X95.688 Y86.001
G1 X104.623 Y77.128 E107.2585
G1 X104.623 Y76.569
G1 X95.688 Y85.441 E107.6773
G1 X95.688 Y84.882
G1 X104.623 Y76.009 E108.0961
G1 X104.623 Y75.449
G1 X95.688 Y84.322 E108.5149
G1 X95.688 Y83.762
G1 X104.623 Y74.889 E108.9337
G0 X104.623 Y73.770 F10800
G1 X101.422 Y76.949 E109.0838 F600
G0 X99.389 Y78.408 F10800
G1 X95.688 Y82.083 E109.2573 F600
G1 X95.688 Y81.523
G1 X98.825 Y78.408 E109.4043
G1 X98.262 Y78.408
G1 X95.688 Y80.964 E109.5250
G1 X95.688 Y80.404
G1 X97.874 Y78.233 E109.6274
G1 X97.494 Y78.050
G1 X95.688 Y79.844 E109.7121
G1 X95.688 Y79.284
G1 X97.115 Y77.867 E109.7790
G1 X96.848 Y77.573
G1 X95.688 Y78.725 E109.8333
G1 X95.688 Y78.165
G1 X96.599 Y77.260 E109.8760
G1 X96.350 Y76.948
G1 X95.688 Y77.605 E109.9071
G1 X95.688 Y77.046
G1 X96.190 Y76.547 E109.9306
G1 X96.086 Y76.090
G1 X95.688 Y76.486 E109.9493
G1 X95.688 Y75.926
G1 X95.982 Y75.634 E109.9630
G1 X96.107 Y74.950
G1 X95.737 Y75.318 E109.9804
G1 X95.842 Y74.654
G1 X96.482 Y74.018 E110.0104
G0 X97.998 Y72.512 F10800
G1 X97.359 Y73.147 E110.0403 F600
G0 X98.348 Y72.725 F10800
G1 X98.669 Y72.406 E110.0554 F600
G1 X99.277 Y72.362
G1 X98.912 Y72.725 E110.0725
G1 X99.475 Y72.725
G1 X99.841 Y72.362 E110.0896
G1 X100.404 Y72.362
G1 X99.875 Y72.888 E110.1145
G1 X100.254 Y73.071
G1 X100.968 Y72.362 E110.1479
G1 X101.532 Y72.362
G1 X100.634 Y73.254 E110.1900
G1 X100.908 Y73.540
G1 X102.095 Y72.362 E110.2456
G1 X102.659 Y72.362
G1 X101.158 Y73.853 E110.3160
G1 X101.407 Y74.165
G1 X103.222 Y72.362 E110.4011
G1 X103.786 Y72.362
G1 X101.575 Y74.557 E110.5048
G1 X101.679 Y75.014
G1 X104.350 Y72.362 E110.6300
G1 X104.913 Y72.362
G1 X101.783 Y75.470 E110.7767
G1 X101.675 Y76.138
G1 X105.477 Y72.362 E110.9549
G1 X106.041 Y72.362
G1 X105.084 Y73.312 E110.9997
G1 X105.647 Y73.312
G1 X106.604 Y72.362 E111.0446
G1 X107.168 Y72.362
G1 X106.211 Y73.312 E111.0894
G1 X106.775 Y73.312
G1 X107.731 Y72.362 E111.1343
G1 X108.295 Y72.362
G1 X107.338 Y73.312 E111.1791
G1 X107.902 Y73.312
G1 X108.859 Y72.362 E111.2240
G1 X109.422 Y72.362
G1 X108.466 Y73.312 E111.2688
G1 X109.029 Y73.312
G1 X109.986 Y72.362 E111.3137
G1 X110.550 Y72.362
G1 X109.593 Y73.312 E111.3585
G1 X110.156 Y73.312
G1 X111.113 Y72.362 E111.4034
G1 X111.677 Y72.362
G1 X110.720 Y73.312 E111.4482
G1 X111.284 Y73.312
G1 X112.240 Y72.362 E111.4930
G1 X112.804 Y72.362
G1 X111.847 Y73.312 E111.5379
G1 X112.411 Y73.312
G1 X113.368 Y72.362 E111.5827
G1 X113.931 Y72.362
G1 X112.974 Y73.312 E111.6276
G1 X113.538 Y73.312
G1 X114.495 Y72.362 E111.6724
G1 X115.058 Y72.362
G1 X114.102 Y73.312 E111.7173
G1 X114.665 Y73.312
G1 X115.622 Y72.362 E111.7621
G1 X116.186 Y72.362
G1 X115.229 Y73.312 E111.8070
G1 X115.793 Y73.312
G1 X116.749 Y72.362 E111.8518
G1 X117.313 Y72.362
G1 X116.356 Y73.312 E111.8967
G1 X116.920 Y73.312
G1 X117.877 Y72.362 E111.9415
G1 X118.440 Y72.362
G1 X117.483 Y73.312 E111.9863
G1 X118.047 Y73.312
G1 X119.004 Y72.362 E112.0312
G1 X119.567 Y72.362
G1 X118.611 Y73.312 E112.0760
G1 X119.174 Y73.312
G1 X120.131 Y72.362 E112.1209
G1 X120.695 Y72.362
G1 X119.738 Y73.312 E112.1657
G1 X120.301 Y73.312
G1 X121.258 Y72.362 E112.2106
G1 X121.822 Y72.362
G1 X120.865 Y73.312 E112.2554
G1 X121.429 Y73.312
G1 X122.385 Y72.362 E112.3003
G1 X122.949 Y72.362
G1 X121.992 Y73.312 E112.3451
G1 X122.556 Y73.312
G1 X123.513 Y72.362 E112.3900
G1 X124.076 Y72.362
G1 X123.120 Y73.312 E112.4348
G1 X123.683 Y73.312
G1 X124.640 Y72.362 E112.4797
G1 X125.204 Y72.362
G1 X124.247 Y73.312 E112.5245
G1 X124.810 Y73.312
G1 X125.767 Y72.362 E112.5693
G1 X126.331 Y72.362
G1 X125.374 Y73.312 E112.6142
G1 X125.938 Y73.312
G1 X126.894 Y72.362 E112.6590
G1 X127.458 Y72.362
G1 X126.501 Y73.312 E112.7039
G1 X127.065 Y73.312
G1 X128.022 Y72.362 E112.7487
G1 X128.585 Y72.362
G1 X127.628 Y73.312 E112.7936
G1 X128.192 Y73.312
G1 X129.149 Y72.362 E112.8384
G1 X129.712 Y72.362
G1 X128.756 Y73.312 E112.8833
G1 X129.319 Y73.312
G1 X130.276 Y72.362 E112.9281
G1 X130.840 Y72.362
G1 X129.883 Y73.312 E112.9730
G1 X130.447 Y73.312
G1 X131.403 Y72.362 E113.0178
G1 X131.967 Y72.362
G1 X131.010 Y73.312 E113.0626
G1 X131.574 Y73.312
G1 X132.531 Y72.362 E113.1075
G1 X133.094 Y72.362
G1 X132.137 Y73.312 E113.1523
G1 X132.701 Y73.312
G1 X133.658 Y72.362 E113.1972
G1 X134.221 Y72.362
G1 X133.265 Y73.312 E113.2420
G1 X133.828 Y73.312
G1 X134.785 Y72.362 E113.2869
G1 X135.349 Y72.362
G1 X134.392 Y73.312 E113.3317
G1 X134.956 Y73.312
G1 X135.912 Y72.362 E113.3766
G1 X136.476 Y72.362
G1 X135.519 Y73.312 E113.4214
G1 X136.083 Y73.312
G1 X137.039 Y72.362 E113.4663
G1 X137.603 Y72.362
G1 X136.646 Y73.312 E113.5111
G1 X137.210 Y73.312
G1 X138.167 Y72.362 E113.5559
G1 X138.730 Y72.362
G1 X137.774 Y73.312 E113.6008
G1 X138.337 Y73.312
G1 X139.294 Y72.362 E113.6456
G1 X139.858 Y72.362
G1 X138.901 Y73.312 E113.6905
G1 X139.464 Y73.312
G1 X140.421 Y72.362 E113.7353
G1 X140.985 Y72.362
G1 X140.028 Y73.312 E113.7802
G1 X140.592 Y73.312
G1 X141.548 Y72.362 E113.8250
G1 X142.112 Y72.362
G1 X141.155 Y73.312 E113.8699
G1 X141.719 Y73.312
G1 X142.676 Y72.362 E113.9147
G1 X143.239 Y72.362
G1 X142.283 Y73.312 E113.9596
G1 X142.846 Y73.312
G1 X143.803 Y72.362 E114.0044
G1 X144.366 Y72.362
G1 X143.410 Y73.312 E114.0492
G1 X143.973 Y73.312
G1 X144.930 Y72.362 E114.0941
G1 X145.494 Y72.362
G1 X144.537 Y73.312 E114.1389
G1 X145.101 Y73.312
G1 X146.057 Y72.362 E114.1838
G1 X146.621 Y72.362
G1 X145.664 Y73.312 E114.2286
G1 X146.228 Y73.312
G1 X147.185 Y72.362 E114.2735
G1 X147.748 Y72.362
G1 X146.791 Y73.312 E114.3183
G1 X147.355 Y73.312
G1 X148.312 Y72.362 E114.3632
G1 X148.875 Y72.362
G1 X147.919 Y73.312 E114.4080
G1 X148.482 Y73.312
G1 X149.439 Y72.362 E114.4529
G1 X150.003 Y72.362
G1 X149.046 Y73.312 E114.4977
G1 X149.610 Y73.312
G1 X150.566 Y72.362 E114.5425
G1 X151.130 Y72.362
G1 X150.173 Y73.312 E114.5874
G1 X150.737 Y73.312
G1 X151.693 Y72.362 E114.6322
G1 X152.257 Y72.362
G1 X151.300 Y73.312 E114.6771
G1 X151.864 Y73.312
G1 X152.821 Y72.362 E114.7219
G1 X153.384 Y72.362
G1 X152.428 Y73.312 E114.7668
G1 X152.991 Y73.312
G1 X153.948 Y72.362 E114.8116
G1 X154.512 Y72.362
G1 X153.555 Y73.312 E114.8565
G1 X154.118 Y73.312
G1 X155.075 Y72.362 E114.9013
G1 X155.639 Y72.362
G1 X154.682 Y73.312 E114.9462
G1 X155.246 Y73.312
G1 X156.202 Y72.362 E114.9910
G1 X156.766 Y72.362
G1 X155.809 Y73.312 E115.0358
G1 X156.373 Y73.312
G1 X157.330 Y72.362 E115.0807
G1 X157.893 Y72.362
G1 X156.937 Y73.312 E115.1255
G1 X157.500 Y73.312
G1 X158.457 Y72.362 E115.1704
G1 X159.020 Y72.362
G1 X158.064 Y73.312 E115.2152
G0 F4800 E114.2152
G0 X159.332 Y75.856 F10800
G0 X160.600 Y78.400
G0 F4800 E115.2152
;segType:Support
G1 X106.023 Y78.400 E116.7582 F900
G1 X106.023 Y76.600 E116.8091
G1 X160.600 Y76.600 E118.3520
; ------------------------------------
; Layer #1
; ------------------------------------
G21 ; mm
G90 ; abs
G92 E0 ; reset extr
M106 S255
;segType:Support
G0 F4800 E-1.0000
G0 F300 Z0.400
G0 X160.600 Y76.600 F10800
G0 F4800 E0.0000
G1 X106.023 Y76.600 E1.5430 F5400
G1 X106.023 Y78.400 E1.5938
G1 X160.600 Y78.400 E3.1368
G0 F4800 E2.1368
G0 X106.023 Y157.600 F10800
G0 F4800 E3.1368
G1 X160.600 Y157.600 E4.6798 F5400
G1 X160.600 Y155.800 E4.7307
G1 X106.023 Y155.800 E6.2736
G0 F4800 E5.2736
G0 X105.633 Y152.989 F10800
G0 X105.243 Y150.179
G0 X104.854 Y147.368
G0 X103.684 Y138.936
G0 F4800 E6.2736
;segType:HShell
G1 X104.623 Y139.868 E6.3176 F3600
G1 X104.623 Y139.308
G1 X103.684 Y138.376 E6.3616
G1 X103.684 Y137.817
G1 X104.623 Y138.748 E6.4056
G1 X104.623 Y138.189
G1 X103.684 Y137.257 E6.4495
G1 X103.684 Y136.697
G1 X104.623 Y137.629 E6.4935
G1 X104.623 Y137.069
G1 X103.684 Y136.137 E6.5375
G1 X103.684 Y135.578
G1 X104.623 Y136.510 E6.5815
G1 X104.623 Y135.950
G1 X103.684 Y135.018 E6.6255
;segType:Perimeter
G0 X103.687 Y135.126 F10800
G1 X103.024 Y134.853 E6.6493 F2159
G1 X98.902 Y134.853 E6.7864
G1 X97.713 Y134.665 E6.8264
G1 X96.655 Y134.125 E6.8659
G1 X95.816 Y133.286 E6.9055
G1 X95.276 Y132.227 E6.9450
G1 X95.088 Y131.037 E6.9850
G1 X95.088 Y75.581 E8.8295
G1 X95.276 Y74.392 E8.8695
G1 X95.816 Y73.333 E8.9091
G1 X96.655 Y72.493 E8.9486
G1 X97.713 Y71.954 E8.9881
G1 X98.902 Y71.766 E9.0281
G1 X164.883 Y71.766 E11.2226
G1 X164.883 Y162.151 E14.2289
G1 X103.084 Y162.151 E16.2843
G1 X103.084 Y134.912 E17.1903
G1 X102.810 Y134.254
;segType:Loop
G0 X101.988 Y134.456 F10800
G1 X98.933 Y134.456 E17.2919 F3600
G1 X97.839 Y134.282 E17.3287
G1 X96.894 Y133.801 E17.3640
G1 X96.144 Y133.050 E17.3993
G1 X95.662 Y132.103 E17.4347
G1 X95.488 Y131.006 E17.4716
G1 X95.488 Y75.612 E19.3140
G1 X95.662 Y74.516 E19.3509
G1 X96.144 Y73.569 E19.3863
G1 X96.894 Y72.818 E19.4216
G1 X97.839 Y72.336 E19.4569
G1 X98.933 Y72.163 E19.4937
G1 X164.483 Y72.163 E21.6739
G1 X164.483 Y161.754 E24.6537
G1 X103.484 Y161.754 E26.6826
G1 X103.484 Y134.456 E27.5905
G1 X102.187 Y134.456 E27.6337
;segType:HShell
G0 X103.482 Y134.257 F10800
G1 X101.519 Y132.308 E27.7257 F3600
G1 X101.272 Y132.623
G1 X102.918 Y134.257 E27.8028
G1 X102.354 Y134.257
G1 X101.023 Y132.935 E27.8652
G1 X100.774 Y133.247
G1 X101.791 Y134.257 E27.9129
G1 X101.227 Y134.257
G1 X100.429 Y133.464 E27.9503
;segType:Perimeter
G0 X99.986 Y133.606 F10800
G1 X99.339 Y133.298 E27.9741 F2159
G1 X98.373 Y133.298 E28.0063
G1 X97.449 Y132.853 E28.0404
G1 X96.810 Y132.052 E28.0745
G1 X96.582 Y131.053 E28.1086
G1 X96.810 Y130.054 E28.1426
G1 X97.449 Y129.252 E28.1767
G1 X98.373 Y128.807 E28.2108
G1 X99.399 Y128.807 E28.2450
G1 X100.323 Y129.252 E28.2791
G1 X100.962 Y130.054 E28.3132
G1 X101.190 Y131.053 E28.3472
G1 X100.962 Y132.052 E28.3813
G1 X100.323 Y132.853 E28.4154
G1 X99.453 Y133.272 E28.4475
G1 X99.006 Y133.830
G0 F4800 E27.4475
G0 X98.303 Y133.695 F10800
G0 F4800 E28.4475
;segType:Loop
G1 X98.281 Y133.695 E28.4483 F3600
G1 X97.192 Y133.170 E28.4885
G1 X96.439 Y132.227 E28.5286
G1 X96.172 Y131.053 E28.5687
G1 X96.439 Y129.878 E28.6088
G1 X97.192 Y128.935 E28.6489
G1 X98.281 Y128.410 E28.6891
G1 X99.491 Y128.410 E28.7293
G1 X100.580 Y128.935 E28.7695
G1 X101.332 Y129.878 E28.8097
G1 X101.600 Y131.053 E28.8497
G1 X101.332 Y132.227 E28.8898
G1 X100.580 Y133.170 E28.9299
G1 X99.491 Y133.695 E28.9701
G1 X98.502 Y133.695 E29.0030
G0 X96.630 Y132.137 F10800
G0 X96.383 Y131.053
G0 X100.378 Y78.002
;segType:HShell
G1 X104.623 Y82.217 E29.2020 F3600
G1 X104.623 Y82.777
G1 X99.998 Y78.185 E29.4188
;segType:Perimeter
G0 X99.986 Y78.119 F10800
G1 X99.339 Y77.812 E29.4426 F2159
G1 X98.373 Y77.812 E29.4747
G1 X97.449 Y77.366 E29.5088
G1 X96.810 Y76.565 E29.5429
G1 X96.582 Y75.566 E29.5770
G1 X96.810 Y74.567 E29.6111
G1 X97.449 Y73.766 E29.6452
G1 X98.373 Y73.321 E29.6793
G1 X99.399 Y73.321 E29.7134
G1 X100.323 Y73.766 E29.7475
G1 X100.962 Y74.567 E29.7816
G1 X101.190 Y75.566 E29.8157
G1 X100.962 Y76.565 E29.8498
G1 X100.323 Y77.366 E29.8839
G1 X99.453 Y77.786 E29.9160
G1 X99.006 Y78.343
;segType:Loop
G0 X98.303 Y78.209 F10800
G1 X98.281 Y78.209 E29.9167 F3600
G1 X97.192 Y77.684 E29.9569
G1 X96.439 Y76.741 E29.9971
G1 X96.172 Y75.566 E30.0371
G1 X96.439 Y74.391 E30.0772
G1 X97.192 Y73.448 E30.1173
G1 X98.281 Y72.923 E30.1575
G1 X99.491 Y72.923 E30.1978
G1 X100.580 Y73.448 E30.2380
G1 X101.332 Y74.391 E30.2781
G1 X101.600 Y75.566 E30.3182
G1 X101.332 Y76.741 E30.3583
G1 X100.580 Y77.684 E30.3984
G1 X99.491 Y78.209 E30.4386
G1 X98.502 Y78.209 E30.4715
G0 X105.023 Y77.938 F10800
G0 X105.082 Y73.768
G0 X158.780 Y73.312
;segType:HShell
G1 X157.823 Y72.362 E30.5163 F3600
G1 X158.387 Y72.362
G1 X159.344 Y73.312 E30.5612
G1 X159.907 Y73.312
G1 X158.951 Y72.362 E30.6060
G1 X159.514 Y72.362
G1 X160.471 Y73.312 E30.6509
G1 X161.034 Y73.312
G1 X160.078 Y72.362 E30.6957
G1 X160.641 Y72.362
G1 X161.598 Y73.312 E30.7405
G1 X162.162 Y73.312
G1 X161.205 Y72.362 E30.7854
G1 X161.769 Y72.362
G1 X162.725 Y73.312 E30.8302
;segType:Perimeter
G0 X162.470 Y73.309 F10800
G1 X162.745 Y73.967 E30.8540 F2159
G1 X162.745 Y160.009 E33.7157
G1 X105.223 Y160.009 E35.6289
G1 X105.223 Y73.908 E38.4927
G1 X162.685 Y73.908 E40.4039
G1 X163.348 Y74.181
;segType:Loop
G0 X163.145 Y74.996 F10800
G1 X163.145 Y160.406 E43.2447 F3600
G1 X104.823 Y160.406 E45.1845
G1 X104.823 Y73.511 E48.0746
G1 X163.145 Y73.511 E50.0144
G1 X163.145 Y74.798 E50.0573
;segType:HShell
G0 X164.283 Y72.620 F10800
G1 X164.023 Y72.362 E50.0695 F3600
G1 X163.459 Y72.362
G1 X164.283 Y73.180 E50.1081
G1 X164.283 Y73.740
G1 X162.896 Y72.362 E50.1731
G1 X162.332 Y72.362
G1 X163.289 Y73.312 E50.2180
G1 X163.345 Y73.368
G1 X164.283 Y74.299 E50.2620
G1 X164.283 Y74.859
G1 X163.345 Y73.927 E50.3059
G1 X163.345 Y74.487
G1 X164.283 Y75.419 E50.3499
G1 X164.283 Y75.979
G1 X163.345 Y75.047 E50.3939
G1 X163.345 Y75.606
G1 X164.283 Y76.538 E50.4379
G1 X164.283 Y77.098
G1 X163.345 Y76.166 E50.4819
G1 X163.345 Y76.726
G1 X164.283 Y77.658 E50.5259
G1 X164.283 Y78.217
G1 X163.345 Y77.286 E50.5698
G1 X163.345 Y77.845
G1 X164.283 Y78.777 E50.6138
G1 X164.283 Y79.337
G1 X163.345 Y78.405 E50.6578
G1 X163.345 Y78.965
G1 X164.283 Y79.897 E50.7018
G1 X164.283 Y80.456
G1 X163.345 Y79.524 E50.7458
G1 X163.345 Y80.084
G1 X164.283 Y81.016 E50.7898
G1 X164.283 Y81.576
G1 X163.345 Y80.644 E50.8337
G1 X163.345 Y81.204
G1 X164.283 Y82.135 E50.8777
G1 X164.283 Y82.695
G1 X163.345 Y81.763 E50.9217
G1 X163.345 Y82.323
G1 X164.283 Y83.255 E50.9657
G1 X164.283 Y83.815
G1 X163.345 Y82.883 E51.0097
G1 X163.345 Y83.442
G1 X164.283 Y84.374 E51.0537
G1 X164.283 Y84.934
G1 X163.345 Y84.002 E51.0977
G1 X163.345 Y84.562
G1 X164.283 Y85.494 E51.1416
G1 X164.283 Y86.053
G1 X163.345 Y85.122 E51.1856
G1 X163.345 Y85.681
G1 X164.283 Y86.613 E51.2296
G1 X164.283 Y87.173
G1 X163.345 Y86.241 E51.2736
G1 X163.345 Y86.801
G1 X164.283 Y87.733 E51.3176
G1 X164.283 Y88.292
G1 X163.345 Y87.360 E51.3616
G1 X163.345 Y87.920
G1 X164.283 Y88.852 E51.4055
G1 X164.283 Y89.412
G1 X163.345 Y88.480 E51.4495
G1 X163.345 Y89.040
G1 X164.283 Y89.971 E51.4935
G1 X164.283 Y90.531
G1 X163.345 Y89.599 E51.5375
G1 X163.345 Y90.159
G1 X164.283 Y91.091 E51.5815
G1 X164.283 Y91.651
G1 X163.345 Y90.719 E51.6255
G1 X163.345 Y91.278
G1 X164.283 Y92.210 E51.6694
G1 X164.283 Y92.770
G1 X163.345 Y91.838 E51.7134
G1 X163.345 Y92.398
G1 X164.283 Y93.330 E51.7574
G1 X164.283 Y93.889
G1 X163.345 Y92.958 E51.8014
G1 X163.345 Y93.517
G1 X164.283 Y94.449 E51.8454
G1 X164.283 Y95.009
G1 X163.345 Y94.077 E51.8894
G1 X163.345 Y94.637
G1 X164.283 Y95.569 E51.9333
G1 X164.283 Y96.128
G1 X163.345 Y95.196 E51.9773
G1 X163.345 Y95.756
G1 X164.283 Y96.688 E52.0213
G1 X164.283 Y97.248
G1 X163.345 Y96.316 E52.0653
G1 X163.345 Y96.876
G1 X164.283 Y97.807 E52.1093
G1 X164.283 Y98.367
G1 X163.345 Y97.435 E52.1533
G1 X163.345 Y97.995
G1 X164.283 Y98.927 E52.1972
G1 X164.283 Y99.487
G1 X163.345 Y98.555 E52.2412
G1 X163.345 Y99.114
G1 X164.283 Y100.046 E52.2852
G1 X164.283 Y100.606
G1 X163.345 Y99.674 E52.3292
G1 X163.345 Y100.234
G1 X164.283 Y101.166 E52.3732
G1 X164.283 Y101.725
G1 X163.345 Y100.794 E52.4172
G1 X163.345 Y101.353
G1 X164.283 Y102.285 E52.4611
G1 X164.283 Y102.845
G1 X163.345 Y101.913 E52.5051
G1 X163.345 Y102.473
G1 X164.283 Y103.405 E52.5491
G1 X164.283 Y103.964
G1 X163.345 Y103.032 E52.5931
G1 X163.345 Y103.592
G1 X164.283 Y104.524 E52.6371
G1 X164.283 Y105.084
G1 X163.345 Y104.152 E52.6811
G1 X163.345 Y104.712
G1 X164.283 Y105.643 E52.7250
G1 X164.283 Y106.203
G1 X163.345 Y105.271 E52.7690
G1 X163.345 Y105.831
G1 X164.283 Y106.763 E52.8130
G1 X164.283 Y107.323
G1 X163.345 Y106.391 E52.8570
G1 X163.345 Y106.950
G1 X164.283 Y107.882 E52.9010
G1 X164.283 Y108.442
G1 X163.345 Y107.510 E52.9450
G1 X163.345 Y108.070
G1 X164.283 Y109.002 E52.9889
G1 X164.283 Y109.561
G1 X163.345 Y108.630 E53.0329
G1 X163.345 Y109.189
G1 X164.283 Y110.121 E53.0769
G1 X164.283 Y110.681
G1 X163.345 Y109.749 E53.1209
G1 X163.345 Y110.309
G1 X164.283 Y111.241 E53.1649
G1 X164.283 Y111.800
G1 X163.345 Y110.868 E53.2089
G1 X163.345 Y111.428
G1 X164.283 Y112.360 E53.2528
G1 X164.283 Y112.920
G1 X163.345 Y111.988 E53.2968
G1 X163.345 Y112.548
G1 X164.283 Y113.479 E53.3408
G1 X164.283 Y114.039
G1 X163.345 Y113.107 E53.3848
G1 X163.345 Y113.667
G1 X164.283 Y114.599 E53.4288
G1 X164.283 Y115.159
G1 X163.345 Y114.227 E53.4728
G1 X163.345 Y114.786
G1 X164.283 Y115.718 E53.5167
G1 X164.283 Y116.278
G1 X163.345 Y115.346 E53.5607
G1 X163.345 Y115.906
G1 X164.283 Y116.838 E53.6047
G1 X164.283 Y117.397
G1 X163.345 Y116.466 E53.6487
G1 X163.345 Y117.025
G1 X164.283 Y117.957 E53.6927
G1 X164.283 Y118.517
G1 X163.345 Y117.585 E53.7367
G1 X163.345 Y118.145
G1 X164.283 Y119.077 E53.7806
G1 X164.283 Y119.636
G1 X163.345 Y118.704 E53.8246
G1 X163.345 Y119.264
G1 X164.283 Y120.196 E53.8686
G1 X164.283 Y120.756
G1 X163.345 Y119.824 E53.9126
G1 X163.345 Y120.384
G1 X164.283 Y121.315 E53.9566
G1 X164.283 Y121.875
G1 X163.345 Y120.943 E54.0006
G1 X163.345 Y121.503
G1 X164.283 Y122.435 E54.0445
G1 X164.283 Y122.995
G1 X163.345 Y122.063 E54.0885
G1 X163.345 Y122.622
G1 X164.283 Y123.554 E54.1325
G1 X164.283 Y124.114
G1 X163.345 Y123.182 E54.1765
G1 X163.345 Y123.742
G1 X164.283 Y124.674 E54.2205
G1 X164.283 Y125.233
G1 X163.345 Y124.302 E54.2645
G1 X163.345 Y124.861
G1 X164.283 Y125.793 E54.3084
G1 X164.283 Y126.353
G1 X163.345 Y125.421 E54.3524
G1 X163.345 Y125.981
G1 X164.283 Y126.913 E54.3964
G1 X164.283 Y127.472
G1 X163.345 Y126.540 E54.4404
G1 X163.345 Y127.100
G1 X164.283 Y128.032 E54.4844
G1 X164.283 Y128.592
G1 X163.345 Y127.660 E54.5284
G1 X163.345 Y128.220
G1 X164.283 Y129.151 E54.5723
G1 X164.283 Y129.711
G1 X163.345 Y128.779 E54.6163
G1 X163.345 Y129.339
G1 X164.283 Y130.271 E54.6603
G1 X164.283 Y130.831
G1 X163.345 Y129.899 E54.7043
G1 X163.345 Y130.458
G1 X164.283 Y131.390 E54.7483
G1 X164.283 Y131.950
G1 X163.345 Y131.018 E54.7923
G1 X163.345 Y131.578
G1 X164.283 Y132.510 E54.8362
G1 X164.283 Y133.069
G1 X163.345 Y132.138 E54.8802
G1 X163.345 Y132.697
G1 X164.283 Y133.629 E54.9242
G1 X164.283 Y134.189
G1 X163.345 Y133.257 E54.9682
G1 X163.345 Y133.817
G1 X164.283 Y134.749 E55.0122
G1 X164.283 Y135.308
G1 X163.345 Y134.376 E55.0562
G1 X163.345 Y134.936
G1 X164.283 Y135.868 E55.1001
G1 X164.283 Y136.428
G1 X163.345 Y135.496 E55.1441
G1 X163.345 Y136.056
G1 X164.283 Y136.987 E55.1881
G1 X164.283 Y137.547
G1 X163.345 Y136.615 E55.2321
G1 X163.345 Y137.175
G1 X164.283 Y138.107 E55.2761
G1 X164.283 Y138.667
G1 X163.345 Y137.735 E55.3201
G1 X163.345 Y138.294
G1 X164.283 Y139.226 E55.3640
G1 X164.283 Y139.786
G1 X163.345 Y138.854 E55.4080
G1 X163.345 Y139.414
G1 X164.283 Y140.346 E55.4520
G1 X164.283 Y140.905
G1 X163.345 Y139.974 E55.4960
G1 X163.345 Y140.533
G1 X164.283 Y141.465 E55.5400
G1 X164.283 Y142.025
G1 X163.345 Y141.093 E55.5840
G1 X163.345 Y141.653
G1 X164.283 Y142.585 E55.6279
G1 X164.283 Y143.144
G1 X163.345 Y142.212 E55.6719
G1 X163.345 Y142.772
G1 X164.283 Y143.704 E55.7159
G1 X164.283 Y144.264
G1 X163.345 Y143.332 E55.7599
G1 X163.345 Y143.892
G1 X164.283 Y144.823 E55.8039
G1 X164.283 Y145.383
G1 X163.345 Y144.451 E55.8479
G1 X163.345 Y145.011
G1 X164.283 Y145.943 E55.8918
G1 X164.283 Y146.502
G1 X163.345 Y145.571 E55.9358
G1 X163.345 Y146.130
G1 X164.283 Y147.062 E55.9798
G1 X164.283 Y147.622
G1 X163.345 Y146.690 E56.0238
G1 X163.345 Y147.250
G1 X164.283 Y148.182 E56.0678
G1 X164.283 Y148.741
G1 X163.345 Y147.810 E56.1118
G1 X163.345 Y148.369
G1 X164.283 Y149.301 E56.1557
G1 X164.283 Y149.861
G1 X163.345 Y148.929 E56.1997
G1 X163.345 Y149.489
G1 X164.283 Y150.420 E56.2437
G1 X164.283 Y150.980
G1 X163.345 Y150.048 E56.2877
G1 X163.345 Y150.608
G1 X164.283 Y151.540 E56.3317
G1 X164.283 Y152.100
G1 X163.345 Y151.168 E56.3757
G1 X163.345 Y151.728
G1 X164.283 Y152.659 E56.4197
G1 X164.283 Y153.219
G1 X163.345 Y152.287 E56.4636
G1 X163.345 Y152.847
G1 X164.283 Y153.779 E56.5076
G1 X164.283 Y154.338
G1 X163.345 Y153.407 E56.5516
G1 X163.345 Y153.966
G1 X164.283 Y154.898 E56.5956
G1 X164.283 Y155.458
G1 X163.345 Y154.526 E56.6396
G1 X163.345 Y155.086
G1 X164.283 Y156.018 E56.6836
G1 X164.283 Y156.577
G1 X163.345 Y155.646 E56.7275
G1 X163.345 Y156.205
G1 X164.283 Y157.137 E56.7715
G1 X164.283 Y157.697
G1 X163.345 Y156.765 E56.8155
G1 X163.345 Y157.325
G1 X164.283 Y158.256 E56.8595
G1 X164.283 Y158.816
G1 X163.345 Y157.884 E56.9035
G1 X163.345 Y158.444
G1 X164.283 Y159.376 E56.9475
G1 X164.283 Y159.936
G1 X163.345 Y159.004 E56.9914
G1 X163.345 Y159.564
G1 X164.283 Y160.495 E57.0354
G1 X164.283 Y161.055
G1 X163.345 Y160.123 E57.0794
G1 X163.267 Y160.605
G1 X164.224 Y161.555 E57.1242
G1 X163.660 Y161.555
G1 X162.703 Y160.605 E57.1691
G1 X162.140 Y160.605
G1 X163.096 Y161.555 E57.2139
G1 X162.533 Y161.555
G1 X161.576 Y160.605 E57.2588
G1 X161.012 Y160.605
G1 X161.969 Y161.555 E57.3036
G1 X161.405 Y161.555
G1 X160.449 Y160.605 E57.3485
G1 X159.885 Y160.605
G1 X160.842 Y161.555 E57.3933
G1 X160.278 Y161.555
G1 X159.321 Y160.605 E57.4382
G1 X158.758 Y160.605
G1 X159.715 Y161.555 E57.4830
G1 X159.151 Y161.555
G1 X158.194 Y160.605 E57.5279
G1 X157.631 Y160.605
G1 X158.587 Y161.555 E57.5727
G1 X158.024 Y161.555
G1 X157.067 Y160.605 E57.6175
G1 X156.503 Y160.605
G1 X157.460 Y161.555 E57.6624
G1 X156.897 Y161.555
G1 X155.940 Y160.605 E57.7072
G1 X155.376 Y160.605
G1 X156.333 Y161.555 E57.7521
G1 X155.769 Y161.555
G1 X154.813 Y160.605 E57.7969
G1 X154.249 Y160.605
G1 X155.206 Y161.555 E57.8418
G1 X154.642 Y161.555
G1 X153.685 Y160.605 E57.8866
G1 X153.122 Y160.605
G1 X154.078 Y161.555 E57.9315
G1 X153.515 Y161.555
G1 X152.558 Y160.605 E57.9763
G1 X151.994 Y160.605
G1 X152.951 Y161.555 E58.0212
G1 X152.388 Y161.555
G1 X151.431 Y160.605 E58.0660
G1 X150.867 Y160.605
G1 X151.824 Y161.555 E58.1109
G1 X151.260 Y161.555
G1 X150.304 Y160.605 E58.1557
G1 X149.740 Y160.605
G1 X150.697 Y161.555 E58.2005
G1 X150.133 Y161.555
G1 X149.176 Y160.605 E58.2454
G1 X148.613 Y160.605
G1 X149.570 Y161.555 E58.2902
G1 X149.006 Y161.555
G1 X148.049 Y160.605 E58.3351
G1 X147.486 Y160.605
G1 X148.442 Y161.555 E58.3799
G1 X147.879 Y161.555
G1 X146.922 Y160.605 E58.4248
G1 X146.358 Y160.605
G1 X147.315 Y161.555 E58.4696
G1 X146.751 Y161.555
G1 X145.795 Y160.605 E58.5145
G1 X145.231 Y160.605
G1 X146.188 Y161.555 E58.5593
G1 X145.624 Y161.555
G1 X144.667 Y160.605 E58.6042
G1 X144.104 Y160.605
G1 X145.061 Y161.555 E58.6490
G1 X144.497 Y161.555
G1 X143.540 Y160.605 E58.6938
G1 X142.977 Y160.605
G1 X143.933 Y161.555 E58.7387
G1 X143.370 Y161.555
G1 X142.413 Y160.605 E58.7835
G1 X141.849 Y160.605
G1 X142.806 Y161.555 E58.8284
G1 X142.243 Y161.555
G1 X141.286 Y160.605 E58.8732
G1 X140.722 Y160.605
G1 X141.679 Y161.555 E58.9181
G1 X141.115 Y161.555
G1 X140.159 Y160.605 E58.9629
G1 X139.595 Y160.605
G1 X140.552 Y161.555 E59.0078
G1 X139.988 Y161.555
G1 X139.031 Y160.605 E59.0526
G1 X138.468 Y160.605
G1 X139.424 Y161.555 E59.0975
G1 X138.861 Y161.555
G1 X137.904 Y160.605 E59.1423
G1 X137.340 Y160.605
G1 X138.297 Y161.555 E59.1871
G1 X137.734 Y161.555
G1 X136.777 Y160.605 E59.2320
G1 X136.213 Y160.605
G1 X137.170 Y161.555 E59.2768
G1 X136.606 Y161.555
G1 X135.650 Y160.605 E59.3217
G1 X135.086 Y160.605
G1 X136.043 Y161.555 E59.3665
G1 X135.479 Y161.555
G1 X134.522 Y160.605 E59.4114
G1 X133.959 Y160.605
G1 X134.916 Y161.555 E59.4562
G1 X134.352 Y161.555
G1 X133.395 Y160.605 E59.5011
G1 X132.832 Y160.605
G1 X133.788 Y161.555 E59.5459
G1 X133.225 Y161.555
G1 X132.268 Y160.605 E59.5908
G1 X131.704 Y160.605
G1 X132.661 Y161.555 E59.6356
G1 X132.097 Y161.555
G1 X131.141 Y160.605 E59.6804
G1 X130.577 Y160.605
G1 X131.534 Y161.555 E59.7253
G1 X130.970 Y161.555
G1 X130.013 Y160.605 E59.7701
G1 X129.450 Y160.605
G1 X130.407 Y161.555 E59.8150
G1 X129.843 Y161.555
G1 X128.886 Y160.605 E59.8598
G1 X128.323 Y160.605
G1 X129.279 Y161.555 E59.9047
G1 X128.716 Y161.555
G1 X127.759 Y160.605 E59.9495
G1 X127.195 Y160.605
G1 X128.152 Y161.555 E59.9944
G1 X127.588 Y161.555
G1 X126.632 Y160.605 E60.0392
G1 X126.068 Y160.605
G1 X127.025 Y161.555 E60.0841
G1 X126.461 Y161.555
G1 X125.505 Y160.605 E60.1289
G1 X124.941 Y160.605
G1 X125.898 Y161.555 E60.1737
G1 X125.334 Y161.555
G1 X124.377 Y160.605 E60.2186
G1 X123.814 Y160.605
G1 X124.770 Y161.555 E60.2634
G1 X124.207 Y161.555
G1 X123.250 Y160.605 E60.3083
G1 X122.686 Y160.605
G1 X123.643 Y161.555 E60.3531
G1 X123.080 Y161.555
G1 X122.123 Y160.605 E60.3980
G1 X121.559 Y160.605
G1 X122.516 Y161.555 E60.4428
G1 X121.952 Y161.555
G1 X120.996 Y160.605 E60.4877
G1 X120.432 Y160.605
G1 X121.389 Y161.555 E60.5325
G1 X120.825 Y161.555
G1 X119.868 Y160.605 E60.5774
G1 X119.305 Y160.605
G1 X120.261 Y161.555 E60.6222
G1 X119.698 Y161.555
G1 X118.741 Y160.605 E60.6670
G1 X118.178 Y160.605
G1 X119.134 Y161.555 E60.7119
G1 X118.571 Y161.555
G1 X117.614 Y160.605 E60.7567
G1 X117.050 Y160.605
G1 X118.007 Y161.555 E60.8016
G1 X117.443 Y161.555
G1 X116.487 Y160.605 E60.8464
G1 X115.923 Y160.605
G1 X116.880 Y161.555 E60.8913
G1 X116.316 Y161.555
G1 X115.359 Y160.605 E60.9361
G1 X114.796 Y160.605
G1 X115.753 Y161.555 E60.9810
G1 X115.189 Y161.555
G1 X114.232 Y160.605 E61.0258
G1 X113.669 Y160.605
G1 X114.625 Y161.555 E61.0707
G1 X114.062 Y161.555
G1 X113.105 Y160.605 E61.1155
G1 X112.541 Y160.605
G1 X113.498 Y161.555 E61.1604
G1 X112.934 Y161.555
G1 X111.978 Y160.605 E61.2052
G1 X111.414 Y160.605
G1 X112.371 Y161.555 E61.2500
G1 X111.807 Y161.555
G1 X110.851 Y160.605 E61.2949
G1 X110.287 Y160.605
G1 X111.244 Y161.555 E61.3397
G1 X110.680 Y161.555
G1 X109.723 Y160.605 E61.3846
G1 X109.160 Y160.605
G1 X110.116 Y161.555 E61.4294
G1 X109.553 Y161.555
G1 X108.596 Y160.605 E61.4743
G1 X108.032 Y160.605
G1 X108.989 Y161.555 E61.5191
G1 X108.426 Y161.555
G1 X107.469 Y160.605 E61.5640
G1 X106.905 Y160.605
G1 X107.862 Y161.555 E61.6088
G1 X107.298 Y161.555
G1 X106.342 Y160.605 E61.6537
G1 X105.778 Y160.605
G1 X106.735 Y161.555 E61.6985
G1 X106.171 Y161.555
G1 X105.214 Y160.605 E61.7433
G1 X104.651 Y160.605
G1 X105.607 Y161.555 E61.7882
G1 X105.044 Y161.555
G1 X103.684 Y160.205 E61.8519
G1 X103.684 Y160.765
G1 X104.480 Y161.555 E61.8892
G1 X103.917 Y161.555
G1 X103.684 Y161.325 E61.9001
G0 X104.623 Y160.577 F10800
G1 X103.684 Y159.645 E61.9441 F3600
G1 X103.684 Y159.086
G1 X104.623 Y160.017 E61.9881
G1 X104.623 Y159.458
G1 X103.684 Y158.526 E62.0321
G1 X103.684 Y157.966
G1 X104.623 Y158.898 E62.0761
G1 X104.623 Y158.338
G1 X103.684 Y157.407 E62.1200
G1 X103.684 Y156.847
G1 X104.623 Y157.779 E62.1640
G1 X104.623 Y157.219
G1 X103.684 Y156.287 E62.2080
G1 X103.684 Y155.727
G1 X104.623 Y156.659 E62.2520
G1 X104.623 Y156.099
G1 X103.684 Y155.168 E62.2960
G1 X103.684 Y154.608
G1 X104.623 Y155.540 E62.3400
G1 X104.623 Y154.980
G1 X103.684 Y154.048 E62.3839
G1 X103.684 Y153.489
G1 X104.623 Y154.420 E62.4279
G1 X104.623 Y153.861
G1 X103.684 Y152.929 E62.4719
G1 X103.684 Y152.369
G1 X104.623 Y153.301 E62.5159
G1 X104.623 Y152.741
G1 X103.684 Y151.809 E62.5599
G1 X103.684 Y151.250
G1 X104.623 Y152.182 E62.6039
G1 X104.623 Y151.622
G1 X103.684 Y150.690 E62.6478
G1 X103.684 Y150.130
G1 X104.623 Y151.062 E62.6918
G1 X104.623 Y150.502
G1 X103.684 Y149.571 E62.7358
G1 X103.684 Y149.011
G1 X104.623 Y149.943 E62.7798
G1 X104.623 Y149.383
G1 X103.684 Y148.451 E62.8238
G1 X103.684 Y147.891
G1 X104.623 Y148.823 E62.8678
G1 X104.623 Y148.264
G1 X103.684 Y147.332 E62.9117
G1 X103.684 Y146.772
G1 X104.623 Y147.704 E62.9557
G1 X104.623 Y147.144
G1 X103.684 Y146.212 E62.9997
G1 X103.684 Y145.653
G1 X104.623 Y146.584 E63.0437
G1 X104.623 Y146.025
G1 X103.684 Y145.093 E63.0877
G1 X103.684 Y144.533
G1 X104.623 Y145.465 E63.1317
G1 X104.623 Y144.905
G1 X103.684 Y143.973 E63.1756
G1 X103.684 Y143.414
G1 X104.623 Y144.346 E63.2196
G1 X104.623 Y143.786
G1 X103.684 Y142.854 E63.2636
G1 X103.684 Y142.294
G1 X104.623 Y143.226 E63.3076
G1 X104.623 Y142.666
G1 X103.684 Y141.735 E63.3516
G1 X103.684 Y141.175
G1 X104.623 Y142.107 E63.3956
G1 X104.623 Y141.547
G1 X103.684 Y140.615 E63.4395
G1 X103.684 Y140.055
G1 X104.623 Y140.987 E63.4835
G1 X104.623 Y140.428
G1 X103.684 Y139.496 E63.5275
G0 X103.684 Y134.458 F10800
G1 X104.623 Y135.390 E63.5715 F3600
G1 X104.623 Y134.830
G1 X101.623 Y131.852 E63.7121
G1 X101.727 Y131.395
G1 X104.623 Y134.271 E63.8478
G1 X104.623 Y133.711
G1 X101.764 Y130.872 E63.9818
G0 X100.049 Y133.647 F10800
G1 X100.663 Y134.257 E64.0106 F3600
G1 X100.100 Y134.257
G1 X99.670 Y133.830 E64.0308
G1 X99.171 Y133.894
G1 X99.536 Y134.257 E64.0479
G1 X98.973 Y134.257
G1 X98.607 Y133.894 E64.0650
G1 X98.307 Y134.155
G1 X97.863 Y133.715 E64.0858
G1 X97.442 Y133.857
G1 X96.100 Y132.524 E64.1488
G1 X96.196 Y132.059
G1 X95.794 Y131.660 E64.1676
G1 X95.689 Y130.996
G1 X96.031 Y131.336 E64.1837
G1 X96.030 Y130.775
G1 X95.688 Y130.435 E64.1997
G1 X95.688 Y129.876
G1 X96.134 Y130.319 E64.2206
G1 X96.238 Y129.862
G1 X95.688 Y129.316 E64.2464
G1 X95.688 Y128.756
G1 X96.464 Y129.527 E64.2828
G1 X96.713 Y129.215
G1 X95.688 Y128.197 E64.3308
G1 X95.688 Y127.637
G1 X96.963 Y128.903 E64.3906
G1 X97.289 Y128.667
G1 X95.688 Y127.077 E64.4656
G1 X95.688 Y126.517
G1 X97.669 Y128.484 E64.5585
G1 X98.048 Y128.301
G1 X95.688 Y125.958 E64.6691
G1 X95.688 Y125.398
G1 X98.521 Y128.211 E64.8019
G1 X99.084 Y128.211
G1 X95.688 Y124.838 E64.9611
G1 X95.688 Y124.279
G1 X99.753 Y128.316 E65.1516
G0 X101.599 Y130.149 F10800
G1 X104.623 Y133.151 E65.2934 F3600
G1 X104.623 Y132.592
G1 X95.688 Y123.719 E65.7122
G1 X95.688 Y123.159
G1 X104.623 Y132.032 E66.1310
G1 X104.623 Y131.472
G1 X95.688 Y122.599 E66.5498
G1 X95.688 Y122.040
G1 X104.623 Y130.912 E66.9686
G1 X104.623 Y130.353
G1 X95.688 Y121.480 E67.3874
G1 X95.688 Y120.920
G1 X104.623 Y129.793 E67.8062
G1 X104.623 Y129.233
G1 X95.688 Y120.361 E68.2250
G1 X95.688 Y119.801
G1 X104.623 Y128.674 E68.6438
G1 X104.623 Y128.114
G1 X95.688 Y119.241 E69.0626
G1 X95.688 Y118.681
G1 X104.623 Y127.554 E69.4814
G1 X104.623 Y126.994
G1 X95.688 Y118.122 E69.9002
G1 X95.688 Y117.562
G1 X104.623 Y126.435 E70.3190
G1 X104.623 Y125.875
G1 X95.688 Y117.002 E70.7378
G1 X95.688 Y116.443
G1 X104.623 Y125.315 E71.1566
G1 X104.623 Y124.756
G1 X95.688 Y115.883 E71.5754
G1 X95.688 Y115.323
G1 X104.623 Y124.196 E71.9942
G1 X104.623 Y123.636
G1 X95.688 Y114.763 E72.4130
G1 X95.688 Y114.204
G1 X104.623 Y123.076 E72.8318
G1 X104.623 Y122.517
G1 X95.688 Y113.644 E73.2506
G1 X95.688 Y113.084
G1 X104.623 Y121.957 E73.6694
G1 X104.623 Y121.397
G1 X95.688 Y112.525 E74.0882
G1 X95.688 Y111.965
G1 X104.623 Y120.838 E74.5070
G1 X104.623 Y120.278
G1 X95.688 Y111.405 E74.9258
G1 X95.688 Y110.845
G1 X104.623 Y119.718 E75.3446
G1 X104.623 Y119.158
G1 X95.688 Y110.286 E75.7634
G1 X95.688 Y109.726
G1 X104.623 Y118.599 E76.1822
G1 X104.623 Y118.039
G1 X95.688 Y109.166 E76.6010
G1 X95.688 Y108.607
G1 X104.623 Y117.479 E77.0198
G1 X104.623 Y116.920
G1 X95.688 Y108.047 E77.4386
G1 X95.688 Y107.487
G1 X104.623 Y116.360 E77.8574
G1 X104.623 Y115.800
G1 X95.688 Y106.927 E78.2762
G1 X95.688 Y106.368
G1 X104.623 Y115.240 E78.6950
G1 X104.623 Y114.681
G1 X95.688 Y105.808 E79.1138
G1 X95.688 Y105.248
G1 X104.623 Y114.121 E79.5326
G1 X104.623 Y113.561
G1 X95.688 Y104.689 E79.9514
G1 X95.688 Y104.129
G1 X104.623 Y113.002 E80.3702
G1 X104.623 Y112.442
G1 X95.688 Y103.569 E80.7890
G1 X95.688 Y103.009
G1 X104.623 Y111.882 E81.2078
G1 X104.623 Y111.322
G1 X95.688 Y102.450 E81.6266
G1 X95.688 Y101.890
G1 X104.623 Y110.763 E82.0454
G1 X104.623 Y110.203
G1 X95.688 Y101.330 E82.4642
G1 X95.688 Y100.771
G1 X104.623 Y109.643 E82.8830
G1 X104.623 Y109.084
G1 X95.688 Y100.211 E83.3018
G1 X95.688 Y99.651
G1 X104.623 Y108.524 E83.7206
G1 X104.623 Y107.964
G1 X95.688 Y99.091 E84.1394
G1 X95.688 Y98.532
G1 X104.623 Y107.404 E84.5582
G1 X104.623 Y106.845
G1 X95.688 Y97.972 E84.9770
G1 X95.688 Y97.412
G1 X104.623 Y106.285 E85.3958
G1 X104.623 Y105.725
G1 X95.688 Y96.853 E85.8146
G1 X95.688 Y96.293
G1 X104.623 Y105.166 E86.2334
G1 X104.623 Y104.606
G1 X95.688 Y95.733 E86.6522
G1 X95.688 Y95.173
G1 X104.623 Y104.046 E87.0710
G1 X104.623 Y103.486
G1 X95.688 Y94.614 E87.4898
G1 X95.688 Y94.054
G1 X104.623 Y102.927 E87.9086
G1 X104.623 Y102.367
G1 X95.688 Y93.494 E88.3274
G1 X95.688 Y92.935
G1 X104.623 Y101.807 E88.7462
G1 X104.623 Y101.248
G1 X95.688 Y92.375 E89.1650
G1 X95.688 Y91.815
G1 X104.623 Y100.688 E89.5838
G1 X104.623 Y100.128
G1 X95.688 Y91.255 E90.0026
G1 X95.688 Y90.696
G1 X104.623 Y99.568 E90.4214
G1 X104.623 Y99.009
G1 X95.688 Y90.136 E90.8402
G1 X95.688 Y89.576
G1 X104.623 Y98.449 E91.2590
G1 X104.623 Y97.889
G1 X95.688 Y89.017 E91.6778
G1 X95.688 Y88.457
G1 X104.623 Y97.330 E92.0966
G1 X104.623 Y96.770
G1 X95.688 Y87.897 E92.5154
G1 X95.688 Y87.338
G1 X104.623 Y96.210 E92.9342
G1 X104.623 Y95.650
G1 X95.688 Y86.778 E93.3530
G1 X95.688 Y86.218
G1 X104.623 Y95.091 E93.7718
G1 X104.623 Y94.531
G1 X95.688 Y85.658 E94.1906
G1 X95.688 Y85.099
G1 X104.623 Y93.971 E94.6094
G1 X104.623 Y93.412
G1 X95.688 Y84.539 E95.0282
G1 X95.688 Y83.979
G1 X104.623 Y92.852 E95.4470
G1 X104.623 Y92.292
G1 X95.688 Y83.420 E95.8658
G1 X95.688 Y82.860
G1 X104.623 Y91.732 E96.2846
G1 X104.623 Y91.173
G1 X95.688 Y82.300 E96.7034
G1 X95.688 Y81.740
G1 X104.623 Y90.613 E97.1222
G1 X104.623 Y90.053
G1 X95.688 Y81.181 E97.5410
G1 X95.688 Y80.621
G1 X104.623 Y89.494 E97.9598
G1 X104.623 Y88.934
G1 X95.688 Y80.061 E98.3786
G1 X95.688 Y79.502
G1 X104.623 Y88.374 E98.7974
G1 X104.623 Y87.814
G1 X95.688 Y78.942 E99.2162
G1 X95.688 Y78.382
G1 X104.623 Y87.255 E99.6350
G1 X104.623 Y86.695
G1 X95.688 Y77.822 E100.0538
G1 X95.688 Y77.263
G1 X104.623 Y86.135 E100.4726
G1 X104.623 Y85.576
G1 X95.688 Y76.703 E100.8914
G1 X95.688 Y76.143
G1 X96.218 Y76.670 E100.9162
G1 X96.053 Y75.946
G1 X95.694 Y75.590 E100.9331
G1 X95.771 Y75.106
G1 X96.016 Y75.350 E100.9446
G1 X96.120 Y74.893
G1 X95.847 Y74.622 E100.9574
G1 X96.026 Y74.240
G1 X96.224 Y74.437 E100.9666
G1 X96.431 Y74.082
G1 X96.215 Y73.868 E100.9767
G1 X96.451 Y73.543
G1 X96.680 Y73.770 E100.9875
G1 X96.929 Y73.458
G1 X96.732 Y73.262 E100.9967
G1 X97.013 Y72.981
G1 X97.238 Y73.205 E101.0073
G1 X97.618 Y73.022
G1 X97.385 Y72.791 E101.0182
G1 X97.758 Y72.601
G1 X97.997 Y72.839 E101.0294
G1 X98.445 Y72.725
G1 X98.200 Y72.481 E101.0409
G1 X98.686 Y72.404
G1 X99.009 Y72.725 E101.0561
G1 X99.607 Y72.758
G1 X99.207 Y72.362 E101.0748
G1 X99.771 Y72.362
G1 X100.702 Y73.287 E101.1185
G0 X101.389 Y75.566 F10800
G0 X101.142 Y76.650
G0 X100.448 Y77.521
G0 X99.443 Y78.005
G0 X97.716 Y78.158
G1 X104.623 Y85.016 E101.4422 F3600
G1 X104.623 Y84.456
G1 X98.532 Y78.408 E101.7277
G1 X99.095 Y78.408
G1 X104.623 Y83.896 E101.9868
G1 X104.623 Y83.337
G1 X99.619 Y78.368 E102.2213
G0 X100.740 Y77.802 F10800
G1 X104.623 Y81.658 E102.4033 F3600
G1 X104.623 Y81.098
G1 X100.990 Y77.490 E102.5736
G1 X101.239 Y77.178
G1 X104.623 Y80.538 E102.7322
G1 X104.623 Y79.978
G1 X101.488 Y76.866 E102.8791
G1 X101.609 Y76.426
G1 X104.623 Y79.419 E103.0204
G1 X104.623 Y78.859
G1 X101.713 Y75.970 E103.1568
G1 X101.786 Y75.482
G1 X104.623 Y78.299 E103.2897
G1 X104.623 Y77.740
G1 X101.621 Y74.759 E103.4304
G0 X100.720 Y73.304 F10800
G1 X104.623 Y77.180 E103.6134 F3600
G1 X104.623 Y76.620
G1 X100.334 Y72.362 E103.8144
G1 X100.898 Y72.362
G1 X104.623 Y76.060 E103.9890
G1 X104.623 Y75.501
G1 X101.462 Y72.362 E104.1371
G1 X102.025 Y72.362
G1 X104.623 Y74.941 E104.2589
G1 X104.623 Y74.381
G1 X102.589 Y72.362 E104.3542
G1 X103.153 Y72.362
G1 X104.623 Y73.822 E104.4231
G1 X104.673 Y73.312
G1 X103.716 Y72.362 E104.4679
G1 X104.280 Y72.362
G1 X105.236 Y73.312 E104.5128
G1 X105.800 Y73.312
G1 X104.843 Y72.362 E104.5576
G1 X105.407 Y72.362
G1 X106.364 Y73.312 E104.6025
G1 X106.927 Y73.312
G1 X105.971 Y72.362 E104.6473
G1 X106.534 Y72.362
G1 X107.491 Y73.312 E104.6922
G1 X108.055 Y73.312
G1 X107.098 Y72.362 E104.7370
G1 X107.661 Y72.362
G1 X108.618 Y73.312 E104.7819
G1 X109.182 Y73.312
G1 X108.225 Y72.362 E104.8267
G1 X108.789 Y72.362
G1 X109.745 Y73.312 E104.8716
G1 X110.309 Y73.312
G1 X109.352 Y72.362 E104.9164
G1 X109.916 Y72.362
G1 X110.873 Y73.312 E104.9612
G1 X111.436 Y73.312
G1 X110.480 Y72.362 E105.0061
G1 X111.043 Y72.362
G1 X112.000 Y73.312 E105.0509
G1 X112.564 Y73.312
G1 X111.607 Y72.362 E105.0958
G1 X112.170 Y72.362
G1 X113.127 Y73.312 E105.1406
G1 X113.691 Y73.312
G1 X112.734 Y72.362 E105.1855
G1 X113.298 Y72.362
G1 X114.254 Y73.312 E105.2303
G1 X114.818 Y73.312
G1 X113.861 Y72.362 E105.2752
G1 X114.425 Y72.362
G1 X115.382 Y73.312 E105.3200
G1 X115.945 Y73.312
G1 X114.988 Y72.362 E105.3649
G1 X115.552 Y72.362
G1 X116.509 Y73.312 E105.4097
G1 X117.072 Y73.312
G1 X116.116 Y72.362 E105.4546
G1 X116.679 Y72.362
G1 X117.636 Y73.312 E105.4994
G1 X118.200 Y73.312
G1 X117.243 Y72.362 E105.5442
G1 X117.807 Y72.362
G1 X118.763 Y73.312 E105.5891
G1 X119.327 Y73.312
G1 X118.370 Y72.362 E105.6339
G1 X118.934 Y72.362
G1 X119.891 Y73.312 E105.6788
G1 X120.454 Y73.312
G1 X119.497 Y72.362 E105.7236
G1 X120.061 Y72.362
G1 X121.018 Y73.312 E105.7685
G1 X121.581 Y73.312
G1 X120.625 Y72.362 E105.8133
G1 X121.188 Y72.362
G1 X122.145 Y73.312 E105.8582
G1 X122.709 Y73.312
G1 X121.752 Y72.362 E105.9030
G1 X122.315 Y72.362
G1 X123.272 Y73.312 E105.9479
G1 X123.836 Y73.312
G1 X122.879 Y72.362 E105.9927
G1 X123.443 Y72.362
G1 X124.399 Y73.312 E106.0375
G1 X124.963 Y73.312
G1 X124.006 Y72.362 E106.0824
G1 X124.570 Y72.362
G1 X125.527 Y73.312 E106.1272
G1 X126.090 Y73.312
G1 X125.134 Y72.362 E106.1721
G1 X125.697 Y72.362
G1 X126.654 Y73.312 E106.2169
G1 X127.218 Y73.312
G1 X126.261 Y72.362 E106.2618
G1 X126.824 Y72.362
G1 X127.781 Y73.312 E106.3066
G1 X128.345 Y73.312
G1 X127.388 Y72.362 E106.3515
G1 X127.952 Y72.362
G1 X128.908 Y73.312 E106.3963
G1 X129.472 Y73.312
G1 X128.515 Y72.362 E106.4412
G1 X129.079 Y72.362
G1 X130.036 Y73.312 E106.4860
G1 X130.599 Y73.312
G1 X129.642 Y72.362 E106.5308
G1 X130.206 Y72.362
G1 X131.163 Y73.312 E106.5757
G1 X131.726 Y73.312
G1 X130.770 Y72.362 E106.6205
G1 X131.333 Y72.362
G1 X132.290 Y73.312 E106.6654
G1 X132.854 Y73.312
G1 X131.897 Y72.362 E106.7102
G1 X132.461 Y72.362
G1 X133.417 Y73.312 E106.7551
G1 X133.981 Y73.312
G1 X133.024 Y72.362 E106.7999
G1 X133.588 Y72.362
G1 X134.545 Y73.312 E106.8448
G1 X135.108 Y73.312
G1 X134.151 Y72.362 E106.8896
G1 X134.715 Y72.362
G1 X135.672 Y73.312 E106.9345
G1 X136.235 Y73.312
G1 X135.279 Y72.362 E106.9793
G1 X135.842 Y72.362
G1 X136.799 Y73.312 E107.0241
G1 X137.363 Y73.312
G1 X136.406 Y72.362 E107.0690
G1 X136.970 Y72.362
G1 X137.926 Y73.312 E107.1138
G1 X138.490 Y73.312
G1 X137.533 Y72.362 E107.1587
G1 X138.097 Y72.362
G1 X139.053 Y73.312 E107.2035
G1 X139.617 Y73.312
G1 X138.660 Y72.362 E107.2484
G1 X139.224 Y72.362
G1 X140.181 Y73.312 E107.2932
G1 X140.744 Y73.312
G1 X139.788 Y72.362 E107.3381
G1 X140.351 Y72.362
G1 X141.308 Y73.312 E107.3829
G1 X141.872 Y73.312
G1 X140.915 Y72.362 E107.4278
G1 X141.478 Y72.362
G1 X142.435 Y73.312 E107.4726
G1 X142.999 Y73.312
G1 X142.042 Y72.362 E107.5174
G1 X142.606 Y72.362
G1 X143.562 Y73.312 E107.5623
G1 X144.126 Y73.312
G1 X143.169 Y72.362 E107.6071
G1 X143.733 Y72.362
G1 X144.690 Y73.312 E107.6520
G1 X145.253 Y73.312
G1 X144.297 Y72.362 E107.6968
G1 X144.860 Y72.362
G1 X145.817 Y73.312 E107.7417
G1 X146.380 Y73.312
G1 X145.424 Y72.362 E107.7865
G1 X145.987 Y72.362
G1 X146.944 Y73.312 E107.8314
G1 X147.508 Y73.312
G1 X146.551 Y72.362 E107.8762
G1 X147.115 Y72.362
G1 X148.071 Y73.312 E107.9211
G1 X148.635 Y73.312
G1 X147.678 Y72.362 E107.9659
G1 X148.242 Y72.362
G1 X149.199 Y73.312 E108.0107
G1 X149.762 Y73.312
G1 X148.805 Y72.362 E108.0556
G1 X149.369 Y72.362
G1 X150.326 Y73.312 E108.1004
G1 X150.889 Y73.312
G1 X149.933 Y72.362 E108.1453
G1 X150.496 Y72.362
G1 X151.453 Y73.312 E108.1901
G1 X152.017 Y73.312
G1 X151.060 Y72.362 E108.2350
G1 X151.624 Y72.362
G1 X152.580 Y73.312 E108.2798
G1 X153.144 Y73.312
G1 X152.187 Y72.362 E108.3247
G1 X152.751 Y72.362
G1 X153.707 Y73.312 E108.3695
G1 X154.271 Y73.312
G1 X153.314 Y72.362 E108.4144
G1 X153.878 Y72.362
G1 X154.835 Y73.312 E108.4592
G1 X155.398 Y73.312
G1 X154.442 Y72.362 E108.5040
G1 X155.005 Y72.362
G1 X155.962 Y73.312 E108.5489
G1 X156.526 Y73.312
G1 X155.569 Y72.362 E108.5937
G1 X156.132 Y72.362
G1 X157.089 Y73.312 E108.6386
G1 X157.653 Y73.312
G1 X156.696 Y72.362 E108.6834
G1 X157.260 Y72.362
G1 X158.216 Y73.312 E108.7283
; ------------------------------------
; Layer #2
; ------------------------------------
G21 ; mm
G90 ; abs
G92 E0 ; reset extr
M106 S255
G0 F4800 E-1.0000
G0 F300 Z0.600
G0 X104.800 Y73.488 F10800
G0 X101.766 Y134.257
G0 F4800 E0.0000
;segType:HShell
G1 X104.623 Y131.420 E0.1339 F3600
G1 X104.623 Y131.980
G1 X102.330 Y134.257 E0.2414
G1 X102.893 Y134.257
G1 X104.623 Y132.540 E0.3224
G1 X104.623 Y133.100
G1 X103.457 Y134.257 E0.3770
G1 X103.684 Y134.591
G1 X104.623 Y133.659 E0.4210
G1 X104.623 Y134.219
G1 X103.684 Y135.151 E0.4650
;segType:Perimeter
G1 X103.024 Y134.853 E0.4888 F2159
G1 X98.902 Y134.853 E0.6260
G1 X97.713 Y134.665 E0.6660
G1 X96.655 Y134.125 E0.7055
G1 X95.816 Y133.286 E0.7450
G1 X95.276 Y132.227 E0.7845
G1 X95.088 Y131.037 E0.8246
G1 X95.088 Y75.581 E2.6690
G1 X95.276 Y74.392 E2.7091
G1 X95.816 Y73.333 E2.7486
G1 X96.655 Y72.493 E2.7881
G1 X97.713 Y71.954 E2.8276
G1 X98.902 Y71.766 E2.8676
G1 X164.883 Y71.766 E5.0622
G1 X164.883 Y162.151 E8.0684
G1 X103.084 Y162.151 E10.1239
G1 X103.084 Y134.912 E11.0298
G1 X102.810 Y134.254
;segType:Loop
G0 X101.988 Y134.456 F10800
G1 X98.933 Y134.456 E11.1314 F3600
G1 X97.839 Y134.282 E11.1683
G1 X96.894 Y133.801 E11.2035
G1 X96.144 Y133.050 E11.2388
G1 X95.662 Y132.103 E11.2742
G1 X95.488 Y131.006 E11.3111
G1 X95.488 Y75.612 E13.1535
G1 X95.662 Y74.516 E13.1905
G1 X96.144 Y73.569 E13.2258
G1 X96.894 Y72.818 E13.2611
G1 X97.839 Y72.336 E13.2964
G1 X98.933 Y72.163 E13.3332
G1 X164.483 Y72.163 E15.5134
G1 X164.483 Y161.754 E18.4933
G1 X103.484 Y161.754 E20.5221
G1 X103.484 Y134.456 E21.4300
G1 X102.187 Y134.456 E21.4732
G0 X99.518 Y133.461 F10800
G0 X98.328 Y133.491
G0 X97.324 Y133.007
G0 X96.630 Y132.137
G0 X96.129 Y130.340
;segType:HShell
G1 X95.688 Y130.778 E21.4938 F3600
G1 X95.735 Y131.291
G1 X95.968 Y131.059 E21.5048
G1 X96.072 Y131.516
G1 X95.812 Y131.774 E21.5170
G1 X95.939 Y132.208
G1 X96.176 Y131.972 E21.5281
G1 X96.316 Y132.393
G1 X96.128 Y132.580 E21.5369
G1 X96.322 Y132.947
G1 X96.566 Y132.705 E21.5483
G1 X96.815 Y133.017
G1 X96.603 Y133.228 E21.5582
G1 X96.884 Y133.508
G1 X97.064 Y133.330 E21.5666
G1 X97.443 Y133.512
G1 X97.214 Y133.740 E21.5774
G1 X97.586 Y133.930
G1 X97.823 Y133.695 E21.5885
G1 X98.202 Y133.878
G1 X97.976 Y134.103 E21.5991
G1 X98.462 Y134.180
G1 X98.750 Y133.894 E21.6126
G1 X99.314 Y133.894
G1 X98.948 Y134.257 E21.6297
G1 X99.512 Y134.257
G1 X100.199 Y133.575 E21.6619
;segType:Perimeter
G0 X99.986 Y133.606 F10800
G1 X99.339 Y133.298 E21.6857 F2159
G1 X98.373 Y133.298 E21.7179
G1 X97.449 Y132.853 E21.7520
G1 X96.810 Y132.052 E21.7861
G1 X96.582 Y131.053 E21.8202
G1 X96.810 Y130.054 E21.8542
G1 X97.449 Y129.252 E21.8883
G1 X98.373 Y128.807 E21.9224
G1 X99.399 Y128.807 E21.9566
G1 X100.323 Y129.252 E21.9907
G1 X100.962 Y130.054 E22.0248
G1 X101.190 Y131.053 E22.0588
G1 X100.962 Y132.052 E22.0929
G1 X100.323 Y132.853 E22.1270
G1 X99.453 Y133.272 E22.1591
G1 X99.006 Y133.830
G0 F4800 E21.1591
G0 X98.303 Y133.695 F10800
G0 F4800 E22.1591
;segType:Loop
G1 X98.281 Y133.695 E22.1599 F3600
G1 X97.192 Y133.170 E22.2001
G1 X96.439 Y132.227 E22.2402
G1 X96.172 Y131.053 E22.2803
G1 X96.439 Y129.878 E22.3204
G1 X97.192 Y128.935 E22.3605
G1 X98.281 Y128.410 E22.4007
G1 X99.491 Y128.410 E22.4409
G1 X100.580 Y128.935 E22.4811
G1 X101.332 Y129.878 E22.5213
G1 X101.600 Y131.053 E22.5613
G1 X101.332 Y132.227 E22.6014
G1 X100.580 Y133.170 E22.6415
G1 X99.491 Y133.695 E22.6818
G1 X98.502 Y133.695 E22.7146
G0 X96.630 Y132.137 F10800
G0 X96.383 Y131.053
G0 X104.623 Y74.330
;segType:HShell
G1 X95.688 Y83.202 E23.1334 F3600
G1 X95.688 Y82.643
G1 X100.345 Y78.018 E23.3517
;segType:Perimeter
G0 X99.986 Y78.119 F10800
G1 X99.339 Y77.812 E23.3756 F2159
G1 X98.373 Y77.812 E23.4077
G1 X97.449 Y77.366 E23.4418
G1 X96.810 Y76.565 E23.4759
G1 X96.582 Y75.566 E23.5100
G1 X96.810 Y74.567 E23.5441
G1 X97.449 Y73.766 E23.5782
G1 X98.373 Y73.321 E23.6123
G1 X99.399 Y73.321 E23.6464
G1 X100.323 Y73.766 E23.6805
G1 X100.962 Y74.567 E23.7146
G1 X101.190 Y75.566 E23.7487
G1 X100.962 Y76.565 E23.7827
G1 X100.323 Y77.366 E23.8168
G1 X99.453 Y77.786 E23.8490
G1 X99.006 Y78.343
;segType:Loop
G0 X98.303 Y78.209 F10800
G1 X98.281 Y78.209 E23.8497 F3600
G1 X97.192 Y77.684 E23.8899
G1 X96.439 Y76.741 E23.9300
G1 X96.172 Y75.566 E23.9701
G1 X96.439 Y74.391 E24.0102
G1 X97.192 Y73.448 E24.0503
G1 X98.281 Y72.923 E24.0905
G1 X99.491 Y72.923 E24.1308
G1 X100.580 Y73.448 E24.1710
G1 X101.332 Y74.391 E24.2111
G1 X101.600 Y75.566 E24.2512
G1 X101.332 Y76.741 E24.2912
G1 X100.580 Y77.684 E24.3314
G1 X99.491 Y78.209 E24.3716
G1 X98.502 Y78.209 E24.4045
G0 X105.053 Y76.028 F10800
G0 X105.082 Y73.768
G0 X162.886 Y73.768
G0 X163.345 Y75.903
;segType:HShell
G1 X164.283 Y74.971 E24.4484 F3600
G1 X164.283 Y74.412
G1 X163.345 Y75.343 E24.4924
G1 X163.345 Y74.784
G1 X164.283 Y73.852 E24.5364
G1 X164.283 Y73.292
G1 X163.345 Y74.224 E24.5804
G1 X163.345 Y73.664
G1 X164.283 Y72.732 E24.6244
G1 X164.093 Y72.362
G1 X163.136 Y73.312 E24.6692
G1 X162.573 Y73.312
G1 X163.529 Y72.362 E24.7141
G1 X162.966 Y72.362
G1 X162.009 Y73.312 E24.7589
;segType:Perimeter
G0 X162.470 Y73.309 F10800
G1 X162.745 Y73.967 E24.7826 F2159
G1 X162.745 Y160.009 E27.6444
G1 X105.223 Y160.009 E29.5576
G1 X105.223 Y73.908 E32.4214
G1 X162.685 Y73.908 E34.3326
G1 X163.348 Y74.181
;segType:Loop
G0 X163.145 Y74.996 F10800
G1 X163.145 Y160.406 E37.1733 F3600
G1 X104.823 Y160.406 E39.1131
G1 X104.823 Y73.511 E42.0033
G1 X163.145 Y73.511 E43.9431
G1 X163.145 Y74.798 E43.9859
;segType:HShell
G0 X163.345 Y76.463 F10800
G1 X164.283 Y75.531 E44.0299 F3600
G1 X164.283 Y76.091
G1 X163.345 Y77.023 E44.0739
G1 X163.345 Y77.582
G1 X164.283 Y76.650 E44.1179
G1 X164.283 Y77.210
G1 X163.345 Y78.142 E44.1619
G1 X163.345 Y78.702
G1 X164.283 Y77.770 E44.2059
G1 X164.283 Y78.330
G1 X163.345 Y79.261 E44.2498
G1 X163.345 Y79.821
G1 X164.283 Y78.889 E44.2938
G1 X164.283 Y79.449
G1 X163.345 Y80.381 E44.3378
G1 X163.345 Y80.941
G1 X164.283 Y80.009 E44.3818
G1 X164.283 Y80.568
G1 X163.345 Y81.500 E44.4258
G1 X163.345 Y82.060
G1 X164.283 Y81.128 E44.4698
G1 X164.283 Y81.688
G1 X163.345 Y82.620 E44.5137
G1 X163.345 Y83.179
G1 X164.283 Y82.248 E44.5577
G1 X164.283 Y82.807
G1 X163.345 Y83.739 E44.6017
G1 X163.345 Y84.299
G1 X164.283 Y83.367 E44.6457
G1 X164.283 Y83.927
G1 X163.345 Y84.859 E44.6897
G1 X163.345 Y85.418
G1 X164.283 Y84.486 E44.7337
G1 X164.283 Y85.046
G1 X163.345 Y85.978 E44.7776
G1 X163.345 Y86.538
G1 X164.283 Y85.606 E44.8216
G1 X164.283 Y86.166
G1 X163.345 Y87.097 E44.8656
G1 X163.345 Y87.657
G1 X164.283 Y86.725 E44.9096
G1 X164.283 Y87.285
G1 X163.345 Y88.217 E44.9536
G1 X163.345 Y88.777
G1 X164.283 Y87.845 E44.9976
G1 X164.283 Y88.404
G1 X163.345 Y89.336 E45.0415
G1 X163.345 Y89.896
G1 X164.283 Y88.964 E45.0855
G1 X164.283 Y89.524
G1 X163.345 Y90.456 E45.1295
G1 X163.345 Y91.015
G1 X164.283 Y90.084 E45.1735
G1 X164.283 Y90.643
G1 X163.345 Y91.575 E45.2175
G1 X163.345 Y92.135
G1 X164.283 Y91.203 E45.2615
G1 X164.283 Y91.763
G1 X163.345 Y92.695 E45.3054
G1 X163.345 Y93.254
G1 X164.283 Y92.322 E45.3494
G1 X164.283 Y92.882
G1 X163.345 Y93.814 E45.3934
G1 X163.345 Y94.374
G1 X164.283 Y93.442 E45.4374
G1 X164.283 Y94.002
G1 X163.345 Y94.933 E45.4814
G1 X163.345 Y95.493
G1 X164.283 Y94.561 E45.5254
G1 X164.283 Y95.121
G1 X163.345 Y96.053 E45.5693
G1 X163.345 Y96.613
G1 X164.283 Y95.681 E45.6133
G1 X164.283 Y96.240
G1 X163.345 Y97.172 E45.6573
G1 X163.345 Y97.732
G1 X164.283 Y96.800 E45.7013
G1 X164.283 Y97.360
G1 X163.345 Y98.292 E45.7453
G1 X163.345 Y98.851
G1 X164.283 Y97.920 E45.7893
G1 X164.283 Y98.479
G1 X163.345 Y99.411 E45.8332
G1 X163.345 Y99.971
G1 X164.283 Y99.039 E45.8772
G1 X164.283 Y99.599
G1 X163.345 Y100.531 E45.9212
G1 X163.345 Y101.090
G1 X164.283 Y100.158 E45.9652
G1 X164.283 Y100.718
G1 X163.345 Y101.650 E46.0092
G1 X163.345 Y102.210
G1 X164.283 Y101.278 E46.0532
G1 X164.283 Y101.838
G1 X163.345 Y102.769 E46.0972
G1 X163.345 Y103.329
G1 X164.283 Y102.397 E46.1411
G1 X164.283 Y102.957
G1 X163.345 Y103.889 E46.1851
G1 X163.345 Y104.449
G1 X164.283 Y103.517 E46.2291
G1 X164.283 Y104.076
G1 X163.345 Y105.008 E46.2731
G1 X163.345 Y105.568
G1 X164.283 Y104.636 E46.3171
G1 X164.283 Y105.196
G1 X163.345 Y106.128 E46.3611
G1 X163.345 Y106.687
G1 X164.283 Y105.756 E46.4050
G1 X164.283 Y106.315
G1 X163.345 Y107.247 E46.4490
G1 X163.345 Y107.807
G1 X164.283 Y106.875 E46.4930
G1 X164.283 Y107.435
G1 X163.345 Y108.367 E46.5370
G1 X163.345 Y108.926
G1 X164.283 Y107.994 E46.5810
G1 X164.283 Y108.554
G1 X163.345 Y109.486 E46.6250
G1 X163.345 Y110.046
G1 X164.283 Y109.114 E46.6689
G1 X164.283 Y109.674
G1 X163.345 Y110.605 E46.7129
G1 X163.345 Y111.165
G1 X164.283 Y110.233 E46.7569
G1 X164.283 Y110.793
G1 X163.345 Y111.725 E46.8009
G1 X163.345 Y112.285
G1 X164.283 Y111.353 E46.8449
G1 X164.283 Y111.912
G1 X163.345 Y112.844 E46.8889
G1 X163.345 Y113.404
G1 X164.283 Y112.472 E46.9328
G1 X164.283 Y113.032
G1 X163.345 Y113.964 E46.9768
G1 X163.345 Y114.523
G1 X164.283 Y113.592 E47.0208
G1 X164.283 Y114.151
G1 X163.345 Y115.083 E47.0648
G1 X163.345 Y115.643
G1 X164.283 Y114.711 E47.1088
G1 X164.283 Y115.271
G1 X163.345 Y116.203 E47.1528
G1 X163.345 Y116.762
G1 X164.283 Y115.830 E47.1967
G1 X164.283 Y116.390
G1 X163.345 Y117.322 E47.2407
G1 X163.345 Y117.882
G1 X164.283 Y116.950 E47.2847
G1 X164.283 Y117.510
G1 X163.345 Y118.441 E47.3287
G1 X163.345 Y119.001
G1 X164.283 Y118.069 E47.3727
G1 X164.283 Y118.629
G1 X163.345 Y119.561 E47.4167
G1 X163.345 Y120.120
G1 X164.283 Y119.189 E47.4606
G1 X164.283 Y119.748
G1 X163.345 Y120.680 E47.5046
G1 X163.345 Y121.240
G1 X164.283 Y120.308 E47.5486
G1 X164.283 Y120.868
G1 X163.345 Y121.800 E47.5926
G1 X163.345 Y122.359
G1 X164.283 Y121.428 E47.6366
G1 X164.283 Y121.987
G1 X163.345 Y122.919 E47.6806
G1 X163.345 Y123.479
G1 X164.283 Y122.547 E47.7245
G1 X164.283 Y123.107
G1 X163.345 Y124.038 E47.7685
G1 X163.345 Y124.598
G1 X164.283 Y123.666 E47.8125
G1 X164.283 Y124.226
G1 X163.345 Y125.158 E47.8565
G1 X163.345 Y125.718
G1 X164.283 Y124.786 E47.9005
G1 X164.283 Y125.346
G1 X163.345 Y126.277 E47.9445
G1 X163.345 Y126.837
G1 X164.283 Y125.905 E47.9884
G1 X164.283 Y126.465
G1 X163.345 Y127.397 E48.0324
G1 X163.345 Y127.956
G1 X164.283 Y127.025 E48.0764
G1 X164.283 Y127.584
G1 X163.345 Y128.516 E48.1204
G1 X163.345 Y129.076
G1 X164.283 Y128.144 E48.1644
G1 X164.283 Y128.704
G1 X163.345 Y129.636 E48.2084
G1 X163.345 Y130.195
G1 X164.283 Y129.264 E48.2523
G1 X164.283 Y129.823
G1 X163.345 Y130.755 E48.2963
G1 X163.345 Y131.315
G1 X164.283 Y130.383 E48.3403
G1 X164.283 Y130.943
G1 X163.345 Y131.874 E48.3843
G1 X163.345 Y132.434
G1 X164.283 Y131.502 E48.4283
G1 X164.283 Y132.062
G1 X163.345 Y132.994 E48.4723
G1 X163.345 Y133.554
G1 X164.283 Y132.622 E48.5162
G1 X164.283 Y133.182
G1 X163.345 Y134.113 E48.5602
G1 X163.345 Y134.673
G1 X164.283 Y133.741 E48.6042
G1 X164.283 Y134.301
G1 X163.345 Y135.233 E48.6482
G1 X163.345 Y135.792
G1 X164.283 Y134.861 E48.6922
G1 X164.283 Y135.420
G1 X163.345 Y136.352 E48.7362
G1 X163.345 Y136.912
G1 X164.283 Y135.980 E48.7801
G1 X164.283 Y136.540
G1 X163.345 Y137.472 E48.8241
G1 X163.345 Y138.031
G1 X164.283 Y137.099 E48.8681
G1 X164.283 Y137.659
G1 X163.345 Y138.591 E48.9121
G1 X163.345 Y139.151
G1 X164.283 Y138.219 E48.9561
G1 X164.283 Y138.779
G1 X163.345 Y139.710 E49.0001
G1 X163.345 Y140.270
G1 X164.283 Y139.338 E49.0440
G1 X164.283 Y139.898
G1 X163.345 Y140.830 E49.0880
G1 X163.345 Y141.390
G1 X164.283 Y140.458 E49.1320
G1 X164.283 Y141.017
G1 X163.345 Y141.949 E49.1760
G1 X163.345 Y142.509
G1 X164.283 Y141.577 E49.2200
G1 X164.283 Y142.137
G1 X163.345 Y143.069 E49.2640
G1 X163.345 Y143.628
G1 X164.283 Y142.697 E49.3079
G1 X164.283 Y143.256
G1 X163.345 Y144.188 E49.3519
G1 X163.345 Y144.748
G1 X164.283 Y143.816 E49.3959
G1 X164.283 Y144.376
G1 X163.345 Y145.308 E49.4399
G1 X163.345 Y145.867
G1 X164.283 Y144.935 E49.4839
G1 X164.283 Y145.495
G1 X163.345 Y146.427 E49.5279
G1 X163.345 Y146.987
G1 X164.283 Y146.055 E49.5718
G1 X164.283 Y146.615
G1 X163.345 Y147.546 E49.6158
G1 X163.345 Y148.106
G1 X164.283 Y147.174 E49.6598
G1 X164.283 Y147.734
G1 X163.345 Y148.666 E49.7038
G1 X163.345 Y149.226
G1 X164.283 Y148.294 E49.7478
G1 X164.283 Y148.853
G1 X163.345 Y149.785 E49.7918
G1 X163.345 Y150.345
G1 X164.283 Y149.413 E49.8357
G1 X164.283 Y149.973
G1 X163.345 Y150.905 E49.8797
G1 X163.345 Y151.464
G1 X164.283 Y150.533 E49.9237
G1 X164.283 Y151.092
G1 X163.345 Y152.024 E49.9677
G1 X163.345 Y152.584
G1 X164.283 Y151.652 E50.0117
G1 X164.283 Y152.212
G1 X163.345 Y153.144 E50.0557
G1 X163.345 Y153.703
G1 X164.283 Y152.771 E50.0996
G1 X164.283 Y153.331
G1 X163.345 Y154.263 E50.1436
G1 X163.345 Y154.823
G1 X164.283 Y153.891 E50.1876
G1 X164.283 Y154.451
G1 X163.345 Y155.382 E50.2316
G1 X163.345 Y155.942
G1 X164.283 Y155.010 E50.2756
G1 X164.283 Y155.570
G1 X163.345 Y156.502 E50.3196
G1 X163.345 Y157.062
G1 X164.283 Y156.130 E50.3635
G1 X164.283 Y156.689
G1 X163.345 Y157.621 E50.4075
G1 X163.345 Y158.181
G1 X164.283 Y157.249 E50.4515
G1 X164.283 Y157.809
G1 X163.345 Y158.741 E50.4955
G1 X163.345 Y159.300
G1 X164.283 Y158.369 E50.5395
G1 X164.283 Y158.928
G1 X163.345 Y159.860 E50.5835
G1 X163.345 Y160.420
G1 X164.283 Y159.488 E50.6274
G1 X164.283 Y160.048
G1 X162.765 Y161.555 E50.6986
G1 X163.329 Y161.555
G1 X164.283 Y160.607 E50.7433
G1 X164.283 Y161.167
G1 X163.893 Y161.555 E50.7617
G0 X163.158 Y160.605 F10800
G1 X162.202 Y161.555 E50.8065 F3600
G1 X161.638 Y161.555
G1 X162.595 Y160.605 E50.8514
G1 X162.031 Y160.605
G1 X161.074 Y161.555 E50.8962
G1 X160.511 Y161.555
G1 X161.468 Y160.605 E50.9410
G1 X160.904 Y160.605
G1 X159.947 Y161.555 E50.9859
G1 X159.384 Y161.555
G1 X160.340 Y160.605 E51.0307
G1 X159.777 Y160.605
G1 X158.820 Y161.555 E51.0756
G1 X158.256 Y161.555
G1 X159.213 Y160.605 E51.1204
G1 X158.650 Y160.605
G1 X157.693 Y161.555 E51.1653
G1 X157.129 Y161.555
G1 X158.086 Y160.605 E51.2101
G1 X157.522 Y160.605
G1 X156.566 Y161.555 E51.2550
G1 X156.002 Y161.555
G1 X156.959 Y160.605 E51.2998
G1 X156.395 Y160.605
G1 X155.438 Y161.555 E51.3447
G1 X154.875 Y161.555
G1 X155.831 Y160.605 E51.3895
G1 X155.268 Y160.605
G1 X154.311 Y161.555 E51.4343
G1 X153.747 Y161.555
G1 X154.704 Y160.605 E51.4792
G1 X154.141 Y160.605
G1 X153.184 Y161.555 E51.5240
G1 X152.620 Y161.555
G1 X153.577 Y160.605 E51.5689
G1 X153.013 Y160.605
G1 X152.057 Y161.555 E51.6137
G1 X151.493 Y161.555
G1 X152.450 Y160.605 E51.6586
G1 X151.886 Y160.605
G1 X150.929 Y161.555 E51.7034
G1 X150.366 Y161.555
G1 X151.323 Y160.605 E51.7483
G1 X150.759 Y160.605
G1 X149.802 Y161.555 E51.7931
G1 X149.239 Y161.555
G1 X150.195 Y160.605 E51.8380
G1 X149.632 Y160.605
G1 X148.675 Y161.555 E51.8828
G1 X148.111 Y161.555
G1 X149.068 Y160.605 E51.9276
G1 X148.504 Y160.605
G1 X147.548 Y161.555 E51.9725
G1 X146.984 Y161.555
G1 X147.941 Y160.605 E52.0173
G1 X147.377 Y160.605
G1 X146.420 Y161.555 E52.0622
G1 X145.857 Y161.555
G1 X146.814 Y160.605 E52.1070
G1 X146.250 Y160.605
G1 X145.293 Y161.555 E52.1519
G1 X144.730 Y161.555
G1 X145.686 Y160.605 E52.1967
G1 X145.123 Y160.605
G1 X144.166 Y161.555 E52.2416
G1 X143.602 Y161.555
G1 X144.559 Y160.605 E52.2864
G1 X143.995 Y160.605
G1 X143.039 Y161.555 E52.3313
G1 X142.475 Y161.555
G1 X143.432 Y160.605 E52.3761
G1 X142.868 Y160.605
G1 X141.912 Y161.555 E52.4209
G1 X141.348 Y161.555
G1 X142.305 Y160.605 E52.4658
G1 X141.741 Y160.605
G1 X140.784 Y161.555 E52.5106
G1 X140.221 Y161.555
G1 X141.177 Y160.605 E52.5555
G1 X140.614 Y160.605
G1 X139.657 Y161.555 E52.6003
G1 X139.093 Y161.555
G1 X140.050 Y160.605 E52.6452
G1 X139.487 Y160.605
G1 X138.530 Y161.555 E52.6900
G1 X137.966 Y161.555
G1 X138.923 Y160.605 E52.7349
G1 X138.359 Y160.605
G1 X137.403 Y161.555 E52.7797
G1 X136.839 Y161.555
G1 X137.796 Y160.605 E52.8246
G1 X137.232 Y160.605
G1 X136.275 Y161.555 E52.8694
G1 X135.712 Y161.555
G1 X136.668 Y160.605 E52.9143
G1 X136.105 Y160.605
G1 X135.148 Y161.555 E52.9591
G1 X134.585 Y161.555
G1 X135.541 Y160.605 E53.0039
G1 X134.978 Y160.605
G1 X134.021 Y161.555 E53.0488
G1 X133.457 Y161.555
G1 X134.414 Y160.605 E53.0936
G1 X133.850 Y160.605
G1 X132.894 Y161.555 E53.1385
G1 X132.330 Y161.555
G1 X133.287 Y160.605 E53.1833
G1 X132.723 Y160.605
G1 X131.766 Y161.555 E53.2282
G1 X131.203 Y161.555
G1 X132.160 Y160.605 E53.2730
G1 X131.596 Y160.605
G1 X130.639 Y161.555 E53.3179
G1 X130.076 Y161.555
G1 X131.032 Y160.605 E53.3627
G1 X130.469 Y160.605
G1 X129.512 Y161.555 E53.4076
G1 X128.948 Y161.555
G1 X129.905 Y160.605 E53.4524
G1 X129.341 Y160.605
G1 X128.385 Y161.555 E53.4972
G1 X127.821 Y161.555
G1 X128.778 Y160.605 E53.5421
G1 X128.214 Y160.605
G1 X127.258 Y161.555 E53.5869
G1 X126.694 Y161.555
G1 X127.651 Y160.605 E53.6318
G1 X127.087 Y160.605
G1 X126.130 Y161.555 E53.6766
G1 X125.567 Y161.555
G1 X126.523 Y160.605 E53.7215
G1 X125.960 Y160.605
G1 X125.003 Y161.555 E53.7663
G1 X124.439 Y161.555
G1 X125.396 Y160.605 E53.8112
G1 X124.833 Y160.605
G1 X123.876 Y161.555 E53.8560
G1 X123.312 Y161.555
G1 X124.269 Y160.605 E53.9009
G1 X123.705 Y160.605
G1 X122.749 Y161.555 E53.9457
G1 X122.185 Y161.555
G1 X123.142 Y160.605 E53.9905
G1 X122.578 Y160.605
G1 X121.621 Y161.555 E54.0354
G1 X121.058 Y161.555
G1 X122.014 Y160.605 E54.0802
G1 X121.451 Y160.605
G1 X120.494 Y161.555 E54.1251
G1 X119.931 Y161.555
G1 X120.887 Y160.605 E54.1699
G1 X120.324 Y160.605
G1 X119.367 Y161.555 E54.2148
G1 X118.803 Y161.555
G1 X119.760 Y160.605 E54.2596
G1 X119.196 Y160.605
G1 X118.240 Y161.555 E54.3045
G1 X117.676 Y161.555
G1 X118.633 Y160.605 E54.3493
G1 X118.069 Y160.605
G1 X117.112 Y161.555 E54.3942
G1 X116.549 Y161.555
G1 X117.506 Y160.605 E54.4390
G1 X116.942 Y160.605
G1 X115.985 Y161.555 E54.4838
G1 X115.422 Y161.555
G1 X116.378 Y160.605 E54.5287
G1 X115.815 Y160.605
G1 X114.858 Y161.555 E54.5735
G1 X114.294 Y161.555
G1 X115.251 Y160.605 E54.6184
G1 X114.687 Y160.605
G1 X113.731 Y161.555 E54.6632
G1 X113.167 Y161.555
G1 X114.124 Y160.605 E54.7081
G1 X113.560 Y160.605
G1 X112.604 Y161.555 E54.7529
G1 X112.040 Y161.555
G1 X112.997 Y160.605 E54.7978
G1 X112.433 Y160.605
G1 X111.476 Y161.555 E54.8426
G1 X110.913 Y161.555
G1 X111.869 Y160.605 E54.8875
G1 X111.306 Y160.605
G1 X110.349 Y161.555 E54.9323
G1 X109.785 Y161.555
G1 X110.742 Y160.605 E54.9771
G1 X110.179 Y160.605
G1 X109.222 Y161.555 E55.0220
G1 X108.658 Y161.555
G1 X109.615 Y160.605 E55.0668
G1 X109.051 Y160.605
G1 X108.095 Y161.555 E55.1117
G1 X107.531 Y161.555
G1 X108.488 Y160.605 E55.1565
G1 X107.924 Y160.605
G1 X106.967 Y161.555 E55.2014
G1 X106.404 Y161.555
G1 X107.360 Y160.605 E55.2462
G1 X106.797 Y160.605
G1 X105.840 Y161.555 E55.2911
G1 X105.277 Y161.555
G1 X106.233 Y160.605 E55.3359
G1 X105.670 Y160.605
G1 X104.713 Y161.555 E55.3808
G1 X104.149 Y161.555
G1 X105.106 Y160.605 E55.4256
G1 X104.623 Y160.526
G1 X103.684 Y161.457 E55.4696
G1 X103.684 Y160.898
G1 X104.623 Y159.966 E55.5136
G1 X104.623 Y159.406
G1 X103.684 Y160.338 E55.5576
G1 X103.684 Y159.778
G1 X104.623 Y158.846 E55.6015
G1 X104.623 Y158.287
G1 X103.684 Y159.219 E55.6455
G1 X103.684 Y158.659
G1 X104.623 Y157.727 E55.6895
G1 X104.623 Y157.167
G1 X103.684 Y158.099 E55.7335
G1 X103.684 Y157.539
G1 X104.623 Y156.608 E55.7775
G1 X104.623 Y156.048
G1 X103.684 Y156.980 E55.8215
G1 X103.684 Y156.420
G1 X104.623 Y155.488 E55.8654
G1 X104.623 Y154.928
G1 X103.684 Y155.860 E55.9094
G1 X103.684 Y155.301
G1 X104.623 Y154.369 E55.9534
G1 X104.623 Y153.809
G1 X103.684 Y154.741 E55.9974
G1 X103.684 Y154.181
G1 X104.623 Y153.249 E56.0414
G1 X104.623 Y152.690
G1 X103.684 Y153.621 E56.0854
G1 X103.684 Y153.062
G1 X104.623 Y152.130 E56.1293
G1 X104.623 Y151.570
G1 X103.684 Y152.502 E56.1733
G1 X103.684 Y151.942
G1 X104.623 Y151.010 E56.2173
G1 X104.623 Y150.451
G1 X103.684 Y151.383 E56.2613
G1 X103.684 Y150.823
G1 X104.623 Y149.891 E56.3053
G1 X104.623 Y149.331
G1 X103.684 Y150.263 E56.3493
G1 X103.684 Y149.703
G1 X104.623 Y148.772 E56.3932
G1 X104.623 Y148.212
G1 X103.684 Y149.144 E56.4372
G1 X103.684 Y148.584
G1 X104.623 Y147.652 E56.4812
G1 X104.623 Y147.092
G1 X103.684 Y148.024 E56.5252
G1 X103.684 Y147.465
G1 X104.623 Y146.533 E56.5692
G1 X104.623 Y145.973
G1 X103.684 Y146.905 E56.6132
G1 X103.684 Y146.345
G1 X104.623 Y145.413 E56.6571
G1 X104.623 Y144.854
G1 X103.684 Y145.785 E56.7011
G1 X103.684 Y145.226
G1 X104.623 Y144.294 E56.7451
G1 X104.623 Y143.734
G1 X103.684 Y144.666 E56.7891
G1 X103.684 Y144.106
G1 X104.623 Y143.174 E56.8331
G1 X104.623 Y142.615
G1 X103.684 Y143.547 E56.8771
G1 X103.684 Y142.987
G1 X104.623 Y142.055 E56.9210
G1 X104.623 Y141.495
G1 X103.684 Y142.427 E56.9650
G1 X103.684 Y141.867
G1 X104.623 Y140.936 E57.0090
G1 X104.623 Y140.376
G1 X103.684 Y141.308 E57.0530
G1 X103.684 Y140.748
G1 X104.623 Y139.816 E57.0970
G1 X104.623 Y139.256
G1 X103.684 Y140.188 E57.1410
G1 X103.684 Y139.629
G1 X104.623 Y138.697 E57.1849
G1 X104.623 Y138.137
G1 X103.684 Y139.069 E57.2289
G1 X103.684 Y138.509
G1 X104.623 Y137.577 E57.2729
G1 X104.623 Y137.018
G1 X103.684 Y137.949 E57.3169
G1 X103.684 Y137.390
G1 X104.623 Y136.458 E57.3609
G1 X104.623 Y135.898
G1 X103.684 Y136.830 E57.4049
G1 X103.684 Y136.270
G1 X104.623 Y135.338 E57.4488
G1 X104.623 Y134.779
G1 X103.684 Y135.711 E57.4928
G0 X103.225 Y134.713 F10800
G0 X101.203 Y134.257
G1 X104.623 Y130.861 E57.6531 F3600
G1 X104.623 Y130.301
G1 X100.639 Y134.257 E57.8399
G1 X100.075 Y134.257
G1 X104.623 Y129.741 E58.0530
G1 X104.623 Y129.182
G1 X101.532 Y132.251 E58.1979
G1 X101.697 Y131.527
G1 X104.623 Y128.622 E58.3350
G1 X104.623 Y128.062
G1 X101.769 Y130.896 E58.4688
G1 X101.665 Y130.439
G1 X104.623 Y127.503 E58.6074
G1 X104.623 Y126.943
G1 X101.561 Y129.983 E58.7509
G1 X101.373 Y129.610
G1 X104.623 Y126.383 E58.9032
G1 X104.623 Y125.823
G1 X101.124 Y129.297 E59.0672
G1 X100.875 Y128.985
G1 X104.623 Y125.264 E59.2428
G1 X104.623 Y124.704
G1 X100.583 Y128.716 E59.4322
G1 X100.203 Y128.533
G1 X104.623 Y124.144 E59.6393
G1 X104.623 Y123.585
G1 X99.824 Y128.350 E59.8642
G1 X99.400 Y128.211
G1 X104.623 Y123.025 E60.1091
G1 X104.623 Y122.465
G1 X98.836 Y128.211 E60.3803
G1 X98.273 Y128.211
G1 X104.623 Y121.905 E60.6779
G1 X104.623 Y121.346
G1 X97.213 Y128.704 E61.0252
G1 X96.770 Y129.144
G1 X95.688 Y130.218 E61.0760
G1 X95.688 Y129.659
G1 X104.623 Y120.786 E61.4948
G1 X104.623 Y120.226
G1 X95.688 Y129.099 E61.9136
G1 X95.688 Y128.539
G1 X104.623 Y119.667 E62.3324
G1 X104.623 Y119.107
G1 X95.688 Y127.979 E62.7512
G1 X95.688 Y127.420
G1 X104.623 Y118.547 E63.1700
G1 X104.623 Y117.987
G1 X95.688 Y126.860 E63.5888
G1 X95.688 Y126.300
G1 X104.623 Y117.428 E64.0076
G1 X104.623 Y116.868
G1 X95.688 Y125.741 E64.4264
G1 X95.688 Y125.181
G1 X104.623 Y116.308 E64.8452
G1 X104.623 Y115.749
G1 X95.688 Y124.621 E65.2640
G1 X95.688 Y124.061
G1 X104.623 Y115.189 E65.6828
G1 X104.623 Y114.629
G1 X95.688 Y123.502 E66.1016
G1 X95.688 Y122.942
G1 X104.623 Y114.069 E66.5204
G1 X104.623 Y113.510
G1 X95.688 Y122.382 E66.9392
G1 X95.688 Y121.823
G1 X104.623 Y112.950 E67.3580
G1 X104.623 Y112.390
G1 X95.688 Y121.263 E67.7768
G1 X95.688 Y120.703
G1 X104.623 Y111.831 E68.1956
G1 X104.623 Y111.271
G1 X95.688 Y120.143 E68.6144
G1 X95.688 Y119.584
G1 X104.623 Y110.711 E69.0332
G1 X104.623 Y110.151
G1 X95.688 Y119.024 E69.4520
G1 X95.688 Y118.464
G1 X104.623 Y109.592 E69.8708
G1 X104.623 Y109.032
G1 X95.688 Y117.905 E70.2896
G1 X95.688 Y117.345
G1 X104.623 Y108.472 E70.7084
G1 X104.623 Y107.913
G1 X95.688 Y116.785 E71.1272
G1 X95.688 Y116.225
G1 X104.623 Y107.353 E71.5460
G1 X104.623 Y106.793
G1 X95.688 Y115.666 E71.9648
G1 X95.688 Y115.106
G1 X104.623 Y106.233 E72.3836
G1 X104.623 Y105.674
G1 X95.688 Y114.546 E72.8024
G1 X95.688 Y113.987
G1 X104.623 Y105.114 E73.2212
G1 X104.623 Y104.554
G1 X95.688 Y113.427 E73.6400
G1 X95.688 Y112.867
G1 X104.623 Y103.995 E74.0588
G1 X104.623 Y103.435
G1 X95.688 Y112.307 E74.4776
G1 X95.688 Y111.748
G1 X104.623 Y102.875 E74.8964
G1 X104.623 Y102.315
G1 X95.688 Y111.188 E75.3152
G1 X95.688 Y110.628
G1 X104.623 Y101.756 E75.7340
G1 X104.623 Y101.196
G1 X95.688 Y110.069 E76.1528
G1 X95.688 Y109.509
G1 X104.623 Y100.636 E76.5716
G1 X104.623 Y100.077
G1 X95.688 Y108.949 E76.9904
G1 X95.688 Y108.389
G1 X104.623 Y99.517 E77.4092
G1 X104.623 Y98.957
G1 X95.688 Y107.830 E77.8280
G1 X95.688 Y107.270
G1 X104.623 Y98.397 E78.2468
G1 X104.623 Y97.838
G1 X95.688 Y106.710 E78.6656
G1 X95.688 Y106.151
G1 X104.623 Y97.278 E79.0844
G1 X104.623 Y96.718
G1 X95.688 Y105.591 E79.5032
G1 X95.688 Y105.031
G1 X104.623 Y96.159 E79.9220
G1 X104.623 Y95.599
G1 X95.688 Y104.471 E80.3408
G1 X95.688 Y103.912
G1 X104.623 Y95.039 E80.7596
G1 X104.623 Y94.479
G1 X95.688 Y103.352 E81.1784
G1 X95.688 Y102.792
G1 X104.623 Y93.920 E81.5972
G1 X104.623 Y93.360
G1 X95.688 Y102.233 E82.0160
G1 X95.688 Y101.673
G1 X104.623 Y92.800 E82.4348
G1 X104.623 Y92.241
G1 X95.688 Y101.113 E82.8536
G1 X95.688 Y100.554
G1 X104.623 Y91.681 E83.2724
G1 X104.623 Y91.121
G1 X95.688 Y99.994 E83.6912
G1 X95.688 Y99.434
G1 X104.623 Y90.561 E84.1100
G1 X104.623 Y90.002
G1 X95.688 Y98.874 E84.5288
G1 X95.688 Y98.315
G1 X104.623 Y89.442 E84.9476
G1 X104.623 Y88.882
G1 X95.688 Y97.755 E85.3664
G1 X95.688 Y97.195
G1 X104.623 Y88.323 E85.7852
G1 X104.623 Y87.763
G1 X95.688 Y96.636 E86.2040
G1 X95.688 Y96.076
G1 X104.623 Y87.203 E86.6228
G1 X104.623 Y86.643
G1 X95.688 Y95.516 E87.0416
G1 X95.688 Y94.956
G1 X104.623 Y86.084 E87.4604
G1 X104.623 Y85.524
G1 X95.688 Y94.397 E87.8792
G1 X95.688 Y93.837
G1 X104.623 Y84.964 E88.2980
G1 X104.623 Y84.405
G1 X95.688 Y93.277 E88.7168
G1 X95.688 Y92.718
G1 X104.623 Y83.845 E89.1356
G1 X104.623 Y83.285
G1 X95.688 Y92.158 E89.5544
G1 X95.688 Y91.598
G1 X104.623 Y82.725 E89.9732
G1 X104.623 Y82.166
G1 X95.688 Y91.038 E90.3920
G1 X95.688 Y90.479
G1 X104.623 Y81.606 E90.8108
G1 X104.623 Y81.046
G1 X95.688 Y89.919 E91.2296
G1 X95.688 Y89.359
G1 X104.623 Y80.487 E91.6484
G1 X104.623 Y79.927
G1 X95.688 Y88.800 E92.0672
G1 X95.688 Y88.240
G1 X104.623 Y79.367 E92.4860
G1 X104.623 Y78.807
G1 X95.688 Y87.680 E92.9048
G1 X95.688 Y87.120
G1 X104.623 Y78.248 E93.3236
G1 X104.623 Y77.688
G1 X95.688 Y86.561 E93.7424
G1 X95.688 Y86.001
G1 X104.623 Y77.128 E94.1612
G1 X104.623 Y76.569
G1 X95.688 Y85.441 E94.5800
G1 X95.688 Y84.882
G1 X104.623 Y76.009 E94.9988
G1 X104.623 Y75.449
G1 X95.688 Y84.322 E95.4176
G1 X95.688 Y83.762
G1 X104.623 Y74.889 E95.8364
G0 X104.623 Y73.770 F10800
G1 X101.421 Y76.949 E95.9864 F3600
G0 X99.389 Y78.408 F10800
G1 X95.688 Y82.083 E96.1599 F3600
G1 X95.688 Y81.523
G1 X98.825 Y78.408 E96.3070
G1 X98.262 Y78.408
G1 X95.688 Y80.964 E96.4276
G1 X95.688 Y80.404
G1 X97.874 Y78.233 E96.5301
G1 X97.494 Y78.050
G1 X95.688 Y79.844 E96.6147
G1 X95.688 Y79.284
G1 X97.115 Y77.867 E96.6816
G1 X96.848 Y77.573
G1 X95.688 Y78.725 E96.7360
G1 X95.688 Y78.165
G1 X96.599 Y77.260 E96.7787
G1 X96.350 Y76.948
G1 X95.688 Y77.605 E96.8097
G1 X95.688 Y77.046
G1 X96.190 Y76.547 E96.8332
G1 X96.086 Y76.090
G1 X95.688 Y76.486 E96.8519
G1 X95.688 Y75.926
G1 X95.982 Y75.634 E96.8657
G1 X96.107 Y74.950
G1 X95.737 Y75.318 E96.8830
G1 X95.842 Y74.654
G1 X96.482 Y74.018 E96.9130
G0 X97.359 Y73.147 F10800
G1 X97.998 Y72.512 E96.9430 F3600
G1 X98.348 Y72.725
G1 X98.669 Y72.406 E96.9580
G1 X99.277 Y72.362
G1 X98.912 Y72.725 E96.9752
G1 X99.475 Y72.725
G1 X99.841 Y72.362 E96.9923
G1 X100.404 Y72.362
G1 X99.875 Y72.888 E97.0171
G1 X100.254 Y73.071
G1 X100.968 Y72.362 E97.0506
G1 X101.532 Y72.362
G1 X100.634 Y73.254 E97.0927
G1 X100.908 Y73.540
G1 X102.095 Y72.362 E97.1483
G1 X102.659 Y72.362
G1 X101.158 Y73.853 E97.2187
G1 X101.407 Y74.165
G1 X103.223 Y72.362 E97.3038
G1 X103.786 Y72.362
G1 X101.575 Y74.557 E97.4074
G1 X101.679 Y75.014
G1 X104.350 Y72.362 E97.5326
G1 X104.913 Y72.362
G1 X101.783 Y75.470 E97.6793
G1 X101.675 Y76.138
G1 X105.477 Y72.362 E97.8576
G1 X106.041 Y72.362
G1 X105.084 Y73.312 E97.9024
G1 X105.647 Y73.312
G1 X106.604 Y72.362 E97.9473
G1 X107.168 Y72.362
G1 X106.211 Y73.312 E97.9921
G1 X106.775 Y73.312
G1 X107.731 Y72.362 E98.0369
G1 X108.295 Y72.362
G1 X107.338 Y73.312 E98.0818
G1 X107.902 Y73.312
G1 X108.859 Y72.362 E98.1266
G1 X109.422 Y72.362
G1 X108.466 Y73.312 E98.1715
G1 X109.029 Y73.312
G1 X109.986 Y72.362 E98.2163
G1 X110.550 Y72.362
G1 X109.593 Y73.312 E98.2612
G1 X110.156 Y73.312
G1 X111.113 Y72.362 E98.3060
G1 X111.677 Y72.362
G1 X110.720 Y73.312 E98.3509
G1 X111.284 Y73.312
G1 X112.240 Y72.362 E98.3957
G1 X112.804 Y72.362
G1 X111.847 Y73.312 E98.4406
G1 X112.411 Y73.312
G1 X113.368 Y72.362 E98.4854
G1 X113.931 Y72.362
G1 X112.974 Y73.312 E98.5302
G1 X113.538 Y73.312
G1 X114.495 Y72.362 E98.5751
G1 X115.058 Y72.362
G1 X114.102 Y73.312 E98.6199
G1 X114.665 Y73.312
G1 X115.622 Y72.362 E98.6648
G1 X116.186 Y72.362
G1 X115.229 Y73.312 E98.7096
G1 X115.793 Y73.312
G1 X116.749 Y72.362 E98.7545
G1 X117.313 Y72.362
G1 X116.356 Y73.312 E98.7993
G1 X116.920 Y73.312
G1 X117.877 Y72.362 E98.8442
G1 X118.440 Y72.362
G1 X117.483 Y73.312 E98.8890
G1 X118.047 Y73.312
G1 X119.004 Y72.362 E98.9339
G1 X119.567 Y72.362
G1 X118.611 Y73.312 E98.9787
G1 X119.174 Y73.312
G1 X120.131 Y72.362 E99.0235
G1 X120.695 Y72.362
G1 X119.738 Y73.312 E99.0684
G1 X120.301 Y73.312
G1 X121.258 Y72.362 E99.1132
G1 X121.822 Y72.362
G1 X120.865 Y73.312 E99.1581
G1 X121.429 Y73.312
G1 X122.385 Y72.362 E99.2029
G1 X122.949 Y72.362
G1 X121.992 Y73.312 E99.2478
G1 X122.556 Y73.312
G1 X123.513 Y72.362 E99.2926
G1 X124.076 Y72.362
G1 X123.120 Y73.312 E99.3375
G1 X123.683 Y73.312
G1 X124.640 Y72.362 E99.3823
G1 X125.204 Y72.362
G1 X124.247 Y73.312 E99.4272
G1 X124.810 Y73.312
G1 X125.767 Y72.362 E99.4720
G1 X126.331 Y72.362
G1 X125.374 Y73.312 E99.5168
G1 X125.938 Y73.312
G1 X126.894 Y72.362 E99.5617
G1 X127.458 Y72.362
G1 X126.501 Y73.312 E99.6065
G1 X127.065 Y73.312
G1 X128.022 Y72.362 E99.6514
G1 X128.585 Y72.362
G1 X127.628 Y73.312 E99.6962
G1 X128.192 Y73.312
G1 X129.149 Y72.362 E99.7411
G1 X129.712 Y72.362
G1 X128.756 Y73.312 E99.7859
G1 X129.319 Y73.312
G1 X130.276 Y72.362 E99.8308
G1 X130.840 Y72.362
G1 X129.883 Y73.312 E99.8756
G1 X130.447 Y73.312
G1 X131.403 Y72.362 E99.9205
G1 X131.967 Y72.362
G1 X131.010 Y73.312 E99.9653
G1 X131.574 Y73.312
G1 X132.531 Y72.362 E100.0102
G1 X133.094 Y72.362
G1 X132.137 Y73.312 E100.0550
G1 X132.701 Y73.312
G1 X133.658 Y72.362 E100.0998
G1 X134.221 Y72.362
G1 X133.265 Y73.312 E100.1447
G1 X133.828 Y73.312
G1 X134.785 Y72.362 E100.1895
G1 X135.349 Y72.362
G1 X134.392 Y73.312 E100.2344
G1 X134.956 Y73.312
G1 X135.912 Y72.362 E100.2792
G1 X136.476 Y72.362
G1 X135.519 Y73.312 E100.3241
G1 X136.083 Y73.312
G1 X137.039 Y72.362 E100.3689
G1 X137.603 Y72.362
G1 X136.646 Y73.312 E100.4138
G1 X137.210 Y73.312
G1 X138.167 Y72.362 E100.4586
G1 X138.730 Y72.362
G1 X137.774 Y73.312 E100.5035
G1 X138.337 Y73.312
G1 X139.294 Y72.362 E100.5483
G1 X139.858 Y72.362
G1 X138.901 Y73.312 E100.5931
G1 X139.464 Y73.312
G1 X140.421 Y72.362 E100.6380
G1 X140.985 Y72.362
G1 X140.028 Y73.312 E100.6828
G1 X140.592 Y73.312
G1 X141.548 Y72.362 E100.7277
G1 X142.112 Y72.362
G1 X141.155 Y73.312 E100.7725
G1 X141.719 Y73.312
G1 X142.676 Y72.362 E100.8174
G1 X143.239 Y72.362
G1 X142.283 Y73.312 E100.8622
G1 X142.846 Y73.312
G1 X143.803 Y72.362 E100.9071
G1 X144.366 Y72.362
G1 X143.410 Y73.312 E100.9519
G1 X143.973 Y73.312
G1 X144.930 Y72.362 E100.9968
G1 X145.494 Y72.362
G1 X144.537 Y73.312 E101.0416
G1 X145.101 Y73.312
G1 X146.057 Y72.362 E101.0864
G1 X146.621 Y72.362
G1 X145.664 Y73.312 E101.1313
G1 X146.228 Y73.312
G1 X147.185 Y72.362 E101.1761
G1 X147.748 Y72.362
G1 X146.791 Y73.312 E101.2210
G1 X147.355 Y73.312
G1 X148.312 Y72.362 E101.2658
G1 X148.875 Y72.362
G1 X147.919 Y73.312 E101.3107
G1 X148.482 Y73.312
G1 X149.439 Y72.362 E101.3555
G1 X150.003 Y72.362
G1 X149.046 Y73.312 E101.4004
G1 X149.610 Y73.312
G1 X150.566 Y72.362 E101.4452
G1 X151.130 Y72.362
G1 X150.173 Y73.312 E101.4901
G1 X150.737 Y73.312
G1 X151.693 Y72.362 E101.5349
G1 X152.257 Y72.362
G1 X151.300 Y73.312 E101.5797
G1 X151.864 Y73.312
G1 X152.821 Y72.362 E101.6246
G1 X153.384 Y72.362
G1 X152.428 Y73.312 E101.6694
G1 X152.991 Y73.312
G1 X153.948 Y72.362 E101.7143
G1 X154.512 Y72.362
G1 X153.555 Y73.312 E101.7591
G1 X154.118 Y73.312
G1 X155.075 Y72.362 E101.8040
G1 X155.639 Y72.362
G1 X154.682 Y73.312 E101.8488
G1 X155.246 Y73.312
G1 X156.202 Y72.362 E101.8937
G1 X156.766 Y72.362
G1 X155.809 Y73.312 E101.9385
G1 X156.373 Y73.312
G1 X157.330 Y72.362 E101.9834
G1 X157.893 Y72.362
G1 X156.937 Y73.312 E102.0282
G1 X157.500 Y73.312
G1 X158.457 Y72.362 E102.0730
G1 X159.020 Y72.362
G1 X158.064 Y73.312 E102.1179
G1 X158.627 Y73.312
G1 X159.584 Y72.362 E102.1627
G1 X160.148 Y72.362
G1 X159.191 Y73.312 E102.2076
G1 X159.755 Y73.312
G1 X160.711 Y72.362 E102.2524
G1 X161.275 Y72.362
G1 X160.318 Y73.312 E102.2973
G1 X160.882 Y73.312
G1 X161.839 Y72.362 E102.3421
G1 X162.402 Y72.362
G1 X161.445 Y73.312 E102.3870
G0 F4800 E101.3870
G0 X161.419 Y75.946 F10800
G0 X160.600 Y157.600
G0 F4800 E102.3870
;segType:Support
G1 X106.023 Y157.600 E103.9299 F5400
G1 X106.023 Y155.800 E103.9808
G1 X160.600 Y155.800 E105.5238
G0 F4800 E104.5238
G0 X160.600 Y78.400 F10800
G0 F4800 E105.5238
G1 X106.023 Y78.400 E107.0667 F5400
G1 X106.023 Y76.600 E107.1176
G1 X160.600 Y76.600 E108.6606
; ------------------------------------
; Layer #3
; ------------------------------------
G21 ; mm
G90 ; abs
G92 E0 ; reset extr
M106 S255
;segType:Support
G0 F4800 E-1.0000
G0 F300 Z0.800
G0 X160.600 Y76.600 F10800
G0 F4800 E0.0000
G1 X106.023 Y76.600 E1.5430 F5400
G0 F4800 E0.5430
G0 X105.656 Y81.860 F10800
G0 X105.473 Y84.489
G0 X105.106 Y89.749
G0 X104.922 Y92.379
G0 X101.988 Y134.456
G0 F4800 E1.5430
