; GCode generated by CraftWare

G28 X0 Y0
G28 Z0

M190 S70 ;set bed temp (wait)
M109 S220 ;set head temp (wait)
; ------------------------------------
; Layer #0
; ------------------------------------
G21 ; mm
G90 ; abs
G92 E0 ; reset extr
M106 S0
;segType:Skirt
G0 F4800 E-1.0000
G0 F300 Z0.200
G0 X96.953 Y146.176 F10800
G0 F4800 E0.0000
G1 X97.404 Y146.242 E0.0152 F600
G1 X98.434 Y146.242 E0.0494
G1 X98.886 Y146.308 E0.0646
G1 X100.947 Y148.433 E0.1631
G1 X101.140 Y148.632 E0.1723
G1 X101.720 Y148.964 E0.1945
G1 X102.107 Y149.097 E0.2081
G1 X102.557 Y149.163 E0.2233
G1 X157.703 Y149.163 E2.0574
G1 X157.832 Y149.030 E2.0636
G1 X158.090 Y149.030 E2.0721
G1 X158.734 Y148.632 E2.0973
G1 X161.053 Y146.242 E2.2081
G1 X162.857 Y146.242 E2.2681
G1 X165.692 Y143.320 E2.4035
G1 X165.756 Y142.856 E2.4191
G1 X165.756 Y60.001 E5.1748
G1 X162.921 Y57.080 E5.3102
G1 X162.471 Y57.013 E5.3254
G1 X161.182 Y57.013 E5.3682
G1 X159.121 Y54.889 E5.4667
G1 X158.798 Y54.690 E5.4793
G1 X158.541 Y54.424 E5.4916
G1 X158.154 Y54.291 E5.5052
G1 X157.832 Y54.092 E5.5178
G1 X156.930 Y53.960 E5.5481
G1 X102.557 Y53.960 E7.3566
G1 X102.429 Y54.092 E7.3627
G1 X101.978 Y54.158 E7.3779
G1 X101.591 Y54.291 E7.3915
G1 X101.269 Y54.491 E7.4041
G1 X101.011 Y54.756 E7.4164
G1 X100.689 Y54.955 E7.4290
G1 X98.886 Y56.814 E7.5151
G1 X98.563 Y57.013 E7.5277
G1 X97.017 Y57.013 E7.5791
G1 X94.183 Y59.935 E7.7145
G1 X94.118 Y60.399 E7.7301
G1 X94.118 Y143.254 E10.4859
G1 X94.553 Y143.702 E10.5066
;segType:Support
G0 F4800 E9.5066
G0 X104.800 Y121.600 F10800
G0 F4800 E10.5066
G1 X106.600 Y121.600 E10.5575 F900
G0 F4800 E9.5575
G0 X152.185 Y119.800 F10800
G0 F4800 E10.5575
G1 X156.795 Y119.800 E10.6878 F900
G1 X156.565 Y121.600 E10.7391
G1 X152.413 Y121.600 E10.8565
G0 F4800 E9.8565
G0 X153.461 Y124.069 F10800
G0 X160.795 Y141.352
G0 F4800 E10.8565
;segType:HShell
G1 X161.186 Y140.949 E10.8752 F600
G1 X161.186 Y140.385
G1 X160.248 Y141.352 E10.9200
G1 X159.700 Y141.352
G1 X161.186 Y139.821 E10.9910
G1 X161.186 Y139.257
G1 X159.153 Y141.352 E11.0880
G0 X158.803 Y141.771 F10800
G0 X158.234 Y142.990
;segType:Loop
G1 X158.131 Y143.242 E11.0971 F600
G1 X157.942 Y143.554 E11.1092
G1 X157.824 Y143.707 E11.1157
G1 X157.550 Y143.980 E11.1285
G1 X157.249 Y144.200 E11.1409
G1 X156.910 Y144.372 E11.1536
G1 X156.561 Y144.486 E11.1658
G1 X156.180 Y144.548 E11.1786
G1 X155.975 Y144.557 E11.1855
G1 X104.038 Y144.557 E12.9129
G1 X103.637 Y144.525 E12.9263
G1 X103.276 Y144.439 E12.9386
G1 X102.928 Y144.296 E12.9511
G1 X102.613 Y144.106 E12.9634
G1 X102.459 Y143.987 E12.9698
G1 X102.185 Y143.713 E12.9827
G1 X101.967 Y143.414 E12.9950
G1 X101.795 Y143.074 E13.0077
G1 X101.717 Y142.849 E13.0156
G1 X101.627 Y142.379 E13.0315
G1 X101.587 Y141.645 E13.0560
G1 X100.746 Y141.558 E13.0841
G1 X98.617 Y141.558 E13.1549
G1 X98.617 Y61.564 E15.8155
G1 X101.568 Y61.564 E15.9136
G1 X101.648 Y60.577 E15.9466
G1 X101.731 Y60.225 E15.9586
G1 X101.873 Y59.881 E15.9710
G1 X102.061 Y59.568 E15.9831
G1 X102.179 Y59.416 E15.9895
G1 X102.453 Y59.142 E16.0024
G1 X102.754 Y58.923 E16.0148
G1 X103.093 Y58.750 E16.0275
G1 X103.442 Y58.636 E16.0397
G1 X103.824 Y58.575 E16.0525
G1 X104.028 Y58.565 E16.0593
G1 X155.965 Y58.565 E17.7868
G1 X156.366 Y58.597 E17.8002
G1 X156.728 Y58.683 E17.8125
G1 X157.075 Y58.827 E17.8250
G1 X157.390 Y59.017 E17.8373
G1 X157.544 Y59.136 E17.8437
G1 X157.818 Y59.409 E17.8566
G1 X158.036 Y59.709 E17.8689
G1 X158.208 Y60.048 E17.8816
G1 X158.286 Y60.274 E17.8895
G1 X158.376 Y60.743 E17.9054
G1 X158.416 Y61.477 E17.9299
G1 X159.257 Y61.564 E17.9580
G1 X161.386 Y61.564 E18.0288
G1 X161.386 Y141.558 E20.6894
G1 X158.435 Y141.558 E20.7875
G1 X158.356 Y142.546 E20.8205
G1 X158.356 Y142.546
;segType:Perimeter
G0 X159.078 Y141.373 F10800
G1 X158.798 Y142.030 E20.8443 F359
G1 X158.752 Y142.612 E20.8637
G1 X158.653 Y143.028 E20.8779
G1 X158.487 Y143.432 E20.8924
G1 X158.270 Y143.792 E20.9064
G1 X158.121 Y143.984 E20.9145
G1 X157.807 Y144.298 E20.9293
G1 X157.454 Y144.555 E20.9438
G1 X157.060 Y144.756 E20.9585
G1 X156.653 Y144.888 E20.9727
G1 X156.220 Y144.958 E20.9873
G1 X155.984 Y144.969 E20.9952
G1 X104.022 Y144.969 E22.7234
G1 X103.576 Y144.934 E22.7383
G1 X103.156 Y144.834 E22.7527
G1 X102.752 Y144.667 E22.7672
G1 X102.391 Y144.450 E22.7812
G1 X102.198 Y144.301 E22.7893
G1 X101.884 Y143.986 E22.8041
G1 X101.628 Y143.634 E22.8186
G1 X101.427 Y143.240 E22.8333
G1 X101.330 Y142.958 E22.8432
G1 X101.230 Y142.431 E22.8611
G1 X101.207 Y142.020 E22.8748
G1 X100.725 Y141.970 E22.8909
G1 X98.217 Y141.970 E22.9743
G1 X98.217 Y61.152 E25.6623
G1 X101.200 Y61.152 E25.7615
G1 X101.251 Y60.510 E25.7829
G1 X101.350 Y60.094 E25.7972
G1 X101.516 Y59.690 E25.8117
G1 X101.733 Y59.331 E25.8256
G1 X101.882 Y59.138 E25.8337
G1 X102.196 Y58.824 E25.8485
G1 X102.549 Y58.567 E25.8630
G1 X102.943 Y58.366 E25.8777
G1 X103.350 Y58.234 E25.8920
G1 X103.784 Y58.164 E25.9066
G1 X104.019 Y58.153 E25.9144
G1 X155.981 Y58.153 E27.6427
G1 X156.427 Y58.189 E27.6576
G1 X156.847 Y58.289 E27.6719
G1 X157.251 Y58.455 E27.6865
G1 X157.612 Y58.673 E27.7005
G1 X157.805 Y58.822 E27.7086
G1 X158.119 Y59.136 E27.7234
G1 X158.375 Y59.488 E27.7378
G1 X158.576 Y59.883 E27.7526
G1 X158.673 Y60.164 E27.7625
G1 X158.774 Y60.691 E27.7803
G1 X158.796 Y61.102 E27.7940
G1 X159.278 Y61.152 E27.8101
G1 X161.786 Y61.152 E27.8935
G1 X161.786 Y141.970 E30.5815
G1 X158.861 Y141.970 E30.6788
G1 X158.203 Y142.203
;segType:HShell
G0 X128.883 Y144.351 F10800
G1 X150.898 Y121.664 E31.7302 F600
;segType:Perimeter
G0 X150.871 Y121.176 F10800
G1 X151.302 Y120.612 E31.7539 F359
G1 X151.297 Y120.312 E31.7638
G1 X151.329 Y119.957 E31.7757
G1 X151.432 Y119.500 E31.7913
G1 X151.557 Y119.162 E31.8032
G1 X151.715 Y118.843 E31.8151
G1 X151.975 Y118.455 E31.8306
G1 X152.213 Y118.186 E31.8426
G1 X152.475 Y117.946 E31.8544
G1 X152.857 Y117.678 E31.8699
G1 X153.175 Y117.514 E31.8818
G1 X153.506 Y117.385 E31.8936
G1 X153.958 Y117.273 E31.9091
G1 X154.314 Y117.235 E31.9210
G1 X154.669 Y117.234 E31.9328
G1 X155.130 Y117.294 E31.9483
G1 X155.476 Y117.386 E31.9602
G1 X155.808 Y117.514 E31.9720
G1 X156.217 Y117.737 E31.9875
G1 X156.506 Y117.949 E31.9995
G1 X156.770 Y118.188 E32.0113
G1 X157.072 Y118.544 E32.0268
G1 X157.265 Y118.847 E32.0388
G1 X157.425 Y119.165 E32.0506
G1 X157.578 Y119.607 E32.0662
G1 X157.649 Y119.960 E32.0782
G1 X157.683 Y120.315 E32.0900
G1 X157.666 Y120.783 E32.1056
G1 X157.605 Y121.138 E32.1176
G1 X157.508 Y121.481 E32.1294
G1 X157.324 Y121.911 E32.1450
G1 X157.139 Y122.220 E32.1569
G1 X156.926 Y122.504 E32.1688
G1 X156.599 Y122.838 E32.1843
G1 X156.316 Y123.058 E32.1962
G1 X156.014 Y123.246 E32.2081
G1 X155.590 Y123.438 E32.2235
G1 X155.247 Y123.542 E32.2355
G1 X154.899 Y123.608 E32.2473
G1 X154.434 Y123.634 E32.2627
G1 X154.077 Y123.606 E32.2747
G1 X153.728 Y123.542 E32.2865
G1 X153.285 Y123.398 E32.3019
G1 X152.962 Y123.243 E32.3139
G1 X152.660 Y123.057 E32.3257
G1 X152.298 Y122.763 E32.3412
G1 X152.052 Y122.501 E32.3531
G1 X151.837 Y122.217 E32.3650
G1 X151.605 Y121.811 E32.3805
G1 X151.470 Y121.478 E32.3925
G1 X151.372 Y121.135 E32.4043
G1 X151.311 Y120.731 E32.4179
G1 X150.795 Y120.249
;segType:Loop
G0 X151.022 Y119.494 F10800
G1 X151.048 Y119.380 E32.4218 F600
G1 X151.191 Y118.995 E32.4355
G1 X151.370 Y118.631 E32.4490
G1 X151.661 Y118.198 E32.4663
G1 X151.931 Y117.892 E32.4799
G1 X152.229 Y117.620 E32.4933
G1 X152.654 Y117.322 E32.5106
G1 X153.015 Y117.135 E32.5241
G1 X153.388 Y116.990 E32.5374
G1 X153.890 Y116.866 E32.5546
G1 X154.293 Y116.823 E32.5681
G1 X154.693 Y116.822 E32.5814
G1 X155.206 Y116.888 E32.5986
G1 X155.597 Y116.993 E32.6121
G1 X155.972 Y117.137 E32.6254
G1 X156.427 Y117.385 E32.6426
G1 X156.755 Y117.625 E32.6562
G1 X157.054 Y117.896 E32.6696
G1 X157.391 Y118.294 E32.6869
G1 X157.611 Y118.638 E32.7005
G1 X157.793 Y119.001 E32.7140
G1 X157.964 Y119.495 E32.7314
G1 X158.046 Y119.898 E32.7451
G1 X158.084 Y120.303 E32.7586
G1 X158.065 Y120.827 E32.7760
G1 X157.995 Y121.232 E32.7897
G1 X157.885 Y121.623 E32.8032
G1 X157.679 Y122.104 E32.8206
G1 X157.469 Y122.455 E32.8342
G1 X157.226 Y122.778 E32.8477
G1 X156.862 Y123.150 E32.8650
G1 X156.540 Y123.400 E32.8785
G1 X156.199 Y123.612 E32.8919
G1 X155.728 Y123.827 E32.9091
G1 X155.340 Y123.943 E32.9226
G1 X154.946 Y124.018 E32.9359
G1 X154.430 Y124.047 E32.9531
G1 X154.027 Y124.016 E32.9666
G1 X153.633 Y123.943 E32.9799
G1 X153.140 Y123.784 E32.9971
G1 X152.775 Y123.608 E33.0106
G1 X152.432 Y123.397 E33.0240
G1 X152.029 Y123.069 E33.0413
G1 X151.750 Y122.772 E33.0548
G1 X151.505 Y122.450 E33.0683
G1 X151.247 Y121.996 E33.0857
G1 X151.093 Y121.616 E33.0993
G1 X150.981 Y121.225 E33.1128
G1 X150.903 Y120.707 E33.1303
G1 X150.897 Y120.296 E33.1439
G1 X150.934 Y119.891 E33.1575
G1 X150.979 Y119.688 E33.1644
G0 X105.077 Y123.804 F10800
G0 X98.817 Y123.456
;segType:HShell
G1 X101.723 Y120.461 E33.3031 F600
G1 X101.766 Y120.981
G1 X98.817 Y124.020 E33.4439
G1 X98.817 Y124.584
G1 X101.860 Y121.448 E33.5893
;segType:Perimeter
G0 X101.895 Y121.176 F10800
G1 X102.326 Y120.612 E33.6129 F359
G1 X102.321 Y120.312 E33.6229
G1 X102.353 Y119.957 E33.6347
G1 X102.456 Y119.500 E33.6503
G1 X102.581 Y119.162 E33.6623
G1 X102.739 Y118.843 E33.6741
G1 X102.998 Y118.455 E33.6896
G1 X103.237 Y118.186 E33.7016
G1 X103.499 Y117.946 E33.7134
G1 X103.881 Y117.678 E33.7289
G1 X104.199 Y117.514 E33.7408
G1 X104.530 Y117.385 E33.7526
G1 X104.982 Y117.273 E33.7681
G1 X105.338 Y117.235 E33.7800
G1 X105.693 Y117.234 E33.7918
G1 X106.154 Y117.294 E33.8073
G1 X106.500 Y117.386 E33.8192
G1 X106.831 Y117.514 E33.8310
G1 X107.241 Y117.737 E33.8465
G1 X107.530 Y117.949 E33.8585
G1 X107.793 Y118.188 E33.8703
G1 X108.095 Y118.544 E33.8858
G1 X108.289 Y118.847 E33.8978
G1 X108.449 Y119.165 E33.9096
G1 X108.602 Y119.607 E33.9252
G1 X108.673 Y119.960 E33.9372
G1 X108.707 Y120.315 E33.9490
G1 X108.690 Y120.783 E33.9646
G1 X108.629 Y121.138 E33.9766
G1 X108.532 Y121.481 E33.9884
G1 X108.348 Y121.911 E34.0040
G1 X108.163 Y122.220 E34.0160
G1 X107.949 Y122.504 E34.0278
G1 X107.623 Y122.838 E34.0433
G1 X107.340 Y123.058 E34.0552
G1 X107.038 Y123.246 E34.0671
G1 X106.614 Y123.438 E34.0825
G1 X106.271 Y123.542 E34.0945
G1 X105.923 Y123.608 E34.1063
G1 X105.458 Y123.634 E34.1217
G1 X105.101 Y123.606 E34.1337
G1 X104.752 Y123.542 E34.1455
G1 X104.309 Y123.398 E34.1609
G1 X103.986 Y123.243 E34.1729
G1 X103.684 Y123.057 E34.1847
G1 X103.322 Y122.763 E34.2002
G1 X103.076 Y122.501 E34.2121
G1 X102.860 Y122.217 E34.2240
G1 X102.629 Y121.811 E34.2395
G1 X102.494 Y121.478 E34.2515
G1 X102.396 Y121.135 E34.2633
G1 X102.335 Y120.731 E34.2769
G1 X101.819 Y120.249
;segType:Loop
G0 X102.046 Y119.494 F10800
G1 X102.072 Y119.379 E34.2808 F600
G1 X102.214 Y118.995 E34.2945
G1 X102.394 Y118.632 E34.3080
G1 X102.685 Y118.198 E34.3253
G1 X102.955 Y117.892 E34.3389
G1 X103.253 Y117.620 E34.3523
G1 X103.678 Y117.322 E34.3696
G1 X104.038 Y117.135 E34.3831
G1 X104.412 Y116.990 E34.3964
G1 X104.914 Y116.866 E34.4136
G1 X105.316 Y116.823 E34.4271
G1 X105.717 Y116.822 E34.4404
G1 X106.230 Y116.888 E34.4576
G1 X106.621 Y116.993 E34.4711
G1 X106.995 Y117.137 E34.4844
G1 X107.451 Y117.385 E34.5016
G1 X107.779 Y117.625 E34.5152
G1 X108.077 Y117.896 E34.5286
G1 X108.414 Y118.294 E34.5459
G1 X108.635 Y118.638 E34.5595
G1 X108.817 Y119.001 E34.5730
G1 X108.988 Y119.495 E34.5904
G1 X109.069 Y119.898 E34.6041
G1 X109.108 Y120.303 E34.6176
G1 X109.089 Y120.827 E34.6350
G1 X109.019 Y121.232 E34.6487
G1 X108.909 Y121.623 E34.6622
G1 X108.703 Y122.104 E34.6796
G1 X108.492 Y122.455 E34.6932
G1 X108.250 Y122.778 E34.7067
G1 X107.886 Y123.150 E34.7240
G1 X107.564 Y123.400 E34.7375
G1 X107.223 Y123.612 E34.7509
G1 X106.752 Y123.827 E34.7681
G1 X106.364 Y123.943 E34.7816
G1 X105.970 Y124.018 E34.7949
G1 X105.454 Y124.047 E34.8121
G1 X105.051 Y124.016 E34.8256
G1 X104.657 Y123.943 E34.8389
G1 X104.164 Y123.784 E34.8561
G1 X103.798 Y123.608 E34.8696
G1 X103.456 Y123.397 E34.8830
G1 X103.053 Y123.069 E34.9003
G1 X102.774 Y122.772 E34.9138
G1 X102.529 Y122.450 E34.9273
G1 X102.271 Y121.996 E34.9447
G1 X102.117 Y121.616 E34.9583
G1 X102.005 Y121.225 E34.9718
G1 X101.927 Y120.707 E34.9893
G1 X101.921 Y120.296 E35.0029
G1 X101.957 Y119.891 E35.0165
G1 X102.003 Y119.688 E35.0234
;segType:HShell
G0 X98.817 Y67.629 F10800
G1 X102.146 Y64.199 E35.1823 F600
G1 X101.974 Y63.812
G1 X98.817 Y67.065 E35.3331
G1 X98.817 Y66.501
G1 X101.839 Y63.388 E35.4774
;segType:Perimeter
G0 X101.895 Y63.191 F10800
G1 X102.326 Y62.626 E35.5010 F359
G1 X102.321 Y62.326 E35.5110
G1 X102.353 Y61.971 E35.5228
G1 X102.456 Y61.514 E35.5384
G1 X102.581 Y61.177 E35.5504
G1 X102.739 Y60.857 E35.5622
G1 X102.998 Y60.469 E35.5778
G1 X103.237 Y60.200 E35.5897
G1 X103.499 Y59.960 E35.6016
G1 X103.881 Y59.692 E35.6171
G1 X104.200 Y59.528 E35.6290
G1 X104.530 Y59.399 E35.6408
G1 X104.982 Y59.287 E35.6563
G1 X105.338 Y59.249 E35.6682
G1 X105.693 Y59.248 E35.6800
G1 X106.154 Y59.308 E35.6955
G1 X106.500 Y59.401 E35.7074
G1 X106.831 Y59.528 E35.7192
G1 X107.241 Y59.751 E35.7347
G1 X107.530 Y59.963 E35.7466
G1 X107.793 Y60.202 E35.7584
G1 X108.095 Y60.558 E35.7740
G1 X108.289 Y60.861 E35.7859
G1 X108.449 Y61.179 E35.7978
G1 X108.602 Y61.621 E35.8133
G1 X108.673 Y61.975 E35.8253
G1 X108.707 Y62.330 E35.8372
G1 X108.690 Y62.797 E35.8527
G1 X108.629 Y63.153 E35.8647
G1 X108.532 Y63.496 E35.8766
G1 X108.348 Y63.925 E35.8921
G1 X108.163 Y64.234 E35.9041
G1 X107.949 Y64.518 E35.9159
G1 X107.623 Y64.852 E35.9315
G1 X107.340 Y65.072 E35.9434
G1 X107.038 Y65.260 E35.9552
G1 X106.614 Y65.453 E35.9707
G1 X106.271 Y65.556 E35.9826
G1 X105.923 Y65.622 E35.9944
G1 X105.458 Y65.648 E36.0099
G1 X105.101 Y65.620 E36.0218
G1 X104.752 Y65.556 E36.0336
G1 X104.309 Y65.413 E36.0491
G1 X103.986 Y65.257 E36.0610
G1 X103.684 Y65.071 E36.0728
G1 X103.322 Y64.777 E36.0883
G1 X103.076 Y64.515 E36.1003
G1 X102.860 Y64.231 E36.1121
G1 X102.629 Y63.825 E36.1277
G1 X102.494 Y63.492 E36.1396
G1 X102.396 Y63.149 E36.1515
G1 X102.335 Y62.745 E36.1651
G1 X101.819 Y62.264
;segType:Loop
G0 X102.046 Y61.508 F10800
G1 X102.072 Y61.394 E36.1690 F600
G1 X102.214 Y61.009 E36.1826
G1 X102.394 Y60.645 E36.1961
G1 X102.685 Y60.212 E36.2135
G1 X102.955 Y59.906 E36.2270
G1 X103.253 Y59.634 E36.2405
G1 X103.678 Y59.336 E36.2577
G1 X104.039 Y59.150 E36.2712
G1 X104.412 Y59.004 E36.2846
G1 X104.914 Y58.880 E36.3018
G1 X105.317 Y58.837 E36.3152
G1 X105.717 Y58.836 E36.3285
G1 X106.230 Y58.902 E36.3457
G1 X106.621 Y59.007 E36.3592
G1 X106.995 Y59.151 E36.3725
G1 X107.451 Y59.399 E36.3898
G1 X107.779 Y59.639 E36.4033
G1 X108.077 Y59.910 E36.4167
G1 X108.414 Y60.308 E36.4341
G1 X108.635 Y60.652 E36.4477
G1 X108.817 Y61.015 E36.4612
G1 X108.988 Y61.510 E36.4786
G1 X109.069 Y61.912 E36.4922
G1 X109.108 Y62.317 E36.5058
G1 X109.089 Y62.841 E36.5232
G1 X109.019 Y63.246 E36.5369
G1 X108.909 Y63.637 E36.5504
G1 X108.703 Y64.118 E36.5678
G1 X108.492 Y64.469 E36.5814
G1 X108.250 Y64.792 E36.5948
G1 X107.886 Y65.164 E36.6121
G1 X107.564 Y65.414 E36.6257
G1 X107.223 Y65.627 E36.6391
G1 X106.752 Y65.841 E36.6563
G1 X106.364 Y65.958 E36.6698
G1 X105.970 Y66.032 E36.6831
G1 X105.454 Y66.061 E36.7003
G1 X105.050 Y66.030 E36.7137
G1 X104.657 Y65.957 E36.7270
G1 X104.164 Y65.798 E36.7443
G1 X103.798 Y65.622 E36.7578
G1 X103.456 Y65.412 E36.7711
G1 X103.053 Y65.084 E36.7884
G1 X102.774 Y64.786 E36.8020
G1 X102.529 Y64.464 E36.8154
G1 X102.271 Y64.010 E36.8328
G1 X102.117 Y63.630 E36.8465
G1 X102.005 Y63.239 E36.8600
G1 X101.927 Y62.721 E36.8774
G1 X101.921 Y62.310 E36.8911
G1 X101.957 Y61.905 E36.9046
G1 X102.003 Y61.702 E36.9115
;segType:HShell
G0 X98.817 Y117.253 F10800
G1 X150.877 Y63.603 E39.3979 F600
;segType:Perimeter
G0 X150.871 Y63.191 F10800
G1 X151.302 Y62.626 E39.4215 F359
G1 X151.297 Y62.326 E39.4315
G1 X151.329 Y61.971 E39.4434
G1 X151.432 Y61.514 E39.4589
G1 X151.557 Y61.177 E39.4709
G1 X151.715 Y60.857 E39.4827
G1 X151.975 Y60.469 E39.4983
G1 X152.213 Y60.200 E39.5102
G1 X152.475 Y59.960 E39.5220
G1 X152.857 Y59.692 E39.5376
G1 X153.176 Y59.528 E39.5495
G1 X153.506 Y59.399 E39.5613
G1 X153.958 Y59.287 E39.5768
G1 X154.314 Y59.249 E39.5887
G1 X154.669 Y59.248 E39.6005
G1 X155.130 Y59.308 E39.6160
G1 X155.476 Y59.401 E39.6279
G1 X155.808 Y59.528 E39.6397
G1 X156.217 Y59.751 E39.6552
G1 X156.506 Y59.963 E39.6671
G1 X156.770 Y60.202 E39.6789
G1 X157.072 Y60.558 E39.6945
G1 X157.265 Y60.861 E39.7064
G1 X157.425 Y61.179 E39.7183
G1 X157.578 Y61.621 E39.7338
G1 X157.649 Y61.975 E39.7458
G1 X157.683 Y62.330 E39.7577
G1 X157.666 Y62.797 E39.7732
G1 X157.605 Y63.153 E39.7852
G1 X157.508 Y63.496 E39.7971
G1 X157.324 Y63.925 E39.8126
G1 X157.139 Y64.234 E39.8246
G1 X156.926 Y64.518 E39.8364
G1 X156.599 Y64.852 E39.8520
G1 X156.316 Y65.072 E39.8639
G1 X156.014 Y65.260 E39.8757
G1 X155.590 Y65.453 E39.8912
G1 X155.247 Y65.556 E39.9031
G1 X154.899 Y65.622 E39.9149
G1 X154.434 Y65.648 E39.9304
G1 X154.077 Y65.620 E39.9423
G1 X153.728 Y65.556 E39.9541
G1 X153.285 Y65.413 E39.9696
G1 X152.962 Y65.257 E39.9815
G1 X152.660 Y65.071 E39.9933
G1 X152.298 Y64.777 E40.0088
G1 X152.052 Y64.515 E40.0208
G1 X151.837 Y64.231 E40.0326
G1 X151.605 Y63.825 E40.0482
G1 X151.470 Y63.492 E40.0601
G1 X151.372 Y63.149 E40.0720
G1 X151.311 Y62.745 E40.0856
G1 X150.795 Y62.264
;segType:Loop
G0 X151.022 Y61.508 F10800
G1 X151.048 Y61.394 E40.0895 F600
G1 X151.191 Y61.009 E40.1031
G1 X151.370 Y60.645 E40.1166
G1 X151.661 Y60.212 E40.1340
G1 X151.931 Y59.906 E40.1475
G1 X152.228 Y59.634 E40.1609
G1 X152.654 Y59.336 E40.1782
G1 X153.015 Y59.150 E40.1917
G1 X153.388 Y59.004 E40.2051
G1 X153.890 Y58.880 E40.2223
G1 X154.293 Y58.837 E40.2357
G1 X154.693 Y58.836 E40.2491
G1 X155.206 Y58.902 E40.2662
G1 X155.597 Y59.007 E40.2797
G1 X155.972 Y59.151 E40.2931
G1 X156.427 Y59.399 E40.3103
G1 X156.755 Y59.639 E40.3238
G1 X157.054 Y59.910 E40.3372
G1 X157.391 Y60.308 E40.3546
G1 X157.611 Y60.652 E40.3682
G1 X157.793 Y61.015 E40.3817
G1 X157.964 Y61.510 E40.3991
G1 X158.046 Y61.912 E40.4128
G1 X158.084 Y62.317 E40.4263
G1 X158.065 Y62.841 E40.4437
G1 X157.995 Y63.246 E40.4574
G1 X157.885 Y63.637 E40.4709
G1 X157.679 Y64.118 E40.4883
G1 X157.469 Y64.469 E40.5019
G1 X157.226 Y64.792 E40.5153
G1 X156.862 Y65.164 E40.5327
G1 X156.540 Y65.414 E40.5462
G1 X156.199 Y65.627 E40.5596
G1 X155.728 Y65.841 E40.5768
G1 X155.340 Y65.958 E40.5903
G1 X154.946 Y66.032 E40.6036
G1 X154.430 Y66.061 E40.6208
G1 X154.026 Y66.030 E40.6343
G1 X153.633 Y65.957 E40.6476
G1 X153.140 Y65.798 E40.6648
G1 X152.774 Y65.622 E40.6783
G1 X152.432 Y65.412 E40.6916
G1 X152.029 Y65.083 E40.7089
G1 X151.750 Y64.786 E40.7225
G1 X151.505 Y64.464 E40.7360
G1 X151.247 Y64.010 E40.7533
G1 X151.093 Y63.630 E40.7670
G1 X150.981 Y63.239 E40.7805
G1 X150.903 Y62.721 E40.7979
G1 X150.897 Y62.310 E40.8116
G1 X150.934 Y61.905 E40.8251
G1 X150.979 Y61.702 E40.8320
;segType:HShell
G0 X150.846 Y61.379 F10800
G1 X98.817 Y114.997 E43.3169 F600
G1 X98.817 Y115.561
G1 X150.717 Y62.076 E45.7957
G1 X150.702 Y62.656
G1 X98.817 Y116.125 E48.2738
G1 X98.817 Y116.689
G1 X150.766 Y63.154 E50.7548
G0 X152.168 Y64.925 F10800
G0 X153.215 Y65.599
G0 X155.563 Y66.105
G1 X106.438 Y116.731 E53.1011 F600
G1 X105.972 Y116.647
G1 X154.882 Y66.242 E55.4371
G1 X154.319 Y66.259
G1 X105.454 Y116.616 E57.7709
G1 X104.856 Y116.669
G1 X153.827 Y66.202 E60.1098
G1 X153.386 Y66.093
G1 X104.089 Y116.895 E62.4642
G0 X101.969 Y119.080 F10800
G1 X98.817 Y122.328 E62.6147 F600
G1 X98.817 Y121.764
G1 X152.979 Y65.948 E65.2015
G1 X152.612 Y65.762
G1 X98.817 Y121.200 E67.7708
G1 X98.817 Y120.636
G1 X152.275 Y65.546 E70.3240
G1 X151.969 Y65.297
G1 X98.817 Y120.072 E72.8625
G1 X98.817 Y119.508
G1 X151.691 Y65.020 E75.3878
G1 X151.441 Y64.714
G1 X98.817 Y118.944 E77.9011
G1 X98.817 Y118.381
G1 X151.223 Y64.375 E80.4040
G1 X151.030 Y64.010
G1 X98.817 Y117.817 E82.8977
G0 X98.817 Y122.892 F10800
G1 X101.759 Y119.860 E83.0382 F600
G0 X102.001 Y121.866 F10800
G1 X98.817 Y125.147 E83.1903 F600
G1 X98.817 Y125.711
G1 X102.181 Y122.245 E83.3509
G1 X102.387 Y122.597
G1 X98.817 Y126.275 E83.5214
G1 X98.817 Y126.839
G1 X102.628 Y122.912 E83.7034
G1 X102.897 Y123.199
G1 X98.817 Y127.403 E83.8982
G1 X98.817 Y127.967
G1 X103.200 Y123.451 E84.1075
G1 X103.525 Y123.680
G1 X98.817 Y128.531 E84.3324
G1 X98.817 Y129.095
G1 X103.882 Y123.875 E84.5742
G1 X104.274 Y124.035
G1 X98.817 Y129.659 E84.8349
G1 X98.817 Y130.223
G1 X104.700 Y124.160 E85.1158
G1 X105.178 Y124.232
G1 X98.817 Y130.787 E85.4196
G1 X98.817 Y131.350
G1 X105.719 Y124.239 E85.7492
G1 X106.346 Y124.156
G1 X98.817 Y131.914 E86.1087
G1 X98.817 Y132.478
G1 X107.185 Y123.855 E86.5084
G0 X108.951 Y122.035 F10800
G1 X161.186 Y68.205 E89.0032 F600
G1 X161.186 Y68.769
G1 X98.817 Y133.042 E91.9819
G1 X98.817 Y133.606
G1 X161.186 Y69.333 E94.9607
G1 X161.186 Y69.897
G1 X98.817 Y134.170 E97.9394
G1 X98.817 Y134.734
G1 X161.186 Y70.460 E100.9182
G1 X161.186 Y71.024
G1 X98.817 Y135.298 E103.8970
G1 X98.817 Y135.862
G1 X161.186 Y71.588 E106.8757
G1 X161.186 Y72.152
G1 X98.817 Y136.426 E109.8545
G1 X98.817 Y136.989
G1 X161.186 Y72.716 E112.8332
G1 X161.186 Y73.280
G1 X98.817 Y137.553 E115.8120
G1 X98.817 Y138.117
G1 X161.186 Y73.844 E118.7908
G1 X161.186 Y74.408
G1 X98.817 Y138.681 E121.7695
G1 X98.817 Y139.245
G1 X161.186 Y74.972 E124.7483
G1 X161.186 Y75.536
G1 X98.817 Y139.809 E127.7270
G1 X98.817 Y140.373
G1 X161.186 Y76.099 E130.7058
G1 X161.186 Y76.663
G1 X98.817 Y140.937 E133.6846
G1 X98.962 Y141.352
G1 X161.186 Y77.227 E136.6564
G1 X161.186 Y77.791
G1 X99.509 Y141.352 E139.6021
G1 X100.057 Y141.352
G1 X161.186 Y78.355 E142.5217
G1 X161.186 Y78.919
G1 X100.604 Y141.352 E145.4152
G1 X101.115 Y141.389
G1 X161.186 Y79.483 E148.2842
G1 X161.186 Y80.047
G1 X101.612 Y141.440 E151.1295
G1 X101.797 Y141.814
G1 X161.186 Y80.611 E153.9659
G1 X161.186 Y81.175
G1 X101.826 Y142.348 E156.8010
G1 X101.918 Y142.816
G1 X161.186 Y81.739 E159.6317
G1 X161.186 Y82.302
G1 X102.088 Y143.206 E162.4543
G1 X102.310 Y143.541
G1 X161.186 Y82.866 E165.2662
G1 X161.186 Y83.430
G1 X102.583 Y143.823 E168.0652
G1 X102.916 Y144.044
G1 X161.186 Y83.994 E170.8482
G1 X161.186 Y84.558
G1 X103.289 Y144.223 E173.6133
G1 X103.737 Y144.326
G1 X161.186 Y85.122 E176.3572
G1 X161.186 Y85.686
G1 X104.260 Y144.351 E179.0760
G1 X104.807 Y144.351
G1 X161.186 Y86.250 E181.7687
G1 X161.186 Y86.814
G1 X105.354 Y144.351 E184.4353
G1 X105.901 Y144.351
G1 X161.186 Y87.378 E187.0757
G1 X161.186 Y87.941
G1 X106.448 Y144.351 E189.6900
G1 X106.996 Y144.351
G1 X161.186 Y88.505 E192.2782
G1 X161.186 Y89.069
G1 X107.543 Y144.351 E194.8402
G1 X108.090 Y144.351
G1 X161.186 Y89.633 E197.3761
G1 X161.186 Y90.197
G1 X108.637 Y144.351 E199.8859
G1 X109.184 Y144.351
G1 X161.186 Y90.761 E202.3695
G1 X161.186 Y91.325
G1 X109.732 Y144.351 E204.8270
G1 X110.279 Y144.351
G1 X161.186 Y91.889 E207.2583
G1 X161.186 Y92.453
G1 X110.826 Y144.351 E209.6635
G1 X111.373 Y144.351
G1 X161.186 Y93.017 E212.0426
G1 X161.186 Y93.581
G1 X111.920 Y144.351 E214.3956
G1 X112.468 Y144.351
G1 X161.186 Y94.144 E216.7224
G1 X161.186 Y94.708
G1 X113.015 Y144.351 E219.0231
G1 X113.562 Y144.351
G1 X161.186 Y95.272 E221.2977
G1 X161.186 Y95.836
G1 X114.109 Y144.351 E223.5461
G1 X114.656 Y144.351
G1 X161.186 Y96.400 E225.7684
G1 X161.186 Y96.964
G1 X115.204 Y144.351 E227.9645
G1 X115.751 Y144.351
G1 X161.186 Y97.528 E230.1345
G1 X161.186 Y98.092
G1 X116.298 Y144.351 E232.2784
G1 X116.845 Y144.351
G1 X161.186 Y98.656 E234.3962
G1 X161.186 Y99.220
G1 X117.392 Y144.351 E236.4878
G1 X117.939 Y144.351
G1 X161.186 Y99.783 E238.5533
G1 X161.186 Y100.347
G1 X118.487 Y144.351 E240.5926
G1 X119.034 Y144.351
G1 X161.186 Y100.911 E242.6058
G1 X161.186 Y101.475
G1 X119.581 Y144.351 E244.5929
G1 X120.128 Y144.351
G1 X161.186 Y102.039 E246.5538
G1 X161.186 Y102.603
G1 X120.675 Y144.351 E248.4886
G1 X121.223 Y144.351
G1 X161.186 Y103.167 E250.3973
G1 X161.186 Y103.731
G1 X121.770 Y144.351 E252.2798
G1 X122.317 Y144.351
G1 X161.186 Y104.295 E254.1362
G1 X161.186 Y104.859
G1 X122.864 Y144.351 E255.9665
G1 X123.411 Y144.351
G1 X161.186 Y105.423 E257.7706
G1 X161.186 Y105.986
G1 X123.959 Y144.351 E259.5487
G1 X124.506 Y144.351
G1 X161.186 Y106.550 E261.3005
G1 X161.186 Y107.114
G1 X125.053 Y144.351 E263.0263
G1 X125.600 Y144.351
G1 X161.186 Y107.678 E264.7258
G1 X161.186 Y108.242
G1 X152.539 Y117.153 E265.1388
G0 X153.469 Y116.758 F10800
G1 X161.186 Y108.806 E265.5074 F600
G1 X161.186 Y109.370
G1 X154.139 Y116.632 E265.8439
G1 X154.702 Y116.615
G1 X161.186 Y109.934 E266.1536
G1 X161.186 Y110.498
G1 X155.189 Y116.678 E266.4400
G1 X155.629 Y116.788
G1 X161.186 Y111.062 E266.7055
G1 X161.186 Y111.625
G1 X156.029 Y116.939 E266.9517
G1 X156.390 Y117.132
G1 X161.186 Y112.189 E267.1808
G1 X161.186 Y112.753
G1 X156.725 Y117.350 E267.3938
G1 X157.030 Y117.600
G1 X161.186 Y113.317 E267.5923
G1 X161.186 Y113.881
G1 X157.306 Y117.880 E267.7777
G1 X157.559 Y118.183
G1 X161.186 Y114.445 E267.9509
G1 X161.186 Y115.009
G1 X157.777 Y118.522 E268.1137
G1 X157.964 Y118.893
G1 X161.186 Y115.573 E268.2676
G1 X161.186 Y116.137
G1 X158.111 Y119.306 E268.4145
G1 X158.221 Y119.756
G1 X161.186 Y116.701 E268.5561
G1 X161.186 Y117.265
G1 X158.280 Y120.259 E268.6949
G1 X158.265 Y120.839
G1 X161.186 Y117.828 E268.8344
G1 X161.186 Y118.392
G1 X158.111 Y121.561 E268.9813
G0 X157.484 Y122.771 F10800
G1 X161.186 Y118.956 E269.1581 F600
G1 X161.186 Y119.520
G1 X137.091 Y144.351 E270.3089
G1 X137.638 Y144.351
G1 X161.186 Y120.084 E271.4335
G1 X161.186 Y120.648
G1 X138.186 Y144.351 E272.5320
G1 X138.733 Y144.351
G1 X161.186 Y121.212 E273.6044
G1 X161.186 Y121.776
G1 X139.280 Y144.351 E274.6506
G1 X139.827 Y144.351
G1 X161.186 Y122.340 E275.6707
G1 X161.186 Y122.904
G1 X140.374 Y144.351 E276.6647
G1 X140.921 Y144.351
G1 X161.186 Y123.467 E277.6326
G1 X161.186 Y124.031
G1 X141.469 Y144.351 E278.5743
G1 X142.016 Y144.351
G1 X161.186 Y124.595 E279.4898
G1 X161.186 Y125.159
G1 X142.563 Y144.351 E280.3793
G1 X143.110 Y144.351
G1 X161.186 Y125.723 E281.2426
G1 X161.186 Y126.287
G1 X143.657 Y144.351 E282.0797
G1 X144.205 Y144.351
G1 X161.186 Y126.851 E282.8908
G1 X161.186 Y127.415
G1 X144.752 Y144.351 E283.6757
G1 X145.299 Y144.351
G1 X161.186 Y127.979 E284.4344
G1 X161.186 Y128.543
G1 X145.846 Y144.351 E285.1671
G1 X146.393 Y144.351
G1 X161.186 Y129.107 E285.8736
G1 X161.186 Y129.670
G1 X146.941 Y144.351 E286.5539
G1 X147.488 Y144.351
G1 X161.186 Y130.234 E287.2082
G1 X161.186 Y130.798
G1 X148.035 Y144.351 E287.8363
G1 X148.582 Y144.351
G1 X161.186 Y131.362 E288.4382
G1 X161.186 Y131.926
G1 X149.129 Y144.351 E289.0141
G1 X149.677 Y144.351
G1 X161.186 Y132.490 E289.5637
G1 X161.186 Y133.054
G1 X150.224 Y144.351 E290.0873
G1 X150.771 Y144.351
G1 X161.186 Y133.618 E290.5847
G1 X161.186 Y134.182
G1 X151.318 Y144.351 E291.0560
G1 X151.865 Y144.351
G1 X161.186 Y134.746 E291.5012
G1 X161.186 Y135.310
G1 X152.413 Y144.351 E291.9202
G1 X152.960 Y144.351
G1 X161.186 Y135.873 E292.3131
G1 X161.186 Y136.437
G1 X153.507 Y144.351 E292.6798
G1 X154.054 Y144.351
G1 X161.186 Y137.001 E293.0204
G1 X161.186 Y137.565
G1 X154.601 Y144.351 E293.3349
G1 X155.148 Y144.351
G1 X161.186 Y138.129 E293.6233
G1 X161.186 Y138.693
G1 X158.606 Y141.352 E293.7465
G1 X158.219 Y141.751
G1 X155.696 Y144.351 E293.8670
G1 X156.268 Y144.325
G1 X158.169 Y142.366 E293.9578
G1 X157.939 Y143.167
G1 X157.073 Y144.059 E293.9992
G0 X156.878 Y123.395 F10800
G1 X136.544 Y144.351 E294.9704 F600
G1 X135.997 Y144.351
G1 X155.695 Y124.051 E295.9112
G1 X154.983 Y124.221
G1 X135.450 Y144.351 E296.8441
G1 X134.902 Y144.351
G1 X154.406 Y124.252 E297.7756
G1 X153.906 Y124.203
G1 X134.355 Y144.351 E298.7094
G1 X133.808 Y144.351
G1 X153.457 Y124.102 E299.6478
G1 X153.043 Y123.964
G1 X133.261 Y144.351 E300.5927
G1 X132.714 Y144.351
G1 X152.671 Y123.784 E301.5458
G1 X152.328 Y123.573
G1 X132.166 Y144.351 E302.5088
G1 X131.619 Y144.351
G1 X152.021 Y123.326 E303.4832
G1 X151.737 Y123.055
G1 X131.072 Y144.351 E304.4702
G1 X130.525 Y144.351
G1 X151.482 Y122.753 E305.4711
G1 X151.257 Y122.421
G1 X129.978 Y144.351 E306.4874
G1 X129.430 Y144.351
G1 X151.057 Y122.064 E307.5203
G0 X151.189 Y118.544 F10800
G1 X126.147 Y144.351 E308.7164 F600
G1 X126.695 Y144.351
G1 X150.818 Y119.490 E309.8685
G1 X150.708 Y120.168
G1 X127.242 Y144.351 E310.9893
G1 X127.789 Y144.351
G1 X150.705 Y120.735 E312.0838
G1 X150.778 Y121.223
G1 X128.336 Y144.351 E313.1556
G0 X109.231 Y121.183 F10800
G1 X161.186 Y67.641 E315.6370 F600
G1 X161.186 Y67.077
G1 X109.299 Y120.549 E318.1152
G1 X109.280 Y120.004
G1 X161.186 Y66.513 E320.5942
G1 X161.186 Y65.949
G1 X109.198 Y119.525 E323.0772
G1 X109.063 Y119.100
G1 X161.186 Y65.385 E325.5666
G1 X161.186 Y64.821
G1 X108.895 Y118.709 E328.0640
G1 X108.693 Y118.354
G1 X161.186 Y64.257 E330.5711
G1 X161.186 Y63.694
G1 X108.458 Y118.032 E333.0894
G1 X108.201 Y117.733
G1 X161.186 Y63.130 E335.6200
G1 X161.186 Y62.566
G1 X107.910 Y117.469 E338.1645
G1 X107.591 Y117.234
G1 X161.186 Y62.002 E340.7243
G1 X160.863 Y61.770
G1 X107.236 Y117.035 E343.2855
G1 X106.856 Y116.863
G1 X156.556 Y65.645 E345.6593
G0 X157.714 Y64.452 F10800
G1 X160.316 Y61.770 E345.7836 F600
G1 X159.769 Y61.770
G1 X158.149 Y63.440 E345.8609
G1 X158.268 Y62.753
G1 X159.224 Y61.768 E345.9066
G1 X158.727 Y61.717
G1 X158.272 Y62.185 E345.9283
G0 X158.197 Y61.135 F10800
G1 X158.086 Y61.249 E345.9336 F600
G1 X157.932 Y60.844
G1 X158.148 Y60.621 E345.9439
G1 X158.038 Y60.170
G1 X157.739 Y60.478 E345.9582
G1 X157.517 Y60.144
G1 X157.851 Y59.799 E345.9742
G1 X157.608 Y59.486
G1 X157.262 Y59.843 E345.9907
G1 X156.980 Y59.569
G1 X157.313 Y59.226 E346.0065
G1 X156.977 Y59.008
G1 X156.671 Y59.324 E346.0212
G1 X156.329 Y59.112
G1 X156.575 Y58.859 E346.0330
G1 X156.102 Y58.783
G1 X155.961 Y58.927 E346.0397
G0 X152.830 Y58.771 F10800
G1 X152.246 Y59.372 E346.0675 F600
G0 X151.387 Y60.258 F10800
G1 X98.817 Y114.433 E348.5783 F600
G1 X98.817 Y113.869
G1 X152.282 Y58.771 E351.1318
G1 X151.735 Y58.771
G1 X98.817 Y113.305 E353.6592
G1 X98.817 Y112.742
G1 X151.188 Y58.771 E356.1605
G1 X150.641 Y58.771
G1 X98.817 Y112.178 E358.6356
G1 X98.817 Y111.614
G1 X150.094 Y58.771 E361.0846
G1 X149.547 Y58.771
G1 X98.817 Y111.050 E363.5074
G1 X98.817 Y110.486
G1 X148.999 Y58.771 E365.9042
G1 X148.452 Y58.771
G1 X98.817 Y109.922 E368.2747
G1 X98.817 Y109.358
G1 X147.905 Y58.771 E370.6192
G1 X147.358 Y58.771
G1 X98.817 Y108.794 E372.9375
G1 X98.817 Y108.230
G1 X146.811 Y58.771 E375.2297
G1 X146.263 Y58.771
G1 X98.817 Y107.666 E377.4957
G1 X98.817 Y107.102
G1 X145.716 Y58.771 E379.7357
G1 X145.169 Y58.771
G1 X98.817 Y106.539 E381.9494
G1 X98.817 Y105.975
G1 X144.622 Y58.771 E384.1371
G1 X144.075 Y58.771
G1 X98.817 Y105.411 E386.2986
G1 X98.817 Y104.847
G1 X143.527 Y58.771 E388.4340
G1 X142.980 Y58.771
G1 X98.817 Y104.283 E390.5432
G1 X98.817 Y103.719
G1 X142.433 Y58.771 E392.6263
G1 X141.886 Y58.771
G1 X98.817 Y103.155 E394.6833
G1 X98.817 Y102.591
G1 X141.339 Y58.771 E396.7142
G1 X140.791 Y58.771
G1 X98.817 Y102.027 E398.7189
G1 X98.817 Y101.463
G1 X140.244 Y58.771 E400.6974
G1 X139.697 Y58.771
G1 X98.817 Y100.900 E402.6499
G1 X98.817 Y100.336
G1 X139.150 Y58.771 E404.5762
G1 X138.603 Y58.771
G1 X98.817 Y99.772 E406.4763
G1 X98.817 Y99.208
G1 X138.055 Y58.771 E408.3504
G1 X137.508 Y58.771
G1 X98.817 Y98.644 E410.1983
G1 X98.817 Y98.080
G1 X136.961 Y58.771 E412.0200
G1 X136.414 Y58.771
G1 X98.817 Y97.516 E413.8157
G1 X98.817 Y96.952
G1 X135.867 Y58.771 E415.5852
G1 X135.320 Y58.771
G1 X98.817 Y96.388 E417.3285
G1 X98.817 Y95.824
G1 X134.772 Y58.771 E419.0458
G1 X134.225 Y58.771
G1 X98.817 Y95.260 E420.7369
G1 X98.817 Y94.697
G1 X133.678 Y58.771 E422.4018
G1 X133.131 Y58.771
G1 X98.817 Y94.133 E424.0406
G1 X98.817 Y93.569
G1 X132.584 Y58.771 E425.6533
G1 X132.036 Y58.771
G1 X98.817 Y93.005 E427.2399
G1 X98.817 Y92.441
G1 X131.489 Y58.771 E428.8003
G1 X130.942 Y58.771
G1 X98.817 Y91.877 E430.3346
G1 X98.817 Y91.313
G1 X130.395 Y58.771 E431.8428
G1 X129.848 Y58.771
G1 X98.817 Y90.749 E433.3248
G1 X98.817 Y90.185
G1 X129.300 Y58.771 E434.7807
G1 X128.753 Y58.771
G1 X98.817 Y89.621 E436.2104
G1 X98.817 Y89.058
G1 X128.206 Y58.771 E437.6141
G1 X127.659 Y58.771
G1 X98.817 Y88.494 E438.9915
G1 X98.817 Y87.930
G1 X127.112 Y58.771 E440.3429
G1 X126.564 Y58.771
G1 X98.817 Y87.366 E441.6681
G1 X98.817 Y86.802
G1 X126.017 Y58.771 E442.9672
G1 X125.470 Y58.771
G1 X98.817 Y86.238 E444.2401
G1 X98.817 Y85.674
G1 X124.923 Y58.771 E445.4870
G1 X124.376 Y58.771
G1 X98.817 Y85.110 E446.7076
G1 X98.817 Y84.546
G1 X123.829 Y58.771 E447.9022
G1 X123.281 Y58.771
G1 X98.817 Y83.982 E449.0706
G1 X98.817 Y83.418
G1 X122.734 Y58.771 E450.2129
G1 X122.187 Y58.771
G1 X98.817 Y82.855 E451.3290
G1 X98.817 Y82.291
G1 X121.640 Y58.771 E452.4190
G1 X121.093 Y58.771
G1 X98.817 Y81.727 E453.4829
G1 X98.817 Y81.163
G1 X120.545 Y58.771 E454.5206
G1 X119.998 Y58.771
G1 X98.817 Y80.599 E455.5322
G1 X98.817 Y80.035
G1 X119.451 Y58.771 E456.5177
G1 X118.904 Y58.771
G1 X98.817 Y79.471 E457.4770
G1 X98.817 Y78.907
G1 X118.357 Y58.771 E458.4102
G1 X117.809 Y58.771
G1 X98.817 Y78.343 E459.3173
G1 X98.817 Y77.779
G1 X117.262 Y58.771 E460.1982
G1 X116.715 Y58.771
G1 X98.817 Y77.216 E461.0530
G1 X98.817 Y76.652
G1 X116.168 Y58.771 E461.8817
G1 X115.621 Y58.771
G1 X98.817 Y76.088 E462.6842
G1 X98.817 Y75.524
G1 X115.073 Y58.771 E463.4606
G1 X114.526 Y58.771
G1 X98.817 Y74.960 E464.2109
G1 X98.817 Y74.396
G1 X107.018 Y65.945 E464.6026
G0 X98.817 Y68.193 F10800
G1 X102.349 Y64.554 E464.7712 F600
G1 X102.586 Y64.873
G1 X98.817 Y68.757 E464.9512
G1 X98.817 Y69.321
G1 X102.851 Y65.164 E465.1438
G1 X103.147 Y65.423
G1 X98.817 Y69.885 E465.3506
G1 X98.817 Y70.449
G1 X103.466 Y65.658 E465.5727
G1 X103.818 Y65.859
G1 X98.817 Y71.013 E465.8115
G1 X98.817 Y71.576
G1 X104.203 Y66.026 E466.0688
G1 X104.621 Y66.160
G1 X98.817 Y72.140 E466.3459
G1 X98.817 Y72.704
G1 X105.091 Y66.239 E466.6456
G1 X105.620 Y66.258
G1 X98.817 Y73.268 E466.9704
G1 X98.817 Y73.832
G1 X106.231 Y66.192 E467.3245
G0 X103.895 Y65.433 F10800
G0 X102.701 Y64.344
G0 X101.753 Y62.912
G1 X98.817 Y65.937 E467.4647 F600
G1 X98.817 Y65.373
G1 X101.722 Y62.380 E467.6034
G1 X101.787 Y61.749
G1 X98.817 Y64.810 E467.7452
G1 X98.817 Y64.246
G1 X101.219 Y61.771 E467.8599
G1 X100.672 Y61.771
G1 X98.817 Y63.682 E467.9485
G1 X98.817 Y63.118
G1 X100.125 Y61.771 E468.0110
G1 X99.578 Y61.771
G1 X98.817 Y62.554 E468.0473
G1 X98.817 Y61.990
G1 X99.031 Y61.771 E468.0574
G0 X101.800 Y61.172 F10800
G1 X102.027 Y60.938 E468.0682 F600
G1 X101.861 Y60.545
G1 X103.524 Y58.832 E468.1476
G1 X104.130 Y58.771
G1 X103.933 Y58.974 E468.1570
G0 X106.788 Y58.851 F10800
G1 X106.866 Y58.771 E468.1607 F600
G1 X107.413 Y58.771
G1 X107.175 Y59.016 E468.1721
G1 X107.534 Y59.211
G1 X107.960 Y58.771 E468.1924
G1 X108.507 Y58.771
G1 X107.856 Y59.443 E468.2235
G1 X108.151 Y59.702
G1 X109.054 Y58.771 E468.2667
G1 X109.602 Y58.771
G1 X108.414 Y59.995 E468.3234
G1 X108.655 Y60.310
G1 X110.149 Y58.771 E468.3947
G1 X110.696 Y58.771
G1 X108.864 Y60.660 E468.4822
G1 X109.039 Y61.043
G1 X111.243 Y58.771 E468.5875
G1 X111.790 Y58.771
G1 X109.182 Y61.459 E468.7121
G1 X109.272 Y61.930
G1 X112.337 Y58.771 E468.8585
G1 X112.885 Y58.771
G1 X109.303 Y62.463 E469.0296
G1 X109.251 Y63.080
G1 X113.432 Y58.771 E469.2292
G1 X113.979 Y58.771
G1 X109.025 Y63.877 E469.4658
;segType:Support
G0 F4800 E468.4658
G0 X104.800 Y64.000 F10800
G0 F4800 E469.4658
G1 X106.600 Y64.000 E469.5167 F900
G1 X106.600 Y62.200 E469.5677
G1 X104.800 Y62.200 E469.6186
G1 X104.800 Y60.400 E469.6694
G1 X106.600 Y60.400 E469.7203
G0 F4800 E468.7203
G0 X152.697 Y64.000 F10800
G0 F4800 E469.7203
G1 X156.297 Y64.000 E469.8221 F900
G0 F4800 E468.8221
G0 X152.117 Y62.200 F10800
G0 F4800 E469.8221
G1 X156.859 Y62.200 E469.9561 F900
G0 F4800 E468.9561
G0 X106.600 Y119.800 F10800
G0 F4800 E469.9561
G1 X104.800 Y119.800 E470.0070 F900
; ------------------------------------
; Layer #1
; ------------------------------------
G21 ; mm
G90 ; abs
G92 E0 ; reset extr
M106 S255
;segType:Support
G0 F4800 E-1.0000
G0 F300 Z0.400
G0 X104.800 Y119.800 F10800
G0 F4800 E0.0000
G1 X106.600 Y119.800 E0.0509 F5400
G1 X106.600 Y121.600 E0.1018
G1 X104.800 Y121.600 E0.1527
G0 F4800 E-0.8473
G0 X152.185 Y119.800 F10800
G0 F4800 E0.1527
G1 X156.795 Y119.800 E0.2830 F5400
G1 X156.571 Y121.600 E0.3343
G1 X152.406 Y121.600 E0.4520
G0 F4800 E-0.5480
G0 X156.865 Y62.200 F10800
G0 F4800 E0.4520
G1 X152.112 Y62.200 E0.5864 F5400
G0 F4800 E-0.4136
G0 X156.294 Y64.000 F10800
G0 F4800 E0.5864
G1 X152.685 Y64.000 E0.6884 F5400
G0 F4800 E-0.3116
G0 X150.237 Y64.692 F10800
G0 X98.817 Y79.234
G0 F4800 E0.6884
;segType:HShell
G1 X159.094 Y141.352 E3.5673 F3600
;segType:Perimeter
G1 X158.798 Y142.030 E3.5910 F2159
G1 X158.752 Y142.612 E3.6105
G1 X158.655 Y143.019 E3.6244
G1 X158.491 Y143.423 E3.6389
G1 X158.288 Y143.765 E3.6521
G1 X158.121 Y143.985 E3.6613
G1 X157.807 Y144.298 E3.6760
G1 X157.454 Y144.555 E3.6905
G1 X157.060 Y144.756 E3.7053
G1 X156.660 Y144.886 E3.7192
G1 X156.236 Y144.957 E3.7335
G1 X155.984 Y144.969 E3.7419
G1 X104.022 Y144.969 E5.4702
G1 X103.576 Y144.934 E5.4851
G1 X103.164 Y144.836 E5.4992
G1 X102.761 Y144.672 E5.5136
G1 X102.418 Y144.468 E5.5269
G1 X102.198 Y144.300 E5.5361
G1 X101.884 Y143.986 E5.5509
G1 X101.628 Y143.634 E5.5653
G1 X101.428 Y143.241 E5.5800
G1 X101.306 Y142.871 E5.5930
G1 X101.235 Y142.479 E5.6062
G1 X101.203 Y141.970 E5.6232
G1 X98.217 Y141.970 E5.7225
G1 X98.217 Y61.152 E8.4105
G1 X101.200 Y61.152 E8.5097
G1 X101.251 Y60.510 E8.5311
G1 X101.348 Y60.103 E8.5450
G1 X101.512 Y59.700 E8.5595
G1 X101.715 Y59.358 E8.5728
G1 X101.882 Y59.138 E8.5820
G1 X102.196 Y58.824 E8.5967
G1 X102.549 Y58.567 E8.6112
G1 X102.943 Y58.366 E8.6259
G1 X103.343 Y58.236 E8.6399
G1 X103.767 Y58.166 E8.6542
G1 X104.019 Y58.153 E8.6626
G1 X155.981 Y58.153 E10.3909
G1 X156.427 Y58.189 E10.4058
G1 X156.839 Y58.286 E10.4198
G1 X157.242 Y58.451 E10.4343
G1 X157.585 Y58.655 E10.4476
G1 X157.805 Y58.822 E10.4568
G1 X158.119 Y59.136 E10.4716
G1 X158.375 Y59.488 E10.4860
G1 X158.575 Y59.881 E10.5007
G1 X158.697 Y60.252 E10.5137
G1 X158.768 Y60.644 E10.5269
G1 X158.800 Y61.152 E10.5439
G1 X161.786 Y61.152 E10.6432
G1 X161.786 Y141.970 E13.3312
G1 X158.861 Y141.970 E13.4285
G1 X158.203 Y142.203
;segType:Loop
G0 X158.237 Y142.982 F10800
G1 X158.134 Y143.234 E13.4375 F3600
G1 X157.959 Y143.529 E13.4489
G1 X157.823 Y143.708 E13.4564
G1 X157.551 Y143.980 E13.4692
G1 X157.249 Y144.200 E13.4816
G1 X156.910 Y144.372 E13.4943
G1 X156.568 Y144.484 E13.5063
G1 X156.194 Y144.546 E13.5188
G1 X155.974 Y144.557 E13.5262
G1 X104.038 Y144.557 E15.2536
G1 X103.636 Y144.525 E15.2670
G1 X103.283 Y144.441 E15.2790
G1 X102.936 Y144.299 E15.2915
G1 X102.638 Y144.122 E15.3031
G1 X102.457 Y143.985 E15.3106
G1 X102.185 Y143.713 E15.3234
G1 X101.967 Y143.414 E15.3357
G1 X101.797 Y143.078 E15.3482
G1 X101.694 Y142.766 E15.3592
G1 X101.633 Y142.427 E15.3706
G1 X101.577 Y141.558 E15.3996
G1 X98.617 Y141.558 E15.4980
G1 X98.617 Y61.564 E18.1586
G1 X101.568 Y61.564 E18.2568
G1 X101.648 Y60.576 E18.2897
G1 X101.729 Y60.233 E18.3015
G1 X101.869 Y59.888 E18.3138
G1 X102.044 Y59.593 E18.3253
G1 X102.180 Y59.414 E18.3327
G1 X102.453 Y59.142 E18.3455
G1 X102.754 Y58.923 E18.3579
G1 X103.093 Y58.750 E18.3706
G1 X103.436 Y58.638 E18.3826
G1 X103.809 Y58.576 E18.3952
G1 X104.029 Y58.565 E18.4025
G1 X155.965 Y58.565 E20.1299
G1 X156.367 Y58.598 E20.1433
G1 X156.720 Y58.681 E20.1554
G1 X157.067 Y58.823 E20.1678
G1 X157.366 Y59.000 E20.1794
G1 X157.546 Y59.137 E20.1869
G1 X157.818 Y59.409 E20.1997
G1 X158.036 Y59.709 E20.2120
G1 X158.206 Y60.044 E20.2246
G1 X158.309 Y60.356 E20.2355
G1 X158.370 Y60.695 E20.2469
G1 X158.426 Y61.564 E20.2759
G1 X161.386 Y61.564 E20.3744
G1 X161.386 Y141.558 E23.0349
G1 X158.435 Y141.558 E23.1331
G1 X158.356 Y142.546 E23.1661
G1 X158.356 Y142.546
;segType:HShell
G0 X98.817 Y67.392 F10800
G1 X150.725 Y120.885 E25.6452 F3600
;segType:Perimeter
G0 X150.847 Y121.095 F10800
G1 X151.300 Y120.549 E25.6688 F2159
G1 X151.303 Y120.193 E25.6806
G1 X151.363 Y119.766 E25.6950
G1 X151.452 Y119.440 E25.7062
G1 X151.605 Y119.053 E25.7201
G1 X151.815 Y118.678 E25.7344
G1 X152.015 Y118.407 E25.7456
G1 X152.297 Y118.101 E25.7594
G1 X152.627 Y117.828 E25.7737
G1 X152.912 Y117.648 E25.7848
G1 X153.284 Y117.465 E25.7986
G1 X153.690 Y117.330 E25.8129
G1 X154.020 Y117.265 E25.8240
G1 X154.433 Y117.229 E25.8378
G1 X154.860 Y117.250 E25.8521
G1 X155.191 Y117.308 E25.8632
G1 X155.589 Y117.424 E25.8770
G1 X155.981 Y117.598 E25.8913
G1 X156.268 Y117.772 E25.9025
G1 X156.598 Y118.025 E25.9163
G1 X156.901 Y118.329 E25.9306
G1 X157.107 Y118.596 E25.9418
G1 X157.324 Y118.951 E25.9556
G1 X157.496 Y119.345 E25.9699
G1 X157.593 Y119.670 E25.9812
G1 X157.677 Y120.193 E25.9988
G1 X157.685 Y120.511 E26.0094
G1 X157.657 Y120.845 E26.0205
G1 X157.578 Y121.254 E26.0344
G1 X157.441 Y121.662 E26.0487
G1 X157.294 Y121.966 E26.0599
G1 X157.072 Y122.318 E26.0738
G1 X156.797 Y122.648 E26.0881
G1 X156.551 Y122.877 E26.0993
G1 X156.218 Y123.126 E26.1131
G1 X155.843 Y123.333 E26.1273
G1 X155.531 Y123.458 E26.1385
G1 X155.131 Y123.569 E26.1523
G1 X154.707 Y123.627 E26.1665
G1 X154.372 Y123.631 E26.1777
G1 X153.959 Y123.590 E26.1915
G1 X153.543 Y123.491 E26.2057
G1 X153.228 Y123.373 E26.2169
G1 X152.858 Y123.186 E26.2307
G1 X152.505 Y122.942 E26.2450
G1 X152.254 Y122.718 E26.2562
G1 X151.976 Y122.409 E26.2700
G1 X151.734 Y122.054 E26.2843
G1 X151.580 Y121.754 E26.2955
G1 X151.432 Y121.365 E26.3093
G1 X151.334 Y120.945 E26.3237
G1 X151.306 Y120.669 E26.3329
G1 X150.803 Y120.172
;segType:Loop
G0 X151.043 Y119.415 F10800
G1 X151.073 Y119.307 E26.3366 F3600
G1 X151.244 Y118.871 E26.3522
G1 X151.481 Y118.449 E26.3683
G1 X151.710 Y118.139 E26.3811
G1 X152.026 Y117.797 E26.3966
G1 X152.397 Y117.490 E26.4126
G1 X152.720 Y117.285 E26.4254
G1 X153.136 Y117.081 E26.4408
G1 X153.591 Y116.930 E26.4567
G1 X153.965 Y116.856 E26.4694
G1 X154.425 Y116.816 E26.4848
G1 X154.904 Y116.840 E26.5007
G1 X155.279 Y116.905 E26.5134
G1 X155.723 Y117.035 E26.5288
G1 X156.162 Y117.230 E26.5447
G1 X156.490 Y117.428 E26.5574
G1 X156.858 Y117.710 E26.5729
G1 X157.198 Y118.052 E26.5889
G1 X157.434 Y118.357 E26.6017
G1 X157.677 Y118.755 E26.6173
G1 X157.871 Y119.199 E26.6334
G1 X157.983 Y119.576 E26.6465
G1 X158.076 Y120.153 E26.6659
G1 X158.085 Y120.523 E26.6782
G1 X158.054 Y120.903 E26.6909
G1 X157.965 Y121.363 E26.7065
G1 X157.810 Y121.823 E26.7226
G1 X157.642 Y122.170 E26.7355
G1 X157.393 Y122.566 E26.7510
G1 X157.084 Y122.937 E26.7671
G1 X156.803 Y123.198 E26.7798
G1 X156.431 Y123.476 E26.7953
G1 X156.010 Y123.709 E26.8113
G1 X155.656 Y123.850 E26.8240
G1 X155.210 Y123.974 E26.8393
G1 X154.736 Y124.039 E26.8553
G1 X154.355 Y124.043 E26.8679
G1 X153.895 Y123.998 E26.8833
G1 X153.429 Y123.887 E26.8992
G1 X153.071 Y123.753 E26.9119
G1 X152.658 Y123.544 E26.9273
G1 X152.262 Y123.271 E26.9434
G1 X151.975 Y123.015 E26.9561
G1 X151.664 Y122.669 E26.9716
G1 X151.392 Y122.270 E26.9877
G1 X151.216 Y121.926 E27.0005
G1 X151.050 Y121.488 E27.0161
G1 X150.939 Y121.015 E27.0322
G1 X150.900 Y120.630 E27.0451
G1 X150.903 Y120.161 E27.0607
G1 X150.971 Y119.680 E27.0769
G1 X150.991 Y119.607 E27.0794
G0 X106.627 Y117.245 F10800
G0 X104.024 Y117.168
G0 X98.817 Y117.016
;segType:HShell
G1 X101.743 Y120.031 E27.2191 F3600
G1 X101.724 Y120.575
G1 X98.817 Y117.580 E27.3579
G1 X98.817 Y118.144
G1 X101.806 Y121.224 E27.5007
;segType:Perimeter
G0 X101.871 Y121.095 F10800
G1 X102.324 Y120.549 E27.5243 F2159
G1 X102.326 Y120.193 E27.5361
G1 X102.387 Y119.766 E27.5505
G1 X102.476 Y119.440 E27.5617
G1 X102.628 Y119.053 E27.5755
G1 X102.839 Y118.678 E27.5898
G1 X103.039 Y118.407 E27.6011
G1 X103.321 Y118.101 E27.6149
G1 X103.651 Y117.828 E27.6291
G1 X103.936 Y117.648 E27.6403
G1 X104.308 Y117.465 E27.6541
G1 X104.714 Y117.330 E27.6684
G1 X105.044 Y117.265 E27.6795
G1 X105.457 Y117.229 E27.6933
G1 X105.884 Y117.250 E27.7076
G1 X106.215 Y117.308 E27.7187
G1 X106.613 Y117.424 E27.7325
G1 X107.005 Y117.598 E27.7468
G1 X107.292 Y117.772 E27.7579
G1 X107.622 Y118.025 E27.7718
G1 X107.925 Y118.329 E27.7860
G1 X108.131 Y118.596 E27.7973
G1 X108.347 Y118.951 E27.8111
G1 X108.520 Y119.345 E27.8254
G1 X108.617 Y119.670 E27.8367
G1 X108.701 Y120.193 E27.8543
G1 X108.709 Y120.511 E27.8649
G1 X108.681 Y120.845 E27.8760
G1 X108.602 Y121.254 E27.8899
G1 X108.464 Y121.662 E27.9042
G1 X108.318 Y121.966 E27.9154
G1 X108.096 Y122.318 E27.9293
G1 X107.821 Y122.648 E27.9436
G1 X107.575 Y122.877 E27.9547
G1 X107.242 Y123.126 E27.9686
G1 X106.867 Y123.333 E27.9828
G1 X106.555 Y123.458 E27.9940
G1 X106.155 Y123.569 E28.0078
G1 X105.731 Y123.627 E28.0220
G1 X105.396 Y123.631 E28.0332
G1 X104.983 Y123.590 E28.0470
G1 X104.567 Y123.491 E28.0612
G1 X104.252 Y123.373 E28.0724
G1 X103.882 Y123.186 E28.0862
G1 X103.529 Y122.942 E28.1005
G1 X103.277 Y122.718 E28.1117
G1 X102.999 Y122.409 E28.1255
G1 X102.758 Y122.054 E28.1398
G1 X102.604 Y121.754 E28.1510
G1 X102.456 Y121.365 E28.1648
G1 X102.358 Y120.945 E28.1792
G1 X102.330 Y120.669 E28.1884
G1 X101.827 Y120.172
;segType:Loop
G0 X102.067 Y119.415 F10800
G1 X102.097 Y119.307 E28.1921 F3600
G1 X102.268 Y118.871 E28.2077
G1 X102.505 Y118.449 E28.2238
G1 X102.734 Y118.139 E28.2366
G1 X103.049 Y117.797 E28.2521
G1 X103.421 Y117.490 E28.2681
G1 X103.744 Y117.285 E28.2808
G1 X104.160 Y117.081 E28.2962
G1 X104.615 Y116.930 E28.3122
G1 X104.989 Y116.856 E28.3249
G1 X105.449 Y116.816 E28.3402
G1 X105.928 Y116.840 E28.3562
G1 X106.303 Y116.905 E28.3688
G1 X106.747 Y117.035 E28.3842
G1 X107.186 Y117.230 E28.4002
G1 X107.514 Y117.428 E28.4129
G1 X107.882 Y117.710 E28.4284
G1 X108.222 Y118.052 E28.4444
G1 X108.458 Y118.357 E28.4572
G1 X108.701 Y118.755 E28.4727
G1 X108.895 Y119.199 E28.4889
G1 X109.007 Y119.576 E28.5019
G1 X109.100 Y120.153 E28.5214
G1 X109.109 Y120.523 E28.5337
G1 X109.078 Y120.903 E28.5464
G1 X108.989 Y121.363 E28.5620
G1 X108.834 Y121.823 E28.5781
G1 X108.666 Y122.170 E28.5909
G1 X108.417 Y122.566 E28.6065
G1 X108.108 Y122.937 E28.6225
G1 X107.827 Y123.198 E28.6353
G1 X107.455 Y123.476 E28.6507
G1 X107.034 Y123.709 E28.6667
G1 X106.680 Y123.850 E28.6794
G1 X106.234 Y123.974 E28.6948
G1 X105.760 Y124.039 E28.7107
G1 X105.379 Y124.043 E28.7234
G1 X104.919 Y123.998 E28.7388
G1 X104.453 Y123.887 E28.7547
G1 X104.095 Y123.753 E28.7674
G1 X103.682 Y123.544 E28.7828
G1 X103.286 Y123.271 E28.7988
G1 X102.999 Y123.015 E28.8116
G1 X102.688 Y122.669 E28.8271
G1 X102.416 Y122.270 E28.8432
G1 X102.240 Y121.926 E28.8560
G1 X102.074 Y121.488 E28.8716
G1 X101.963 Y121.015 E28.8877
G1 X101.924 Y120.630 E28.9006
G1 X101.927 Y120.161 E28.9162
G1 X101.995 Y119.680 E28.9324
G1 X102.015 Y119.607 E28.9349
;segType:HShell
G0 X102.019 Y63.925 F10800
G1 X99.929 Y61.771 E29.0347 F3600
G1 X100.476 Y61.771
G1 X101.777 Y63.111 E29.0969
;segType:Loop
G0 X102.067 Y61.429 F10800
G1 X102.097 Y61.321 E29.1006 F3600
G1 X102.268 Y60.886 E29.1162
G1 X102.505 Y60.463 E29.1323
G1 X102.734 Y60.153 E29.1451
G1 X103.049 Y59.811 E29.1606
G1 X103.421 Y59.504 E29.1766
G1 X103.744 Y59.299 E29.1893
G1 X104.160 Y59.095 E29.2047
G1 X104.615 Y58.944 E29.2207
G1 X104.989 Y58.870 E29.2334
G1 X105.449 Y58.830 E29.2487
G1 X105.928 Y58.854 E29.2647
G1 X106.303 Y58.920 E29.2773
G1 X106.747 Y59.049 E29.2927
G1 X107.186 Y59.244 E29.3087
G1 X107.513 Y59.442 E29.3214
G1 X107.882 Y59.724 E29.3368
G1 X108.222 Y60.066 E29.3529
G1 X108.458 Y60.371 E29.3657
G1 X108.701 Y60.769 E29.3812
G1 X108.895 Y61.213 E29.3973
G1 X109.007 Y61.590 E29.4104
G1 X109.100 Y62.168 E29.4299
G1 X109.109 Y62.537 E29.4422
G1 X109.078 Y62.917 E29.4549
G1 X108.989 Y63.378 E29.4705
G1 X108.834 Y63.837 E29.4866
G1 X108.666 Y64.184 E29.4994
G1 X108.417 Y64.580 E29.5149
G1 X108.108 Y64.950 E29.5310
G1 X107.827 Y65.212 E29.5438
G1 X107.455 Y65.490 E29.5592
G1 X107.034 Y65.723 E29.5752
G1 X106.680 Y65.865 E29.5879
G1 X106.234 Y65.988 E29.6033
G1 X105.760 Y66.053 E29.6192
G1 X105.379 Y66.057 E29.6319
G1 X104.919 Y66.012 E29.6473
G1 X104.453 Y65.901 E29.6632
G1 X104.095 Y65.767 E29.6759
G1 X103.682 Y65.558 E29.6913
G1 X103.286 Y65.285 E29.7073
G1 X102.999 Y65.029 E29.7201
G1 X102.688 Y64.683 E29.7356
G1 X102.416 Y64.284 E29.7516
G1 X102.240 Y63.940 E29.7645
G1 X102.074 Y63.502 E29.7801
G1 X101.963 Y63.030 E29.7962
G1 X101.924 Y62.644 E29.8091
G1 X101.927 Y62.175 E29.8247
G1 X101.995 Y61.695 E29.8408
G1 X102.015 Y61.621 E29.8434
;segType:Perimeter
G0 X101.871 Y63.109 F10800
G1 X102.324 Y62.564 E29.8669 F2159
G1 X102.326 Y62.207 E29.8788
G1 X102.387 Y61.780 E29.8931
G1 X102.476 Y61.455 E29.9044
G1 X102.628 Y61.067 E29.9182
G1 X102.839 Y60.692 E29.9325
G1 X103.039 Y60.421 E29.9437
G1 X103.321 Y60.116 E29.9575
G1 X103.651 Y59.842 E29.9718
G1 X103.936 Y59.662 E29.9830
G1 X104.308 Y59.480 E29.9968
G1 X104.714 Y59.344 E30.0110
G1 X105.044 Y59.279 E30.0222
G1 X105.457 Y59.244 E30.0360
G1 X105.884 Y59.264 E30.0502
G1 X106.215 Y59.322 E30.0614
G1 X106.613 Y59.439 E30.0752
G1 X107.005 Y59.613 E30.0894
G1 X107.292 Y59.786 E30.1006
G1 X107.622 Y60.039 E30.1144
G1 X107.925 Y60.343 E30.1287
G1 X108.131 Y60.610 E30.1399
G1 X108.347 Y60.965 E30.1538
G1 X108.520 Y61.359 E30.1681
G1 X108.617 Y61.684 E30.1794
G1 X108.701 Y62.207 E30.1970
G1 X108.709 Y62.525 E30.2075
G1 X108.681 Y62.859 E30.2187
G1 X108.602 Y63.269 E30.2326
G1 X108.464 Y63.676 E30.2469
G1 X108.318 Y63.980 E30.2581
G1 X108.096 Y64.332 E30.2719
G1 X107.821 Y64.662 E30.2862
G1 X107.575 Y64.892 E30.2974
G1 X107.242 Y65.140 E30.3112
G1 X106.867 Y65.348 E30.3255
G1 X106.555 Y65.472 E30.3367
G1 X106.156 Y65.583 E30.3504
G1 X105.731 Y65.641 E30.3647
G1 X105.396 Y65.645 E30.3759
G1 X104.983 Y65.604 E30.3896
G1 X104.567 Y65.505 E30.4039
G1 X104.252 Y65.387 E30.4151
G1 X103.882 Y65.200 E30.4289
G1 X103.529 Y64.956 E30.4431
G1 X103.277 Y64.732 E30.4543
G1 X102.999 Y64.424 E30.4681
G1 X102.758 Y64.068 E30.4824
G1 X102.604 Y63.768 E30.4937
G1 X102.456 Y63.379 E30.5075
G1 X102.358 Y62.959 E30.5218
G1 X102.330 Y62.683 E30.5311
G1 X101.827 Y62.186
G0 X103.843 Y59.487 F10800
G0 X105.017 Y59.082
G0 X106.257 Y59.128
G0 X150.840 Y63.486
;segType:HShell
G1 X146.265 Y58.771 E30.7496 F3600
G1 X146.813 Y58.771
G1 X150.714 Y62.792 E30.9359
;segType:Perimeter
G0 X150.847 Y63.109 F10800
G1 X151.300 Y62.564 E30.9595 F2159
G1 X151.303 Y62.207 E30.9713
G1 X151.363 Y61.780 E30.9856
G1 X151.452 Y61.455 E30.9969
G1 X151.605 Y61.067 E31.0107
G1 X151.815 Y60.692 E31.0250
G1 X152.015 Y60.421 E31.0362
G1 X152.297 Y60.116 E31.0501
G1 X152.627 Y59.842 E31.0643
G1 X152.912 Y59.662 E31.0755
G1 X153.284 Y59.480 E31.0893
G1 X153.690 Y59.344 E31.1036
G1 X154.020 Y59.279 E31.1147
G1 X154.433 Y59.244 E31.1285
G1 X154.860 Y59.264 E31.1428
G1 X155.191 Y59.322 E31.1539
G1 X155.589 Y59.439 E31.1677
G1 X155.981 Y59.613 E31.1820
G1 X156.268 Y59.786 E31.1931
G1 X156.598 Y60.039 E31.2070
G1 X156.901 Y60.343 E31.2212
G1 X157.107 Y60.610 E31.2324
G1 X157.324 Y60.965 E31.2463
G1 X157.496 Y61.359 E31.2606
G1 X157.593 Y61.684 E31.2719
G1 X157.677 Y62.207 E31.2895
G1 X157.685 Y62.525 E31.3001
G1 X157.657 Y62.859 E31.3112
G1 X157.578 Y63.269 E31.3251
G1 X157.441 Y63.676 E31.3394
G1 X157.294 Y63.980 E31.3506
G1 X157.072 Y64.332 E31.3645
G1 X156.797 Y64.662 E31.3787
G1 X156.551 Y64.892 E31.3899
G1 X156.218 Y65.140 E31.4038
G1 X155.843 Y65.348 E31.4180
G1 X155.531 Y65.472 E31.4292
G1 X155.131 Y65.583 E31.4430
G1 X154.707 Y65.641 E31.4572
G1 X154.372 Y65.645 E31.4684
G1 X153.959 Y65.604 E31.4822
G1 X153.543 Y65.505 E31.4964
G1 X153.228 Y65.387 E31.5076
G1 X152.858 Y65.200 E31.5214
G1 X152.505 Y64.956 E31.5356
G1 X152.254 Y64.732 E31.5468
G1 X151.976 Y64.424 E31.5607
G1 X151.734 Y64.068 E31.5750
G1 X151.580 Y63.768 E31.5862
G1 X151.432 Y63.378 E31.6000
G1 X151.334 Y62.959 E31.6143
G1 X151.306 Y62.683 E31.6236
G1 X150.803 Y62.186
;segType:Loop
G0 X151.043 Y61.429 F10800
G1 X151.073 Y61.321 E31.6273 F3600
G1 X151.244 Y60.886 E31.6429
G1 X151.481 Y60.463 E31.6590
G1 X151.710 Y60.153 E31.6718
G1 X152.026 Y59.811 E31.6873
G1 X152.397 Y59.504 E31.7033
G1 X152.720 Y59.299 E31.7160
G1 X153.136 Y59.095 E31.7314
G1 X153.591 Y58.944 E31.7474
G1 X153.965 Y58.870 E31.7601
G1 X154.425 Y58.830 E31.7754
G1 X154.904 Y58.854 E31.7914
G1 X155.279 Y58.920 E31.8040
G1 X155.723 Y59.049 E31.8194
G1 X156.162 Y59.244 E31.8354
G1 X156.489 Y59.442 E31.8481
G1 X156.858 Y59.724 E31.8636
G1 X157.198 Y60.066 E31.8796
G1 X157.434 Y60.371 E31.8924
G1 X157.677 Y60.769 E31.9080
G1 X157.871 Y61.213 E31.9241
G1 X157.983 Y61.590 E31.9371
G1 X158.076 Y62.168 E31.9566
G1 X158.085 Y62.537 E31.9689
G1 X158.054 Y62.917 E31.9816
G1 X157.965 Y63.377 E31.9972
G1 X157.810 Y63.837 E32.0133
G1 X157.642 Y64.185 E32.0261
G1 X157.393 Y64.580 E32.0417
G1 X157.084 Y64.950 E32.0577
G1 X156.803 Y65.213 E32.0705
G1 X156.431 Y65.490 E32.0859
G1 X156.010 Y65.723 E32.1019
G1 X155.656 Y65.865 E32.1146
G1 X155.210 Y65.988 E32.1300
G1 X154.736 Y66.053 E32.1459
G1 X154.355 Y66.057 E32.1586
G1 X153.895 Y66.012 E32.1740
G1 X153.429 Y65.901 E32.1899
G1 X153.071 Y65.767 E32.2026
G1 X152.658 Y65.558 E32.2180
G1 X152.262 Y65.285 E32.2340
G1 X151.975 Y65.029 E32.2468
G1 X151.664 Y64.683 E32.2623
G1 X151.392 Y64.284 E32.2783
G1 X151.215 Y63.940 E32.2912
G1 X151.050 Y63.502 E32.3068
G1 X150.939 Y63.030 E32.3229
G1 X150.900 Y62.644 E32.3358
G1 X150.903 Y62.175 E32.3514
G1 X150.971 Y61.695 E32.3675
G1 X150.991 Y61.621 E32.3701
;segType:HShell
G0 X150.702 Y62.216 F10800
G1 X147.360 Y58.771 E32.5297 F3600
G1 X147.907 Y58.771
G1 X150.766 Y61.717 E32.6662
G1 X150.879 Y61.270
G1 X148.454 Y58.771 E32.7821
G1 X149.001 Y58.771
G1 X151.036 Y60.868 E32.8792
G1 X151.228 Y60.502
G1 X149.549 Y58.771 E32.9594
G1 X150.096 Y58.771
G1 X151.449 Y60.166 E33.0241
G1 X151.702 Y59.863
G1 X150.643 Y58.771 E33.0747
G1 X151.190 Y58.771
G1 X151.980 Y59.585 E33.1124
G1 X152.283 Y59.334
G1 X151.737 Y58.771 E33.1385
G1 X152.284 Y58.771
G1 X152.622 Y59.119 E33.1546
G1 X152.993 Y58.937
G1 X152.832 Y58.771 E33.1623
G0 X156.128 Y58.785 F10800
G1 X156.597 Y59.268 E33.1847 F3600
G1 X156.835 Y58.950
G1 X158.045 Y60.197 E33.2425
G1 X157.675 Y60.379
G1 X158.183 Y60.903 E33.2668
G1 X158.222 Y61.506
G1 X158.143 Y61.426 E33.2705
G0 X161.186 Y62.305 F10800
G1 X160.667 Y61.770 E33.2953 F3600
G1 X160.120 Y61.770
G1 X161.186 Y62.869 E33.3462
G1 X161.186 Y63.433
G1 X159.572 Y61.770 E33.4233
G1 X159.025 Y61.770
G1 X161.186 Y63.997 E33.5265
G1 X161.186 Y64.561
G1 X158.478 Y61.771 E33.6558
G1 X158.272 Y62.122
G1 X161.186 Y65.125 E33.7950
G1 X161.186 Y65.689
G1 X158.274 Y62.688 E33.9341
G1 X158.207 Y63.183
G1 X161.186 Y66.253 E34.0764
G1 X161.186 Y66.817
G1 X158.092 Y63.629 E34.2241
G1 X157.938 Y64.034
G1 X161.186 Y67.381 E34.3792
G1 X161.186 Y67.945
G1 X157.745 Y64.399 E34.5436
G1 X157.526 Y64.737
G1 X161.186 Y68.508 E34.7184
G1 X161.186 Y69.072
G1 X157.273 Y65.040 E34.9052
G1 X156.992 Y65.314
G1 X161.186 Y69.636 E35.1055
G1 X161.186 Y70.200
G1 X156.681 Y65.558 E35.3207
G1 X156.342 Y65.773
G1 X161.186 Y70.764 E35.5520
G1 X161.186 Y71.328
G1 X155.975 Y65.958 E35.8009
G1 X155.568 Y66.102
G1 X161.186 Y71.892 E36.0692
G1 X161.186 Y72.456
G1 X155.123 Y66.208 E36.3587
G1 X154.627 Y66.260
G1 X161.186 Y73.020 E36.6720
G1 X161.186 Y73.584
G1 X154.055 Y66.235 E37.0126
G1 X153.377 Y66.100
G1 X161.186 Y74.147 E37.3855
G1 X161.186 Y74.711
G1 X152.315 Y65.569 E37.8092
G0 X156.370 Y117.117 F10800
G1 X106.804 Y66.036 E40.1766 F3600
G1 X106.378 Y66.162
G1 X155.462 Y116.745 E42.5208
G1 X154.802 Y116.628
G1 X105.908 Y66.241 E44.8561
G1 X105.383 Y66.263
G1 X154.251 Y116.624 E47.1900
G1 X153.764 Y116.686
G1 X104.760 Y66.186 E49.5305
G1 X103.966 Y65.931
G1 X153.328 Y116.801 E51.8881
G1 X152.930 Y116.954
G1 X99.381 Y61.771 E54.4456
G1 X98.834 Y61.771
G1 X152.564 Y117.142 E57.0118
G1 X152.231 Y117.363
G1 X98.817 Y62.317 E59.5628
G1 X98.817 Y62.881
G1 X151.928 Y117.614 E62.0994
G1 X151.656 Y117.898
G1 X98.817 Y63.445 E64.6231
G1 X98.817 Y64.009
G1 X151.409 Y118.207 E67.1349
G1 X151.194 Y118.549
G1 X98.817 Y64.573 E69.6364
G1 X98.817 Y65.137
G1 X151.009 Y118.922 E72.1291
G1 X150.858 Y119.331
G1 X98.817 Y65.701 E74.6146
G1 X98.817 Y66.265
G1 X150.754 Y119.787 E77.0951
G1 X150.702 Y120.298
G1 X98.817 Y66.828 E79.5731
G0 X98.817 Y79.798 F10800
G1 X158.546 Y141.352 E82.4258 F3600
G1 X158.232 Y141.591
G1 X98.817 Y80.362 E85.2635
G1 X98.817 Y80.926
G1 X158.190 Y142.112 E88.0991
G1 X158.133 Y142.617
G1 X98.817 Y81.490 E90.9321
G1 X98.817 Y82.054
G1 X157.996 Y143.040 E93.7585
G1 X157.790 Y143.392
G1 X98.817 Y82.618 E96.5751
G1 X98.817 Y83.182
G1 X157.543 Y143.701 E99.3799
G1 X157.241 Y143.953
G1 X98.817 Y83.746 E102.1702
G1 X98.817 Y84.310
G1 X156.888 Y144.154 E104.9437
G1 X156.474 Y144.291
G1 X98.817 Y84.873 E107.6974
G1 X98.817 Y85.437
G1 X155.984 Y144.350 E110.4277
G1 X155.438 Y144.351
G1 X98.817 Y86.001 E113.1319
G1 X98.817 Y86.565
G1 X154.890 Y144.351 E115.8100
G1 X154.343 Y144.351
G1 X98.817 Y87.129 E118.4619
G1 X98.817 Y87.693
G1 X153.796 Y144.351 E121.0878
G1 X153.249 Y144.351
G1 X98.817 Y88.257 E123.6874
G1 X98.817 Y88.821
G1 X152.702 Y144.351 E126.2610
G1 X152.154 Y144.351
G1 X98.817 Y89.385 E128.8084
G1 X98.817 Y89.949
G1 X151.607 Y144.351 E131.3297
G1 X151.060 Y144.351
G1 X98.817 Y90.513 E133.8248
G1 X98.817 Y91.076
G1 X150.513 Y144.351 E136.2938
G1 X149.966 Y144.351
G1 X98.817 Y91.640 E138.7367
G1 X98.817 Y92.204
G1 X149.418 Y144.351 E141.1534
G1 X148.871 Y144.351
G1 X98.817 Y92.768 E143.5440
G1 X98.817 Y93.332
G1 X148.324 Y144.351 E145.9085
G1 X147.777 Y144.351
G1 X98.817 Y93.896 E148.2468
G1 X98.817 Y94.460
G1 X147.230 Y144.351 E150.5591
G1 X146.683 Y144.351
G1 X98.817 Y95.024 E152.8451
G1 X98.817 Y95.588
G1 X146.135 Y144.351 E155.1051
G1 X145.588 Y144.351
G1 X98.817 Y96.152 E157.3389
G1 X98.817 Y96.715
G1 X145.041 Y144.351 E159.5465
G1 X144.494 Y144.351
G1 X98.817 Y97.279 E161.7281
G1 X98.817 Y97.843
G1 X143.947 Y144.351 E163.8835
G1 X143.399 Y144.351
G1 X98.817 Y98.407 E166.0127
G1 X98.817 Y98.971
G1 X142.852 Y144.351 E168.1159
G1 X142.305 Y144.351
G1 X98.817 Y99.535 E170.1928
G1 X98.817 Y100.099
G1 X141.758 Y144.351 E172.2437
G1 X141.211 Y144.351
G1 X98.817 Y100.663 E174.2684
G1 X98.817 Y101.227
G1 X140.663 Y144.351 E176.2670
G1 X140.116 Y144.351
G1 X98.817 Y101.791 E178.2395
G1 X98.817 Y102.355
G1 X139.569 Y144.351 E180.1858
G1 X139.022 Y144.351
G1 X98.817 Y102.918 E182.1060
G1 X98.817 Y103.482
G1 X138.475 Y144.351 E184.0001
G1 X137.927 Y144.351
G1 X98.817 Y104.046 E185.8680
G1 X98.817 Y104.610
G1 X137.380 Y144.351 E187.7098
G1 X136.833 Y144.351
G1 X98.817 Y105.174 E189.5254
G1 X98.817 Y105.738
G1 X136.286 Y144.351 E191.3149
G1 X135.739 Y144.351
G1 X98.817 Y106.302 E193.0783
G1 X98.817 Y106.866
G1 X135.192 Y144.351 E194.8156
G1 X134.644 Y144.351
G1 X98.817 Y107.430 E196.5267
G1 X98.817 Y107.994
G1 X134.097 Y144.351 E198.2117
G1 X133.550 Y144.351
G1 X109.087 Y119.141 E199.3800
G1 X109.259 Y119.882
G1 X133.003 Y144.351 E200.5141
G1 X132.456 Y144.351
G1 X109.309 Y120.497 E201.6196
G1 X109.261 Y121.012
G1 X131.908 Y144.351 E202.7012
G1 X131.361 Y144.351
G1 X109.163 Y121.475 E203.7614
G1 X109.022 Y121.893
G1 X130.814 Y144.351 E204.8022
G1 X130.267 Y144.351
G1 X108.841 Y122.270 E205.8255
G1 X108.626 Y122.613
G1 X129.720 Y144.351 E206.8330
G1 X129.172 Y144.351
G1 X108.381 Y122.925 E207.8260
G1 X108.112 Y123.211
G1 X128.625 Y144.351 E208.8057
G1 X128.078 Y144.351
G1 X107.811 Y123.465 E209.7737
G1 X107.485 Y123.693
G1 X127.531 Y144.351 E210.7311
G1 X126.984 Y144.351
G1 X107.129 Y123.890 E211.6793
G1 X106.736 Y124.048
G1 X126.436 Y144.351 E212.6203
G1 X125.889 Y144.351
G1 X106.305 Y124.168 E213.5556
G1 X105.825 Y124.238
G1 X125.342 Y144.351 E214.4878
G1 X124.795 Y144.351
G1 X105.281 Y124.240 E215.4198
G1 X104.638 Y124.142
G1 X124.248 Y144.351 E216.3564
G1 X123.700 Y144.351
G1 X103.782 Y123.824 E217.3077
G0 X102.428 Y121.837 F10800
G0 X102.130 Y120.619
G0 X102.293 Y119.376
G0 X102.892 Y118.277
G0 X103.843 Y117.473
G0 X105.017 Y117.067
G0 X106.886 Y116.872
G1 X98.817 Y108.557 E217.6930 F3600
G1 X98.817 Y109.121
G1 X106.140 Y116.668 E218.0427
G1 X105.541 Y116.614
G1 X98.817 Y109.685 E218.3639
G1 X98.817 Y110.249
G1 X105.025 Y116.646 E218.6603
G1 X104.561 Y116.732
G1 X98.817 Y110.813 E218.9346
G1 X98.817 Y111.377
G1 X104.147 Y116.869 E219.1892
G1 X103.770 Y117.044
G1 X98.817 Y111.941 E219.4257
G1 X98.817 Y112.505
G1 X103.421 Y117.248 E219.6456
G1 X103.105 Y117.487
G1 X98.817 Y113.069 E219.8503
G1 X98.817 Y113.633
G1 X102.815 Y117.752 E220.0413
G1 X102.552 Y118.045
G1 X98.817 Y114.197 E220.2196
G1 X98.817 Y114.760
G1 X102.319 Y118.369 E220.3869
G1 X102.119 Y118.726
G1 X98.817 Y115.324 E220.5445
G1 X98.817 Y115.888
G1 X101.954 Y119.121 E220.6943
G1 X101.823 Y119.549
G1 X98.817 Y116.452 E220.8379
G0 X102.096 Y122.086 F10800
G1 X98.817 Y118.708 E220.9944 F3600
G1 X98.817 Y119.272
G1 X123.153 Y144.351 E222.1567
G1 X122.606 Y144.351
G1 X98.817 Y119.836 E223.2929
G1 X98.817 Y120.399
G1 X122.059 Y144.351 E224.4029
G1 X121.512 Y144.351
G1 X98.817 Y120.963 E225.4868
G1 X98.817 Y121.527
G1 X120.965 Y144.351 E226.5446
G1 X120.417 Y144.351
G1 X98.817 Y122.091 E227.5762
G1 X98.817 Y122.655
G1 X119.870 Y144.351 E228.5817
G1 X119.323 Y144.351
G1 X98.817 Y123.219 E229.5611
G1 X98.817 Y123.783
G1 X118.776 Y144.351 E230.5143
G1 X118.229 Y144.351
G1 X98.817 Y124.347 E231.4414
G1 X98.817 Y124.911
G1 X117.681 Y144.351 E232.3423
G1 X117.134 Y144.351
G1 X98.817 Y125.475 E233.2171
G1 X98.817 Y126.039
G1 X116.587 Y144.351 E234.0658
G1 X116.040 Y144.351
G1 X98.817 Y126.602 E234.8884
G1 X98.817 Y127.166
G1 X115.493 Y144.351 E235.6848
G1 X114.945 Y144.351
G1 X98.817 Y127.730 E236.4551
G1 X98.817 Y128.294
G1 X114.398 Y144.351 E237.1992
G1 X113.851 Y144.351
G1 X98.817 Y128.858 E237.9172
G1 X98.817 Y129.422
G1 X113.304 Y144.351 E238.6091
G1 X112.757 Y144.351
G1 X98.817 Y129.986 E239.2749
G1 X98.817 Y130.550
G1 X112.209 Y144.351 E239.9145
G1 X111.662 Y144.351
G1 X98.817 Y131.114 E240.5280
G1 X98.817 Y131.678
G1 X111.115 Y144.351 E241.1153
G1 X110.568 Y144.351
G1 X98.817 Y132.241 E241.6765
G1 X98.817 Y132.805
G1 X110.021 Y144.351 E242.2116
G1 X109.474 Y144.351
G1 X98.817 Y133.369 E242.7205
G1 X98.817 Y133.933
G1 X108.926 Y144.351 E243.2033
G1 X108.379 Y144.351
G1 X98.817 Y134.497 E243.6600
G1 X98.817 Y135.061
G1 X107.832 Y144.351 E244.0905
G1 X107.285 Y144.351
G1 X98.817 Y135.625 E244.4949
G1 X98.817 Y136.189
G1 X106.738 Y144.351 E244.8732
G1 X106.190 Y144.351
G1 X98.817 Y136.753 E245.2254
G1 X98.817 Y137.317
G1 X105.643 Y144.351 E245.5514
G1 X105.096 Y144.351
G1 X98.817 Y137.881 E245.8512
G1 X98.817 Y138.444
G1 X101.638 Y141.352 E245.9860
G1 X101.091 Y141.352
G1 X98.817 Y139.008 E246.0946
G1 X98.817 Y139.572
G1 X100.544 Y141.352 E246.1770
G1 X99.997 Y141.352
G1 X98.817 Y140.136 E246.2333
G1 X98.817 Y140.700
G1 X99.450 Y141.352 E246.2635
G1 X98.902 Y141.352
G1 X98.817 Y141.264 E246.2676
G0 X101.773 Y141.491 F10800
G1 X104.549 Y144.351 E246.4002 F3600
G1 X103.998 Y144.347
G1 X101.812 Y142.094 E246.5046
G1 X101.899 Y142.748
G1 X103.353 Y144.246 E246.5740
G0 X159.641 Y141.352 F10800
G1 X98.817 Y78.670 E249.4790 F3600
G1 X98.817 Y78.107
G1 X160.188 Y141.352 E252.4101
G1 X160.735 Y141.352
G1 X98.817 Y77.543 E255.3673
G1 X98.817 Y76.979
G1 X161.186 Y141.252 E258.3461
G1 X161.186 Y140.688
G1 X98.817 Y76.415 E261.3248
G1 X98.817 Y75.851
G1 X161.186 Y140.124 E264.3036
G1 X161.186 Y139.560
G1 X98.817 Y75.287 E267.2823
G1 X98.817 Y74.723
G1 X161.186 Y138.997 E270.2611
G1 X161.186 Y138.433
G1 X98.817 Y74.159 E273.2399
G1 X98.817 Y73.595
G1 X161.186 Y137.869 E276.2186
G1 X161.186 Y137.305
G1 X98.817 Y73.031 E279.1974
G1 X98.817 Y72.468
G1 X161.186 Y136.741 E282.1761
G1 X161.186 Y136.177
G1 X98.817 Y71.904 E285.1549
G1 X98.817 Y71.340
G1 X161.186 Y135.613 E288.1336
G1 X161.186 Y135.049
G1 X98.817 Y70.776 E291.1124
G1 X98.817 Y70.212
G1 X161.186 Y134.485 E294.0912
G1 X161.186 Y133.921
G1 X98.817 Y69.648 E297.0699
G1 X98.817 Y69.084
G1 X161.186 Y133.358 E300.0487
G1 X161.186 Y132.794
G1 X151.873 Y123.196 E300.4935
G1 X151.774 Y123.094
G1 X98.817 Y68.520 E303.0227
G1 X98.817 Y67.956
G1 X150.881 Y121.610 E305.5093
G0 X153.231 Y124.032 F10800
G1 X161.186 Y132.230 E305.8892 F3600
G1 X161.186 Y131.666
G1 X153.951 Y124.210 E306.2348
G1 X154.534 Y124.247
G1 X161.186 Y131.102 E306.5524
G1 X161.186 Y130.538
G1 X155.041 Y124.205 E306.8459
G1 X155.494 Y124.109
G1 X161.186 Y129.974 E307.1177
G1 X161.186 Y129.410
G1 X155.908 Y123.971 E307.3699
G1 X156.282 Y123.792
G1 X161.186 Y128.846 E307.6041
G1 X161.186 Y128.282
G1 X156.627 Y123.584 E307.8218
G1 X156.943 Y123.346
G1 X161.186 Y127.718 E308.0245
G1 X161.186 Y127.155
G1 X157.230 Y123.078 E308.2134
G1 X157.483 Y122.775
G1 X161.186 Y126.591 E308.3903
G1 X161.186 Y126.027
G1 X157.708 Y122.443 E308.5563
G1 X157.907 Y122.084
G1 X161.186 Y125.463 E308.7130
G1 X161.186 Y124.899
G1 X158.068 Y121.686 E308.8619
G1 X158.191 Y121.249
G1 X161.186 Y124.335 E309.0049
G1 X161.186 Y123.771
G1 X158.266 Y120.762 E309.1444
G1 X158.278 Y120.210
G1 X161.186 Y123.207 E309.2832
G1 X161.186 Y122.643
G1 X158.181 Y119.547 E309.4268
G1 X157.834 Y118.625
G1 X161.186 Y122.079 E309.5869
G1 X161.186 Y121.516
G1 X107.190 Y65.870 E312.1658
G1 X107.546 Y65.673
G1 X161.186 Y120.952 E314.7276
G1 X161.186 Y120.388
G1 X107.865 Y65.438 E317.2742
G1 X108.161 Y65.179
G1 X161.186 Y119.824 E319.8067
G1 X161.186 Y119.260
G1 X108.425 Y64.887 E322.3267
G1 X108.663 Y64.568
G1 X161.186 Y118.696 E324.8352
G1 X161.186 Y118.132
G1 X108.872 Y64.220 E327.3338
G1 X109.046 Y63.836
G1 X161.186 Y117.568 E329.8240
G1 X161.186 Y117.004
G1 X109.186 Y63.416 E332.3076
G1 X109.276 Y62.945
G1 X161.186 Y116.440 E334.7868
G1 X161.186 Y115.876
G1 X109.306 Y62.412 E337.2646
G1 X109.240 Y61.781
G1 X161.186 Y115.313 E339.7456
G1 X161.186 Y114.749
G1 X109.014 Y60.983 E342.2374
G0 X107.092 Y59.435 F10800
G0 X105.905 Y59.066
G0 X104.666 Y59.151
G0 X103.540 Y59.679
G0 X102.678 Y60.582
G0 X101.725 Y62.494
G1 X101.023 Y61.771 E342.2709 F3600
G1 X101.570 Y61.771
G1 X101.755 Y61.961 E342.2797
G0 X101.822 Y60.902 F10800
G1 X101.981 Y61.066 E342.2873 F3600
G1 X102.153 Y60.679
G1 X101.892 Y60.411 E342.2998
G1 X102.040 Y60.000
G1 X102.356 Y60.325 E342.3148
G1 X102.594 Y60.006
G1 X102.258 Y59.660 E342.3309
G1 X102.518 Y59.364
G1 X102.861 Y59.717 E342.3472
G1 X103.157 Y59.458
G1 X102.829 Y59.121 E342.3629
G1 X103.194 Y58.933
G1 X103.478 Y59.226 E342.3764
G1 X103.833 Y59.028
G1 X103.627 Y58.815 E342.3863
G1 X104.132 Y58.771
G1 X104.218 Y58.860 E342.3904
G0 X107.050 Y58.960 F10800
G1 X106.868 Y58.771 E342.3991 F3600
G1 X107.415 Y58.771
G1 X161.186 Y114.185 E344.9673
G1 X161.186 Y113.621
G1 X107.962 Y58.771 E347.5093
G1 X108.509 Y58.771
G1 X161.186 Y113.057 E350.0252
G1 X161.186 Y112.493
G1 X109.056 Y58.771 E352.5149
G1 X109.604 Y58.771
G1 X161.186 Y111.929 E354.9785
G1 X161.186 Y111.365
G1 X110.151 Y58.771 E357.4160
G1 X110.698 Y58.771
G1 X161.186 Y110.801 E359.8273
G1 X161.186 Y110.237
G1 X111.245 Y58.771 E362.2125
G1 X111.792 Y58.771
G1 X161.186 Y109.674 E364.5716
G1 X161.186 Y109.110
G1 X112.340 Y58.771 E366.9045
G1 X112.887 Y58.771
G1 X161.186 Y108.546 E369.2113
G1 X161.186 Y107.982
G1 X113.434 Y58.771 E371.4920
G1 X113.981 Y58.771
G1 X161.186 Y107.418 E373.7465
G1 X161.186 Y106.854
G1 X114.528 Y58.771 E375.9749
G1 X115.075 Y58.771
G1 X161.186 Y106.290 E378.1772
G1 X161.186 Y105.726
G1 X115.623 Y58.771 E380.3533
G1 X116.170 Y58.771
G1 X161.186 Y105.162 E382.5033
G1 X161.186 Y104.598
G1 X116.717 Y58.771 E384.6272
G1 X117.264 Y58.771
G1 X161.186 Y104.034 E386.7249
G1 X161.186 Y103.471
G1 X117.811 Y58.771 E388.7965
G1 X118.359 Y58.771
G1 X161.186 Y102.907 E390.8420
G1 X161.186 Y102.343
G1 X118.906 Y58.771 E392.8613
G1 X119.453 Y58.771
G1 X161.186 Y101.779 E394.8545
G1 X161.186 Y101.215
G1 X120.000 Y58.771 E396.8215
G1 X120.547 Y58.771
G1 X161.186 Y100.651 E398.7625
G1 X161.186 Y100.087
G1 X121.095 Y58.771 E400.6773
G1 X121.642 Y58.771
G1 X161.186 Y99.523 E402.5659
G1 X161.186 Y98.959
G1 X122.189 Y58.771 E404.4284
G1 X122.736 Y58.771
G1 X161.186 Y98.395 E406.2648
G1 X161.186 Y97.832
G1 X123.283 Y58.771 E408.0751
G1 X123.831 Y58.771
G1 X161.186 Y97.268 E409.8592
G1 X161.186 Y96.704
G1 X124.378 Y58.771 E411.6172
G1 X124.925 Y58.771
G1 X161.186 Y96.140 E413.3490
G1 X161.186 Y95.576
G1 X125.472 Y58.771 E415.0547
G1 X126.019 Y58.771
G1 X161.186 Y95.012 E416.7343
G1 X161.186 Y94.448
G1 X126.566 Y58.771 E418.3877
G1 X127.114 Y58.771
G1 X161.186 Y93.884 E420.0151
G1 X161.186 Y93.320
G1 X127.661 Y58.771 E421.6162
G1 X128.208 Y58.771
G1 X161.186 Y92.756 E423.1913
G1 X161.186 Y92.192
G1 X128.755 Y58.771 E424.7402
G1 X129.302 Y58.771
G1 X161.186 Y91.629 E426.2630
G1 X161.186 Y91.065
G1 X129.850 Y58.771 E427.7596
G1 X130.397 Y58.771
G1 X161.186 Y90.501 E429.2301
G1 X161.186 Y89.937
G1 X130.944 Y58.771 E430.6745
G1 X131.491 Y58.771
G1 X161.186 Y89.373 E432.0927
G1 X161.186 Y88.809
G1 X132.038 Y58.771 E433.4848
G1 X132.586 Y58.771
G1 X161.186 Y88.245 E434.8508
G1 X161.186 Y87.681
G1 X133.133 Y58.771 E436.1906
G1 X133.680 Y58.771
G1 X161.186 Y87.117 E437.5043
G1 X161.186 Y86.553
G1 X134.227 Y58.771 E438.7919
G1 X134.774 Y58.771
G1 X161.186 Y85.990 E440.0533
G1 X161.186 Y85.426
G1 X135.322 Y58.771 E441.2886
G1 X135.869 Y58.771
G1 X161.186 Y84.862 E442.4978
G1 X161.186 Y84.298
G1 X136.416 Y58.771 E443.6808
G1 X136.963 Y58.771
G1 X161.186 Y83.734 E444.8377
G1 X161.186 Y83.170
G1 X137.510 Y58.771 E445.9685
G1 X138.058 Y58.771
G1 X161.186 Y82.606 E447.0731
G1 X161.186 Y82.042
G1 X138.605 Y58.771 E448.1516
G1 X139.152 Y58.771
G1 X161.186 Y81.478 E449.2040
G1 X161.186 Y80.914
G1 X139.699 Y58.771 E450.2302
G1 X140.246 Y58.771
G1 X161.186 Y80.350 E451.2303
G1 X161.186 Y79.787
G1 X140.793 Y58.771 E452.2042
G1 X141.341 Y58.771
G1 X161.186 Y79.223 E453.1521
G1 X161.186 Y78.659
G1 X141.888 Y58.771 E454.0738
G1 X142.435 Y58.771
G1 X161.186 Y78.095 E454.9693
G1 X161.186 Y77.531
G1 X142.982 Y58.771 E455.8387
G1 X143.529 Y58.771
G1 X161.186 Y76.967 E456.6820
G1 X161.186 Y76.403
G1 X144.077 Y58.771 E457.4991
G1 X144.624 Y58.771
G1 X161.186 Y75.839 E458.2902
G1 X161.186 Y75.275
G1 X145.171 Y58.771 E459.0550
G1 X145.718 Y58.771
G1 X151.336 Y64.561 E459.3234
G0 F4800 E458.3234
G0 X109.971 Y64.062 F10800
G0 X104.800 Y64.000
G0 F4800 E459.3234
;segType:Support
G1 X106.600 Y64.000 E459.3743 F5400
G1 X106.600 Y62.200 E459.4252
G1 X104.800 Y62.200 E459.4761
G1 X104.800 Y60.400 E459.5270
G1 X106.600 Y60.400 E459.5779
; ------------------------------------
; Layer #2
; ------------------------------------
G21 ; mm
G90 ; abs
G92 E0 ; reset extr
M106 S255
;segType:Support
G0 F4800 E-1.0000
G0 F300 Z0.600
G0 X106.600 Y60.400 F10800
G0 F4800 E0.0000
G1 X104.800 Y60.400 E0.0509 F5400
G0 F4800 E-0.9491
G0 X104.800 Y64.000 F10800
G0 F4800 E0.0509
G1 X106.600 Y64.000 E0.1018 F5400
G0 F4800 E-0.8982
G0 X104.800 Y119.800 F10800
G0 F4800 E0.1018
G1 X106.600 Y119.800 E0.1527 F5400
G1 X106.600 Y121.600 E0.2036
G1 X104.800 Y121.600 E0.2544
G0 F4800 E-0.7456
G0 X152.192 Y119.800 F10800
G0 F4800 E0.2544
G1 X156.793 Y119.800 E0.3845 F5400
G1 X156.558 Y121.600 E0.4359
G1 X152.405 Y121.600 E0.5532
G0 F4800 E-0.4468
G0 X152.710 Y124.128 F10800
G0 X155.149 Y144.350
G0 F4800 E0.5532
;segType:HShell
G1 X161.186 Y138.129 E0.8415 F3600
G1 X161.186 Y138.693
G1 X158.606 Y141.352 E0.9648
;segType:Perimeter
G0 X159.078 Y141.372 F10800
G1 X158.798 Y142.030 E0.9885 F2159
G1 X158.751 Y142.616 E1.0081
G1 X158.710 Y142.824 E1.0152
G1 X158.575 Y143.241 E1.0297
G1 X158.374 Y143.636 E1.0444
G1 X158.198 Y143.887 E1.0547
G1 X157.841 Y144.266 E1.0720
G1 X157.473 Y144.542 E1.0873
G1 X157.101 Y144.737 E1.1012
G1 X156.857 Y144.831 E1.1099
G1 X156.427 Y144.934 E1.1246
G1 X156.006 Y144.968 E1.1387
G1 X104.022 Y144.969 E2.8677
G1 X103.575 Y144.934 E2.8826
G1 X103.171 Y144.838 E2.8964
G1 X102.771 Y144.676 E2.9108
G1 X102.445 Y144.486 E2.9233
G1 X102.197 Y144.300 E2.9336
G1 X101.884 Y143.986 E2.9484
G1 X101.628 Y143.634 E2.9628
G1 X101.428 Y143.241 E2.9775
G1 X101.295 Y142.831 E2.9919
G1 X101.241 Y142.525 E3.0022
G1 X101.202 Y141.970 E3.0207
G1 X98.217 Y141.970 E3.1200
G1 X98.217 Y61.152 E5.8080
G1 X101.200 Y61.152 E5.9072
G1 X101.252 Y60.506 E5.9287
G1 X101.293 Y60.298 E5.9358
G1 X101.428 Y59.881 E5.9504
G1 X101.629 Y59.487 E5.9651
G1 X101.805 Y59.236 E5.9753
G1 X102.162 Y58.856 E5.9926
G1 X102.530 Y58.580 E6.0079
G1 X102.902 Y58.386 E6.0219
G1 X103.146 Y58.291 E6.0306
G1 X103.576 Y58.189 E6.0453
G1 X103.997 Y58.154 E6.0593
G1 X155.981 Y58.153 E7.7883
G1 X156.428 Y58.189 E7.8032
G1 X156.832 Y58.284 E7.8170
G1 X157.232 Y58.446 E7.8314
G1 X157.558 Y58.636 E7.8439
G1 X157.806 Y58.823 E7.8543
G1 X158.119 Y59.136 E7.8690
G1 X158.375 Y59.488 E7.8835
G1 X158.575 Y59.881 E7.8981
G1 X158.708 Y60.291 E7.9125
G1 X158.762 Y60.597 E7.9228
G1 X158.801 Y61.152 E7.9413
G1 X161.786 Y61.152 E8.0406
G1 X161.786 Y141.970 E10.7286
G1 X158.861 Y141.970 E10.8259
G1 X158.203 Y142.203
;segType:Loop
G0 X158.248 Y142.930 F10800
G1 X158.206 Y143.079 E10.8310 F3600
G1 X158.033 Y143.418 E10.8437
G1 X157.890 Y143.621 E10.8519
G1 X157.578 Y143.954 E10.8671
G1 X157.264 Y144.189 E10.8802
G1 X156.940 Y144.359 E10.8923
G1 X156.742 Y144.436 E10.8994
G1 X156.366 Y144.525 E10.9123
G1 X155.990 Y144.556 E10.9248
G1 X104.038 Y144.557 E12.6527
G1 X103.636 Y144.525 E12.6661
G1 X103.290 Y144.443 E12.6780
G1 X102.944 Y144.303 E12.6904
G1 X102.662 Y144.139 E12.7012
G1 X102.456 Y143.984 E12.7098
G1 X102.185 Y143.713 E12.7225
G1 X101.967 Y143.414 E12.7349
G1 X101.797 Y143.079 E12.7473
G1 X101.683 Y142.728 E12.7596
G1 X101.638 Y142.473 E12.7682
G1 X101.574 Y141.558 E12.7988
G1 X98.617 Y141.558 E12.8971
G1 X98.617 Y61.564 E15.5577
G1 X101.568 Y61.564 E15.6558
G1 X101.648 Y60.564 E15.6892
G1 X101.797 Y60.043 E15.7072
G1 X101.970 Y59.705 E15.7198
G1 X102.113 Y59.501 E15.7281
G1 X102.425 Y59.168 E15.7433
G1 X102.739 Y58.933 E15.7564
G1 X103.064 Y58.763 E15.7685
G1 X103.262 Y58.687 E15.7756
G1 X103.637 Y58.597 E15.7884
G1 X104.013 Y58.566 E15.8010
G1 X155.965 Y58.565 E17.5289
G1 X156.367 Y58.598 E17.5423
G1 X156.713 Y58.679 E17.5542
G1 X157.060 Y58.819 E17.5666
G1 X157.341 Y58.983 E17.5774
G1 X157.547 Y59.138 E17.5860
G1 X157.818 Y59.409 E17.5987
G1 X158.036 Y59.709 E17.6110
G1 X158.206 Y60.043 E17.6235
G1 X158.320 Y60.394 E17.6358
G1 X158.365 Y60.649 E17.6444
G1 X158.430 Y61.564 E17.6749
G1 X161.386 Y61.564 E17.7733
G1 X161.386 Y141.558 E20.4339
G1 X158.435 Y141.558 E20.5320
G1 X158.355 Y142.558 E20.5654
G1 X158.303 Y142.739 E20.5716
G0 F4800 E19.5716
G0 X155.850 Y143.853 F10800
G0 X127.789 Y144.350
G0 F4800 E20.5716
;segType:HShell
G1 X150.711 Y120.729 E21.6664 F3600
;segType:Perimeter
G0 X150.839 Y121.031 F10800
G1 X151.298 Y120.491 E21.6899 F2159
G1 X151.303 Y120.191 E21.6999
G1 X151.372 Y119.728 E21.7155
G1 X151.470 Y119.385 E21.7274
G1 X151.605 Y119.052 E21.7393
G1 X151.837 Y118.646 E21.7549
G1 X152.052 Y118.362 E21.7667
G1 X152.298 Y118.100 E21.7787
G1 X152.660 Y117.806 E21.7942
G1 X152.962 Y117.620 E21.8060
G1 X153.285 Y117.465 E21.8179
G1 X153.728 Y117.321 E21.8334
G1 X154.077 Y117.257 E21.8452
G1 X154.434 Y117.229 E21.8571
G1 X154.899 Y117.256 E21.8726
G1 X155.247 Y117.322 E21.8844
G1 X155.590 Y117.425 E21.8963
G1 X156.014 Y117.617 E21.9118
G1 X156.316 Y117.805 E21.9236
G1 X156.599 Y118.025 E21.9355
G1 X156.925 Y118.359 E21.9510
G1 X157.140 Y118.644 E21.9629
G1 X157.324 Y118.952 E21.9749
G1 X157.508 Y119.382 E21.9904
G1 X157.606 Y119.726 E22.0023
G1 X157.675 Y120.156 E22.0168
G1 X157.683 Y120.549 E22.0299
G1 X157.649 Y120.903 E22.0417
G1 X157.578 Y121.256 E22.0537
G1 X157.425 Y121.698 E22.0692
G1 X157.265 Y122.017 E22.0811
G1 X157.072 Y122.319 E22.0930
G1 X156.770 Y122.675 E22.1086
G1 X156.506 Y122.915 E22.1204
G1 X156.217 Y123.126 E22.1323
G1 X155.808 Y123.349 E22.1478
G1 X155.476 Y123.477 E22.1596
G1 X155.130 Y123.569 E22.1715
G1 X154.669 Y123.629 E22.1870
G1 X154.314 Y123.628 E22.1988
G1 X153.958 Y123.590 E22.2107
G1 X153.506 Y123.479 E22.2262
G1 X153.175 Y123.350 E22.2380
G1 X152.857 Y123.185 E22.2499
G1 X152.475 Y122.918 E22.2654
G1 X152.213 Y122.677 E22.2773
G1 X151.975 Y122.408 E22.2892
G1 X151.715 Y122.020 E22.3048
G1 X151.557 Y121.701 E22.3166
G1 X151.432 Y121.363 E22.3286
G1 X151.329 Y120.907 E22.3441
G1 X151.303 Y120.611 E22.3540
G1 X150.804 Y120.109
;segType:Loop
G0 X151.062 Y119.354 F10800
G1 X151.093 Y119.247 E22.3577 F3600
G1 X151.247 Y118.867 E22.3714
G1 X151.505 Y118.413 E22.3887
G1 X151.750 Y118.091 E22.4022
G1 X152.029 Y117.794 E22.4157
G1 X152.432 Y117.466 E22.4330
G1 X152.775 Y117.255 E22.4464
G1 X153.140 Y117.080 E22.4599
G1 X153.633 Y116.920 E22.4771
G1 X154.027 Y116.848 E22.4904
G1 X154.430 Y116.816 E22.5039
G1 X154.946 Y116.845 E22.5211
G1 X155.340 Y116.920 E22.5344
G1 X155.727 Y117.036 E22.5479
G1 X156.199 Y117.250 E22.5651
G1 X156.541 Y117.463 E22.5785
G1 X156.862 Y117.713 E22.5920
G1 X157.226 Y118.085 E22.6093
G1 X157.469 Y118.409 E22.6228
G1 X157.679 Y118.760 E22.6364
G1 X157.885 Y119.240 E22.6538
G1 X157.996 Y119.634 E22.6674
G1 X158.075 Y120.118 E22.6837
G1 X158.084 Y120.565 E22.6986
G1 X158.046 Y120.966 E22.7120
G1 X157.964 Y121.368 E22.7256
G1 X157.793 Y121.862 E22.7430
G1 X157.611 Y122.225 E22.7565
G1 X157.391 Y122.569 E22.7701
G1 X157.054 Y122.967 E22.7874
G1 X156.755 Y123.238 E22.8009
G1 X156.427 Y123.478 E22.8144
G1 X155.972 Y123.726 E22.8316
G1 X155.597 Y123.870 E22.8450
G1 X155.206 Y123.975 E22.8584
G1 X154.694 Y124.041 E22.8756
G1 X154.293 Y124.040 E22.8890
G1 X153.891 Y123.997 E22.9024
G1 X153.388 Y123.874 E22.9196
G1 X153.014 Y123.728 E22.9330
G1 X152.654 Y123.541 E22.9465
G1 X152.229 Y123.244 E22.9637
G1 X151.931 Y122.971 E22.9771
G1 X151.661 Y122.666 E22.9907
G1 X151.370 Y122.232 E23.0081
G1 X151.191 Y121.868 E23.0216
G1 X151.048 Y121.483 E23.0352
G1 X150.934 Y120.973 E23.0526
G1 X150.897 Y120.567 E23.0661
G1 X150.903 Y120.156 E23.0798
G1 X150.981 Y119.638 E23.0972
G1 X151.007 Y119.545 E23.1005
;segType:HShell
G0 X98.817 Y125.147 F10800
G1 X102.000 Y121.867 E23.2525 F3600
G1 X101.859 Y121.449
G1 X98.817 Y124.584 E23.3977
G1 X98.817 Y124.020
G1 X101.758 Y120.989 E23.5382
;segType:Perimeter
G0 X101.863 Y121.031 F10800
G1 X102.322 Y120.491 E23.5617 F2159
G1 X102.326 Y120.191 E23.5717
G1 X102.396 Y119.728 E23.5873
G1 X102.494 Y119.385 E23.5992
G1 X102.629 Y119.052 E23.6111
G1 X102.861 Y118.646 E23.6267
G1 X103.076 Y118.362 E23.6385
G1 X103.322 Y118.100 E23.6505
G1 X103.684 Y117.806 E23.6660
G1 X103.986 Y117.620 E23.6778
G1 X104.309 Y117.465 E23.6897
G1 X104.752 Y117.321 E23.7052
G1 X105.101 Y117.257 E23.7170
G1 X105.458 Y117.229 E23.7289
G1 X105.923 Y117.256 E23.7444
G1 X106.271 Y117.322 E23.7562
G1 X106.614 Y117.425 E23.7681
G1 X107.038 Y117.617 E23.7836
G1 X107.340 Y117.805 E23.7954
G1 X107.623 Y118.025 E23.8073
G1 X107.949 Y118.359 E23.8229
G1 X108.164 Y118.644 E23.8347
G1 X108.348 Y118.952 E23.8467
G1 X108.532 Y119.382 E23.8622
G1 X108.630 Y119.726 E23.8741
G1 X108.699 Y120.156 E23.8886
G1 X108.707 Y120.549 E23.9017
G1 X108.673 Y120.903 E23.9135
G1 X108.602 Y121.256 E23.9255
G1 X108.449 Y121.698 E23.9410
G1 X108.289 Y122.017 E23.9529
G1 X108.096 Y122.319 E23.9648
G1 X107.794 Y122.675 E23.9804
G1 X107.530 Y122.915 E23.9922
G1 X107.241 Y123.126 E24.0041
G1 X106.832 Y123.349 E24.0196
G1 X106.500 Y123.477 E24.0314
G1 X106.154 Y123.569 E24.0433
G1 X105.693 Y123.629 E24.0588
G1 X105.338 Y123.628 E24.0706
G1 X104.982 Y123.590 E24.0825
G1 X104.530 Y123.479 E24.0980
G1 X104.199 Y123.350 E24.1098
G1 X103.881 Y123.185 E24.1217
G1 X103.499 Y122.918 E24.1373
G1 X103.237 Y122.677 E24.1491
G1 X102.999 Y122.408 E24.1610
G1 X102.739 Y122.020 E24.1766
G1 X102.581 Y121.701 E24.1884
G1 X102.456 Y121.363 E24.2004
G1 X102.353 Y120.907 E24.2160
G1 X102.327 Y120.611 E24.2258
G1 X101.828 Y120.109
;segType:Loop
G0 X102.086 Y119.354 F10800
G1 X102.117 Y119.247 E24.2295 F3600
G1 X102.270 Y118.867 E24.2432
G1 X102.529 Y118.413 E24.2606
G1 X102.774 Y118.091 E24.2740
G1 X103.053 Y117.794 E24.2876
G1 X103.456 Y117.466 E24.3049
G1 X103.799 Y117.255 E24.3182
G1 X104.164 Y117.080 E24.3317
G1 X104.657 Y116.920 E24.3489
G1 X105.051 Y116.848 E24.3623
G1 X105.453 Y116.816 E24.3757
G1 X105.970 Y116.845 E24.3929
G1 X106.363 Y116.920 E24.4062
G1 X106.751 Y117.036 E24.4197
G1 X107.223 Y117.251 E24.4369
G1 X107.565 Y117.463 E24.4503
G1 X107.885 Y117.713 E24.4638
G1 X108.250 Y118.085 E24.4811
G1 X108.493 Y118.409 E24.4946
G1 X108.703 Y118.760 E24.5082
G1 X108.909 Y119.240 E24.5256
G1 X109.020 Y119.634 E24.5392
G1 X109.099 Y120.118 E24.5555
G1 X109.107 Y120.565 E24.5704
G1 X109.069 Y120.966 E24.5838
G1 X108.988 Y121.368 E24.5974
G1 X108.817 Y121.862 E24.6148
G1 X108.635 Y122.225 E24.6283
G1 X108.415 Y122.569 E24.6419
G1 X108.078 Y122.967 E24.6593
G1 X107.779 Y123.238 E24.6727
G1 X107.451 Y123.478 E24.6862
G1 X106.996 Y123.726 E24.7034
G1 X106.621 Y123.870 E24.7168
G1 X106.230 Y123.975 E24.7303
G1 X105.717 Y124.041 E24.7474
G1 X105.316 Y124.040 E24.7608
G1 X104.915 Y123.997 E24.7742
G1 X104.412 Y123.874 E24.7914
G1 X104.038 Y123.728 E24.8048
G1 X103.678 Y123.541 E24.8183
G1 X103.253 Y123.244 E24.8355
G1 X102.955 Y122.971 E24.8490
G1 X102.685 Y122.666 E24.8625
G1 X102.394 Y122.232 E24.8799
G1 X102.214 Y121.868 E24.8934
G1 X102.072 Y121.484 E24.9070
G1 X101.957 Y120.973 E24.9244
G1 X101.921 Y120.567 E24.9380
G1 X101.927 Y120.156 E24.9516
G1 X102.005 Y119.638 E24.9691
G1 X102.031 Y119.545 E24.9723
;segType:HShell
G0 X98.817 Y64.810 F10800
G1 X101.788 Y61.748 E25.1141 F3600
G1 X101.724 Y62.378
G1 X98.817 Y65.374 E25.2530
G1 X98.817 Y65.937
G1 X101.750 Y62.915 E25.3930
;segType:Perimeter
G0 X101.863 Y63.045 F10800
G1 X102.322 Y62.506 E25.4166 F2159
G1 X102.326 Y62.205 E25.4266
G1 X102.396 Y61.742 E25.4421
G1 X102.494 Y61.400 E25.4540
G1 X102.629 Y61.066 E25.4660
G1 X102.861 Y60.660 E25.4815
G1 X103.076 Y60.376 E25.4934
G1 X103.322 Y60.115 E25.5053
G1 X103.684 Y59.820 E25.5208
G1 X103.986 Y59.634 E25.5326
G1 X104.309 Y59.479 E25.5446
G1 X104.752 Y59.336 E25.5600
G1 X105.101 Y59.271 E25.5718
G1 X105.458 Y59.244 E25.5837
G1 X105.923 Y59.269 E25.5992
G1 X106.271 Y59.336 E25.6110
G1 X106.614 Y59.439 E25.6229
G1 X107.038 Y59.631 E25.6384
G1 X107.340 Y59.819 E25.6503
G1 X107.623 Y60.039 E25.6622
G1 X107.949 Y60.373 E25.6777
G1 X108.164 Y60.658 E25.6896
G1 X108.348 Y60.966 E25.7015
G1 X108.532 Y61.396 E25.7171
G1 X108.630 Y61.740 E25.7290
G1 X108.699 Y62.171 E25.7435
G1 X108.707 Y62.564 E25.7565
G1 X108.673 Y62.917 E25.7684
G1 X108.602 Y63.270 E25.7803
G1 X108.449 Y63.712 E25.7959
G1 X108.289 Y64.031 E25.8077
G1 X108.096 Y64.333 E25.8197
G1 X107.794 Y64.690 E25.8352
G1 X107.530 Y64.929 E25.8471
G1 X107.241 Y65.140 E25.8590
G1 X106.832 Y65.363 E25.8745
G1 X106.500 Y65.491 E25.8863
G1 X106.154 Y65.584 E25.8982
G1 X105.693 Y65.643 E25.9137
G1 X105.338 Y65.642 E25.9255
G1 X104.982 Y65.604 E25.9374
G1 X104.530 Y65.493 E25.9529
G1 X104.199 Y65.364 E25.9647
G1 X103.881 Y65.199 E25.9766
G1 X103.499 Y64.932 E25.9921
G1 X103.237 Y64.691 E26.0039
G1 X102.999 Y64.422 E26.0159
G1 X102.739 Y64.034 E26.0314
G1 X102.581 Y63.715 E26.0433
G1 X102.456 Y63.377 E26.0552
G1 X102.353 Y62.921 E26.0708
G1 X102.327 Y62.625 E26.0807
G1 X101.828 Y62.123
;segType:Loop
G0 X102.086 Y61.368 F10800
G1 X102.117 Y61.262 E26.0844 F3600
G1 X102.270 Y60.882 E26.0980
G1 X102.529 Y60.428 E26.1154
G1 X102.774 Y60.105 E26.1289
G1 X103.053 Y59.808 E26.1424
G1 X103.456 Y59.480 E26.1597
G1 X103.798 Y59.269 E26.1731
G1 X104.164 Y59.094 E26.1866
G1 X104.657 Y58.934 E26.2038
G1 X105.051 Y58.862 E26.2171
G1 X105.453 Y58.830 E26.2305
G1 X105.970 Y58.859 E26.2477
G1 X106.364 Y58.934 E26.2611
G1 X106.751 Y59.051 E26.2745
G1 X107.223 Y59.265 E26.2918
G1 X107.565 Y59.477 E26.3052
G1 X107.885 Y59.727 E26.3187
G1 X108.250 Y60.099 E26.3360
G1 X108.493 Y60.422 E26.3494
G1 X108.703 Y60.774 E26.3631
G1 X108.909 Y61.254 E26.3805
G1 X109.020 Y61.648 E26.3941
G1 X109.099 Y62.132 E26.4104
G1 X109.107 Y62.580 E26.4253
G1 X109.069 Y62.980 E26.4386
G1 X108.988 Y63.382 E26.4523
G1 X108.817 Y63.876 E26.4697
G1 X108.635 Y64.239 E26.4832
G1 X108.415 Y64.584 E26.4968
G1 X108.078 Y64.981 E26.5141
G1 X107.779 Y65.252 E26.5275
G1 X107.451 Y65.492 E26.5410
G1 X106.996 Y65.740 E26.5583
G1 X106.621 Y65.884 E26.5716
G1 X106.230 Y65.989 E26.5851
G1 X105.717 Y66.056 E26.6023
G1 X105.316 Y66.055 E26.6156
G1 X104.914 Y66.011 E26.6291
G1 X104.412 Y65.887 E26.6463
G1 X104.038 Y65.741 E26.6596
G1 X103.678 Y65.556 E26.6731
G1 X103.253 Y65.257 E26.6904
G1 X102.955 Y64.985 E26.7038
G1 X102.685 Y64.680 E26.7174
G1 X102.394 Y64.246 E26.7347
G1 X102.214 Y63.882 E26.7482
G1 X102.072 Y63.498 E26.7619
G1 X101.957 Y62.987 E26.7793
G1 X101.921 Y62.581 E26.7928
G1 X101.927 Y62.171 E26.8065
G1 X102.005 Y61.652 E26.8239
G1 X102.031 Y61.559 E26.8271
;segType:HShell
G0 X98.817 Y116.125 F10800
G1 X150.703 Y62.655 E29.3052 F3600
;segType:Perimeter
G0 X150.839 Y63.045 F10800
G1 X151.298 Y62.506 E29.3288 F2159
G1 X151.303 Y62.205 E29.3388
G1 X151.372 Y61.742 E29.3543
G1 X151.470 Y61.399 E29.3662
G1 X151.605 Y61.066 E29.3782
G1 X151.837 Y60.660 E29.3937
G1 X152.052 Y60.376 E29.4056
G1 X152.298 Y60.115 E29.4175
G1 X152.660 Y59.820 E29.4330
G1 X152.962 Y59.634 E29.4448
G1 X153.285 Y59.479 E29.4567
G1 X153.728 Y59.336 E29.4722
G1 X154.077 Y59.271 E29.4840
G1 X154.434 Y59.244 E29.4959
G1 X154.899 Y59.269 E29.5114
G1 X155.247 Y59.336 E29.5232
G1 X155.590 Y59.439 E29.5351
G1 X156.014 Y59.631 E29.5506
G1 X156.316 Y59.819 E29.5624
G1 X156.599 Y60.039 E29.5744
G1 X156.925 Y60.373 E29.5899
G1 X157.140 Y60.658 E29.6017
G1 X157.324 Y60.966 E29.6137
G1 X157.508 Y61.396 E29.6292
G1 X157.606 Y61.740 E29.6411
G1 X157.675 Y62.171 E29.6556
G1 X157.683 Y62.564 E29.6687
G1 X157.649 Y62.917 E29.6805
G1 X157.578 Y63.270 E29.6925
G1 X157.425 Y63.712 E29.7081
G1 X157.265 Y64.031 E29.7199
G1 X157.072 Y64.333 E29.7319
G1 X156.770 Y64.690 E29.7474
G1 X156.506 Y64.929 E29.7592
G1 X156.217 Y65.140 E29.7712
G1 X155.808 Y65.363 E29.7867
G1 X155.476 Y65.491 E29.7985
G1 X155.130 Y65.584 E29.8104
G1 X154.669 Y65.643 E29.8259
G1 X154.314 Y65.642 E29.8377
G1 X153.958 Y65.604 E29.8496
G1 X153.506 Y65.493 E29.8650
G1 X153.175 Y65.364 E29.8769
G1 X152.857 Y65.199 E29.8888
G1 X152.475 Y64.932 E29.9043
G1 X152.213 Y64.691 E29.9161
G1 X151.975 Y64.422 E29.9281
G1 X151.715 Y64.034 E29.9436
G1 X151.557 Y63.715 E29.9555
G1 X151.432 Y63.377 E29.9674
G1 X151.329 Y62.921 E29.9830
G1 X151.303 Y62.625 E29.9929
G1 X150.804 Y62.123
;segType:Loop
G0 X151.062 Y61.368 F10800
G1 X151.093 Y61.261 E29.9966 F3600
G1 X151.247 Y60.882 E30.0102
G1 X151.505 Y60.428 E30.0276
G1 X151.750 Y60.105 E30.0411
G1 X152.029 Y59.808 E30.0546
G1 X152.432 Y59.480 E30.0719
G1 X152.775 Y59.269 E30.0853
G1 X153.140 Y59.094 E30.0988
G1 X153.633 Y58.934 E30.1160
G1 X154.027 Y58.862 E30.1293
G1 X154.430 Y58.830 E30.1427
G1 X154.946 Y58.859 E30.1599
G1 X155.340 Y58.934 E30.1733
G1 X155.727 Y59.051 E30.1867
G1 X156.199 Y59.265 E30.2040
G1 X156.541 Y59.477 E30.2173
G1 X156.861 Y59.727 E30.2309
G1 X157.226 Y60.099 E30.2482
G1 X157.469 Y60.422 E30.2616
G1 X157.679 Y60.774 E30.2752
G1 X157.885 Y61.254 E30.2926
G1 X157.996 Y61.648 E30.3063
G1 X158.075 Y62.132 E30.3226
G1 X158.084 Y62.580 E30.3374
G1 X158.046 Y62.980 E30.3508
G1 X157.964 Y63.382 E30.3645
G1 X157.793 Y63.876 E30.3819
G1 X157.611 Y64.239 E30.3954
G1 X157.391 Y64.584 E30.4090
G1 X157.054 Y64.981 E30.4263
G1 X156.755 Y65.252 E30.4397
G1 X156.427 Y65.492 E30.4532
G1 X155.972 Y65.740 E30.4705
G1 X155.597 Y65.884 E30.4838
G1 X155.206 Y65.989 E30.4973
G1 X154.694 Y66.056 E30.5145
G1 X154.293 Y66.055 E30.5278
G1 X153.891 Y66.011 E30.5412
G1 X153.388 Y65.887 E30.5585
G1 X153.014 Y65.741 E30.5718
G1 X152.654 Y65.555 E30.5853
G1 X152.229 Y65.257 E30.6026
G1 X151.931 Y64.985 E30.6160
G1 X151.661 Y64.680 E30.6295
G1 X151.370 Y64.246 E30.6469
G1 X151.191 Y63.883 E30.6604
G1 X151.048 Y63.498 E30.6740
G1 X150.934 Y62.987 E30.6915
G1 X150.897 Y62.581 E30.7050
G1 X150.903 Y62.171 E30.7187
G1 X150.981 Y61.652 E30.7361
G1 X151.007 Y61.560 E30.7393
;segType:HShell
G0 X150.852 Y61.373 F10800
G1 X98.817 Y114.997 E33.2245 F3600
G1 X98.817 Y115.561
G1 X150.714 Y62.079 E35.7031
G0 X109.031 Y63.870 F10800
G1 X113.978 Y58.772 E35.9394 F3600
G1 X113.431 Y58.772
G1 X109.254 Y63.077 E36.1389
G1 X109.305 Y62.460
G1 X112.884 Y58.772 E36.3098
G1 X112.337 Y58.772
G1 X109.269 Y61.933 E36.4563
G1 X109.177 Y61.465
G1 X111.789 Y58.772 E36.5811
G1 X111.242 Y58.772
G1 X109.038 Y61.044 E36.6864
G1 X108.867 Y60.656
G1 X110.695 Y58.772 E36.7737
G1 X110.148 Y58.772
G1 X108.658 Y60.307 E36.8449
G1 X108.420 Y59.989
G1 X109.601 Y58.772 E36.9013
G1 X109.053 Y58.772
G1 X108.148 Y59.705 E36.9445
G1 X107.854 Y59.444
G1 X108.506 Y58.772 E36.9757
G1 X107.959 Y58.772
G1 X107.530 Y59.215 E36.9962
G1 X107.174 Y59.017
G1 X107.412 Y58.772 E37.0075
G1 X106.865 Y58.772
G1 X106.791 Y58.848 E37.0110
G0 X103.927 Y58.980 F10800
G1 X104.129 Y58.772 E37.0206 F3600
G1 X103.519 Y58.837
G1 X101.863 Y60.544 E37.0997
G1 X102.033 Y60.932
G1 X101.800 Y61.172 E37.1109
G0 X99.031 Y61.771 F10800
G1 X98.817 Y61.990 E37.1210 F3600
G1 X98.817 Y62.554
G1 X99.578 Y61.771 E37.1574
G1 X100.125 Y61.771
G1 X98.817 Y63.118 E37.2198
G1 X98.817 Y63.682
G1 X100.672 Y61.771 E37.3084
G1 X101.219 Y61.771
G1 X98.817 Y64.246 E37.4231
G0 X101.841 Y63.385 F10800
G1 X98.817 Y66.501 E37.5675 F3600
G1 X98.817 Y67.065
G1 X101.974 Y63.812 E37.7183
G1 X102.146 Y64.198
G1 X98.817 Y67.629 E37.8773
G1 X98.817 Y68.193
G1 X102.354 Y64.548 E38.0462
G1 X102.586 Y64.873
G1 X98.817 Y68.757 E38.2262
G1 X98.817 Y69.321
G1 X102.851 Y65.164 E38.4188
G1 X103.141 Y65.429
G1 X98.817 Y69.885 E38.6253
G1 X98.817 Y70.449
G1 X103.467 Y65.657 E38.8474
G1 X103.819 Y65.859
G1 X98.817 Y71.013 E39.0863
G1 X98.817 Y71.576
G1 X104.203 Y66.026 E39.3435
G1 X104.628 Y66.152
G1 X98.817 Y72.140 E39.6210
G1 X98.817 Y72.704
G1 X105.092 Y66.238 E39.9207
G1 X105.617 Y66.261
G1 X98.817 Y73.268 E40.2454
G1 X98.817 Y73.832
G1 X106.226 Y66.197 E40.5992
G1 X107.008 Y65.956
G1 X98.817 Y74.396 E40.9904
G1 X98.817 Y74.960
G1 X114.525 Y58.772 E41.7406
G1 X115.073 Y58.772
G1 X98.817 Y75.524 E42.5170
G1 X98.817 Y76.088
G1 X115.620 Y58.772 E43.3195
G1 X116.167 Y58.772
G1 X98.817 Y76.652 E44.1481
G1 X98.817 Y77.216
G1 X116.714 Y58.772 E45.0029
G1 X117.262 Y58.772
G1 X98.817 Y77.779 E45.8838
G1 X98.817 Y78.343
G1 X117.809 Y58.772 E46.7908
G1 X118.356 Y58.772
G1 X98.817 Y78.907 E47.7240
G1 X98.817 Y79.471
G1 X118.903 Y58.772 E48.6833
G1 X119.450 Y58.772
G1 X98.817 Y80.035 E49.6687
G1 X98.817 Y80.599
G1 X119.998 Y58.772 E50.6803
G1 X120.545 Y58.772
G1 X98.817 Y81.163 E51.7180
G1 X98.817 Y81.727
G1 X121.092 Y58.772 E52.7819
G1 X121.639 Y58.772
G1 X98.817 Y82.291 E53.8718
G1 X98.817 Y82.855
G1 X122.186 Y58.772 E54.9880
G1 X122.734 Y58.772
G1 X98.817 Y83.418 E56.1302
G1 X98.817 Y83.982
G1 X123.281 Y58.772 E57.2986
G1 X123.828 Y58.772
G1 X98.817 Y84.546 E58.4931
G1 X98.817 Y85.110
G1 X124.375 Y58.772 E59.7138
G1 X124.922 Y58.772
G1 X98.817 Y85.674 E60.9606
G1 X98.817 Y86.238
G1 X125.470 Y58.772 E62.2335
G1 X126.017 Y58.772
G1 X98.817 Y86.802 E63.5325
G1 X98.817 Y87.366
G1 X126.564 Y58.772 E64.8577
G1 X127.111 Y58.772
G1 X98.817 Y87.930 E66.2091
G1 X98.817 Y88.494
G1 X127.658 Y58.772 E67.5865
G1 X128.206 Y58.772
G1 X98.817 Y89.058 E68.9901
G1 X98.817 Y89.621
G1 X128.753 Y58.772 E70.4198
G1 X129.300 Y58.772
G1 X98.817 Y90.185 E71.8757
G1 X98.817 Y90.749
G1 X129.847 Y58.772 E73.3577
G1 X130.394 Y58.772
G1 X98.817 Y91.313 E74.8658
G1 X98.817 Y91.877
G1 X130.942 Y58.772 E76.4001
G1 X131.489 Y58.772
G1 X98.817 Y92.441 E77.9605
G1 X98.817 Y93.005
G1 X132.036 Y58.772 E79.5471
G1 X132.583 Y58.772
G1 X98.817 Y93.569 E81.1597
G1 X98.817 Y94.133
G1 X133.130 Y58.772 E82.7986
G1 X133.678 Y58.772
G1 X98.817 Y94.697 E84.4635
G1 X98.817 Y95.260
G1 X134.225 Y58.772 E86.1546
G1 X134.772 Y58.772
G1 X98.817 Y95.824 E87.8718
G1 X98.817 Y96.388
G1 X135.319 Y58.772 E89.6151
G1 X135.866 Y58.772
G1 X98.817 Y96.952 E91.3846
G1 X98.817 Y97.516
G1 X136.414 Y58.772 E93.1803
G1 X136.961 Y58.772
G1 X98.817 Y98.080 E95.0020
G1 X98.817 Y98.644
G1 X137.508 Y58.772 E96.8499
G1 X138.055 Y58.772
G1 X98.817 Y99.208 E98.7239
G1 X98.817 Y99.772
G1 X138.602 Y58.771 E100.6241
G1 X139.150 Y58.771
G1 X98.817 Y100.336 E102.5504
G1 X98.817 Y100.900
G1 X139.697 Y58.771 E104.5028
G1 X140.244 Y58.771
G1 X98.817 Y101.463 E106.4814
G1 X98.817 Y102.027
G1 X140.791 Y58.771 E108.4861
G1 X141.338 Y58.771
G1 X98.817 Y102.591 E110.5169
G1 X98.817 Y103.155
G1 X141.886 Y58.771 E112.5739
G1 X142.433 Y58.771
G1 X98.817 Y103.719 E114.6570
G1 X98.817 Y104.283
G1 X142.980 Y58.771 E116.7662
G1 X143.527 Y58.771
G1 X98.817 Y104.847 E118.9016
G1 X98.817 Y105.411
G1 X144.075 Y58.771 E121.0631
G1 X144.622 Y58.771
G1 X98.817 Y105.975 E123.2507
G1 X98.817 Y106.539
G1 X145.169 Y58.771 E125.4645
G1 X145.716 Y58.771
G1 X98.817 Y107.102 E127.7044
G1 X98.817 Y107.666
G1 X146.263 Y58.771 E129.9705
G1 X146.811 Y58.771
G1 X98.817 Y108.230 E132.2627
G1 X98.817 Y108.794
G1 X147.358 Y58.771 E134.5810
G1 X147.905 Y58.771
G1 X98.817 Y109.358 E136.9254
G1 X98.817 Y109.922
G1 X148.452 Y58.771 E139.2960
G1 X148.999 Y58.771
G1 X98.817 Y110.486 E141.6927
G1 X98.817 Y111.050
G1 X149.547 Y58.771 E144.1156
G1 X150.094 Y58.771
G1 X98.817 Y111.614 E146.5646
G1 X98.817 Y112.178
G1 X150.641 Y58.771 E149.0397
G1 X151.188 Y58.771
G1 X98.817 Y112.742 E151.5410
G1 X98.817 Y113.305
G1 X151.735 Y58.771 E154.0684
G1 X152.283 Y58.771
G1 X98.817 Y113.869 E156.6219
G1 X98.817 Y114.433
G1 X151.354 Y60.292 E159.1311
G0 X152.263 Y59.355 F10800
G1 X152.830 Y58.771 E159.1581 F3600
G0 X155.958 Y58.930 F10800
G1 X156.102 Y58.783 E159.1650 F3600
G1 X156.576 Y58.858
G1 X156.334 Y59.108 E159.1766
G1 X156.673 Y59.322
G1 X156.977 Y59.008 E159.1911
G1 X157.318 Y59.221
G1 X156.985 Y59.565 E159.2070
G1 X157.260 Y59.844
G1 X157.608 Y59.486 E159.2236
G1 X157.851 Y59.799
G1 X157.514 Y60.147 E159.2397
G1 X157.738 Y60.480
G1 X158.037 Y60.172 E159.2540
G1 X158.155 Y60.614
G1 X157.929 Y60.847 E159.2648
G1 X158.091 Y61.244
G1 X158.198 Y61.133 E159.2699
G0 X158.276 Y62.181 F10800
G1 X158.674 Y61.771 E159.2890 F3600
G1 X159.222 Y61.771
G1 X158.268 Y62.753 E159.3345
G1 X158.159 Y63.430
G1 X159.769 Y61.771 E159.4114
G1 X160.316 Y61.771
G1 X157.715 Y64.450 E159.5356
G0 X156.538 Y65.664 F10800
G1 X106.859 Y116.860 E161.9083 F3600
G1 X107.239 Y117.033
G1 X160.863 Y61.771 E164.4695
G1 X161.186 Y62.002
G1 X107.588 Y117.237 E167.0293
G1 X107.907 Y117.472
G1 X161.186 Y62.566 E169.5740
G1 X161.186 Y63.130
G1 X108.195 Y117.739 E172.1048
G1 X108.461 Y118.029
G1 X161.186 Y63.694 E174.6230
G1 X161.186 Y64.257
G1 X108.694 Y118.353 E177.1301
G1 X108.899 Y118.706
G1 X161.186 Y64.821 E179.6273
G1 X161.186 Y65.385
G1 X109.066 Y119.097 E182.1166
G1 X109.198 Y119.525
G1 X161.186 Y65.949 E184.5996
G1 X161.186 Y66.513
G1 X109.282 Y120.002 E187.0785
G1 X109.307 Y120.540
G1 X161.186 Y67.077 E189.5563
G1 X161.186 Y67.641
G1 X109.229 Y121.184 E192.0378
G1 X108.959 Y122.027
G1 X161.186 Y68.205 E194.5321
G1 X161.186 Y68.769
G1 X98.817 Y133.042 E197.5109
G1 X98.817 Y133.606
G1 X161.186 Y69.333 E200.4896
G1 X161.186 Y69.897
G1 X98.817 Y134.170 E203.4684
G1 X98.817 Y134.734
G1 X161.186 Y70.460 E206.4472
G1 X161.186 Y71.024
G1 X98.817 Y135.298 E209.4259
G1 X98.817 Y135.862
G1 X161.186 Y71.588 E212.4047
G1 X161.186 Y72.152
G1 X98.817 Y136.426 E215.3835
G1 X98.817 Y136.989
G1 X161.186 Y72.716 E218.3622
G1 X161.186 Y73.280
G1 X98.817 Y137.553 E221.3410
G1 X98.817 Y138.117
G1 X161.186 Y73.844 E224.3197
G1 X161.186 Y74.408
G1 X98.817 Y138.681 E227.2985
G1 X98.817 Y139.245
G1 X161.186 Y74.972 E230.2772
G1 X161.186 Y75.536
G1 X98.817 Y139.809 E233.2560
G1 X98.817 Y140.373
G1 X161.186 Y76.099 E236.2348
G1 X161.186 Y76.663
G1 X98.817 Y140.937 E239.2135
G1 X98.962 Y141.352
G1 X161.186 Y77.227 E242.1854
G1 X161.186 Y77.791
G1 X99.509 Y141.352 E245.1311
G1 X100.057 Y141.352
G1 X161.186 Y78.355 E248.0507
G1 X161.186 Y78.919
G1 X100.604 Y141.352 E250.9441
G1 X101.151 Y141.352
G1 X161.186 Y79.483 E253.8114
G1 X161.186 Y80.047
G1 X101.698 Y141.352 E256.6526
G1 X101.793 Y141.818
G1 X161.186 Y80.611 E259.4893
G1 X161.186 Y81.175
G1 X101.830 Y142.344 E262.3242
G1 X101.922 Y142.813
G1 X161.186 Y81.739 E265.1547
G1 X161.186 Y82.302
G1 X102.088 Y143.206 E267.9772
G1 X102.310 Y143.541
G1 X161.186 Y82.866 E270.7892
G1 X161.186 Y83.430
G1 X102.583 Y143.824 E273.5881
G1 X102.912 Y144.048
G1 X161.186 Y83.994 E276.3713
G1 X161.186 Y84.558
G1 X103.290 Y144.222 E279.1365
G1 X103.736 Y144.326
G1 X161.186 Y85.122 E281.8803
G1 X161.186 Y85.686
G1 X104.260 Y144.351 E284.5991
G1 X104.807 Y144.351
G1 X161.186 Y86.250 E287.2918
G1 X161.186 Y86.814
G1 X105.354 Y144.351 E289.9584
G1 X105.901 Y144.351
G1 X161.186 Y87.378 E292.5988
G1 X161.186 Y87.941
G1 X106.448 Y144.351 E295.2131
G1 X106.996 Y144.351
G1 X161.186 Y88.505 E297.8013
G1 X161.186 Y89.069
G1 X107.543 Y144.351 E300.3633
G1 X108.090 Y144.351
G1 X161.186 Y89.633 E302.8992
G1 X161.186 Y90.197
G1 X108.637 Y144.351 E305.4089
G1 X109.184 Y144.351
G1 X161.186 Y90.761 E307.8926
G1 X161.186 Y91.325
G1 X109.732 Y144.351 E310.3500
G1 X110.279 Y144.351
G1 X161.186 Y91.889 E312.7814
G1 X161.186 Y92.453
G1 X110.826 Y144.351 E315.1866
G1 X111.373 Y144.351
G1 X161.186 Y93.017 E317.5657
G1 X161.186 Y93.581
G1 X111.921 Y144.351 E319.9187
G1 X112.468 Y144.351
G1 X161.186 Y94.144 E322.2455
G1 X161.186 Y94.708
G1 X113.015 Y144.351 E324.5462
G1 X113.562 Y144.351
G1 X161.186 Y95.272 E326.8207
G1 X161.186 Y95.836
G1 X114.109 Y144.351 E329.0691
G1 X114.657 Y144.351
G1 X161.186 Y96.400 E331.2914
G1 X161.186 Y96.964
G1 X115.204 Y144.351 E333.4875
G1 X115.751 Y144.351
G1 X161.186 Y97.528 E335.6575
G1 X161.186 Y98.092
G1 X116.298 Y144.351 E337.8014
G1 X116.845 Y144.351
G1 X161.186 Y98.656 E339.9191
G1 X161.186 Y99.220
G1 X117.393 Y144.351 E342.0107
G1 X117.940 Y144.351
G1 X161.186 Y99.783 E344.0762
G1 X161.186 Y100.347
G1 X118.487 Y144.351 E346.1155
G1 X119.034 Y144.351
G1 X161.186 Y100.911 E348.1287
G1 X161.186 Y101.475
G1 X119.581 Y144.351 E350.1158
G1 X120.129 Y144.351
G1 X161.186 Y102.039 E352.0767
G1 X161.186 Y102.603
G1 X120.676 Y144.351 E354.0115
G1 X121.223 Y144.350
G1 X161.186 Y103.167 E355.9201
G1 X161.186 Y103.731
G1 X121.770 Y144.350 E357.8027
G1 X122.317 Y144.350
G1 X161.186 Y104.295 E359.6590
G1 X161.186 Y104.859
G1 X122.865 Y144.350 E361.4893
G1 X123.412 Y144.350
G1 X161.186 Y105.423 E363.2934
G1 X161.186 Y105.986
G1 X123.959 Y144.350 E365.0714
G1 X124.506 Y144.350
G1 X161.186 Y106.550 E366.8233
G1 X161.186 Y107.114
G1 X125.053 Y144.350 E368.5490
G1 X125.601 Y144.350
G1 X161.186 Y107.678 E370.2485
G1 X161.186 Y108.242
G1 X152.522 Y117.171 E370.6624
G0 X153.471 Y116.757 F10800
G1 X161.186 Y108.806 E371.0308 F3600
G1 X161.186 Y109.370
G1 X154.139 Y116.632 E371.3674
G1 X154.693 Y116.625
G1 X161.186 Y109.934 E371.6775
G1 X161.186 Y110.498
G1 X155.186 Y116.681 E371.9641
G1 X155.626 Y116.791
G1 X161.186 Y111.062 E372.2296
G1 X161.186 Y111.625
G1 X156.023 Y116.946 E372.4761
G1 X156.392 Y117.130
G1 X161.186 Y112.189 E372.7051
G1 X161.186 Y112.753
G1 X156.726 Y117.349 E372.9181
G1 X157.033 Y117.597
G1 X161.186 Y113.317 E373.1164
G1 X161.186 Y113.881
G1 X157.307 Y117.878 E373.3017
G1 X157.555 Y118.187
G1 X161.186 Y114.445 E373.4751
G1 X161.186 Y115.009
G1 X157.774 Y118.525 E373.6380
G1 X157.958 Y118.900
G1 X161.186 Y115.573 E373.7922
G1 X161.186 Y116.137
G1 X158.112 Y119.305 E373.9390
G1 X158.219 Y119.758
G1 X161.186 Y116.701 E374.0807
G1 X161.186 Y117.265
G1 X158.278 Y120.262 E374.2196
G1 X158.258 Y120.846
G1 X161.186 Y117.828 E374.3595
G1 X161.186 Y118.392
G1 X158.108 Y121.564 E374.5065
G0 X157.493 Y122.762 F10800
G1 X161.186 Y118.956 E374.6828 F3600
G1 X161.186 Y119.520
G1 X137.092 Y144.350 E375.8336
G1 X137.639 Y144.350
G1 X161.186 Y120.084 E376.9582
G1 X161.186 Y120.648
G1 X138.186 Y144.350 E378.0567
G1 X138.733 Y144.350
G1 X161.186 Y121.212 E379.1290
G1 X161.186 Y121.776
G1 X139.281 Y144.350 E380.1752
G1 X139.828 Y144.350
G1 X161.186 Y122.340 E381.1953
G1 X161.186 Y122.904
G1 X140.375 Y144.350 E382.1893
G1 X140.922 Y144.350
G1 X161.186 Y123.468 E383.1571
G1 X161.186 Y124.031
G1 X141.469 Y144.350 E384.0987
G1 X142.017 Y144.350
G1 X161.186 Y124.595 E385.0143
G1 X161.186 Y125.159
G1 X142.564 Y144.350 E385.9037
G1 X143.111 Y144.350
G1 X161.186 Y125.723 E386.7669
G1 X161.186 Y126.287
G1 X143.658 Y144.350 E387.6041
G1 X144.205 Y144.350
G1 X161.186 Y126.851 E388.4151
G1 X161.186 Y127.415
G1 X144.753 Y144.350 E389.1999
G1 X145.300 Y144.350
G1 X161.186 Y127.979 E389.9587
G1 X161.186 Y128.543
G1 X145.847 Y144.350 E390.6913
G1 X146.394 Y144.350
G1 X161.186 Y129.107 E391.3977
G1 X161.186 Y129.670
G1 X146.941 Y144.350 E392.0780
G1 X147.489 Y144.350
G1 X161.186 Y130.234 E392.7322
G1 X161.186 Y130.798
G1 X148.036 Y144.350 E393.3603
G1 X148.583 Y144.350
G1 X161.186 Y131.362 E393.9622
G1 X161.186 Y131.926
G1 X149.130 Y144.350 E394.5380
G1 X149.677 Y144.350
G1 X161.186 Y132.490 E395.0876
G1 X161.186 Y133.054
G1 X150.225 Y144.350 E395.6112
G1 X150.772 Y144.350
G1 X161.186 Y133.618 E396.1085
G1 X161.186 Y134.182
G1 X151.319 Y144.350 E396.5798
G1 X151.866 Y144.350
G1 X161.186 Y134.746 E397.0249
G1 X161.186 Y135.310
G1 X152.413 Y144.350 E397.4439
G1 X152.961 Y144.350
G1 X161.186 Y135.873 E397.8367
