; GCode generated by CraftWare

G28 X0 Y0
G28 Z0

M190 S70 ;set bed temp (wait)
M109 S220 ;set head temp (wait)
; ------------------------------------
; Layer #0
; ------------------------------------
G21 ; mm
G90 ; abs
G92 E0 ; reset extr
M106 S0
;segType:Skirt
G0 F4800 E-1.0000
G0 F300 Z0.200
G0 X109.679 Y118.263 F10800
G0 F4800 E0.0000
G1 X113.236 Y121.856 E0.1682 F600
G1 X113.427 Y121.921 E0.1749
G1 X113.617 Y122.113 E0.1839
G1 X114.253 Y122.370 E0.2066
G1 X115.015 Y122.626 E0.2334
G1 X123.654 Y122.626 E0.5207
G1 X126.195 Y120.060 E0.6408
G1 X133.309 Y120.060 E0.8775
G1 X133.754 Y120.124 E0.8924
G1 X136.041 Y122.434 E1.0005
G1 X136.358 Y122.626 E1.0129
G1 X144.997 Y122.626 E1.3002
G1 X145.124 Y122.498 E1.3062
G1 X145.378 Y122.498 E1.3147
G1 X145.505 Y122.370 E1.3207
G1 X145.759 Y122.370 E1.3291
G1 X146.712 Y121.792 E1.3662
G1 X150.269 Y118.199 E1.5343
G1 X150.650 Y117.558 E1.5591
G1 X151.031 Y116.403 E1.5996
G1 X151.031 Y83.552 E2.6922
G1 X151.031 Y77.906 E2.8800
G1 X150.904 Y77.778 E2.8860
G1 X150.904 Y77.521 E2.8945
G1 X150.777 Y77.393 E2.9005
G1 X150.777 Y77.136 E2.9091
G1 X150.650 Y77.008 E2.9151
G1 X150.650 Y76.751 E2.9236
G1 X150.396 Y76.495 E2.9356
G1 X150.206 Y76.174 E2.9480
G1 X146.648 Y72.581 E3.1162
G1 X146.013 Y72.196 E3.1409
G1 X145.632 Y72.068 E3.1543
G1 X145.505 Y71.939 E3.1603
G1 X145.251 Y71.939 E3.1687
G1 X145.124 Y71.811 E3.1747
G1 X144.616 Y71.811 E3.1916
G1 X143.726 Y71.683 E3.2215
G1 X136.358 Y71.683 E3.4666
G1 X133.309 Y74.762 E3.6107
G1 X126.703 Y74.762 E3.8305
G1 X126.385 Y74.570 E3.8428
G1 X123.590 Y71.747 E3.9750
G1 X123.146 Y71.683 E3.9899
G1 X116.031 Y71.683 E4.2265
G1 X114.698 Y71.875 E4.2713
G1 X114.316 Y72.003 E4.2847
G1 X113.999 Y72.196 E4.2971
G1 X113.744 Y72.196 E4.3055
G1 X113.490 Y72.453 E4.3175
G1 X113.173 Y72.645 E4.3299
G1 X109.616 Y76.238 E4.4980
G1 X109.235 Y76.880 E4.5229
G1 X108.854 Y78.034 E4.5633
G1 X108.854 Y110.885 E5.6559
G1 X108.854 Y116.018 E5.8266
G1 X108.981 Y116.916 E5.8568
G1 X109.108 Y117.044 E5.8628
G1 X109.108 Y117.301 E5.8714
G1 X109.235 Y117.429 E5.8774
G1 X109.235 Y117.686 E5.8859
G1 X109.489 Y117.943 E5.8979
G1 X109.679 Y118.263 E5.9103
G1 X109.298 Y118.263 E5.9230
G1 X113.109 Y122.113 E6.1032
G1 X113.427 Y122.306 E6.1155
G1 X113.617 Y122.498 E6.1245
G1 X114.253 Y122.755 E6.1473
G1 X115.015 Y123.011 E6.1741
G1 X123.654 Y123.011 E6.4614
G1 X126.195 Y120.445 E6.5815
G1 X133.309 Y120.445 E6.8181
G1 X133.754 Y120.509 E6.8331
G1 X136.041 Y122.819 E6.9412
G1 X136.358 Y123.011 E6.9535
G1 X144.997 Y123.011 E7.2409
G1 X145.124 Y122.883 E7.2469
G1 X145.378 Y122.883 E7.2553
G1 X145.505 Y122.755 E7.2613
G1 X145.759 Y122.755 E7.2698
G1 X146.712 Y122.177 E7.3068
G1 X150.777 Y118.071 E7.4990
G1 X150.904 Y117.686 E7.5125
G1 X151.095 Y117.365 E7.5249
G1 X151.349 Y116.595 E7.5519
G1 X151.412 Y116.146 E7.5669
G1 X151.412 Y83.296 E8.6596
G1 X151.412 Y81.294 E8.7262
G0 F4800 E7.7262
G0 X147.737 Y94.073 F10800
G0 X147.002 Y96.628
G0 X146.267 Y99.184
G0 X140.428 Y114.740
G0 X141.446 Y116.954
G0 F4800 E8.7262
;segType:HShell
G1 X140.478 Y117.931 E8.7719 F600
G1 X139.939 Y117.931
G1 X141.175 Y116.683 E8.8303
G1 X140.919 Y116.396
G1 X139.399 Y117.931 E8.9022
G1 X138.860 Y117.931
G1 X140.736 Y116.036 E8.9909
G1 X140.552 Y115.677
G1 X138.320 Y117.931 E9.0964
;segType:Perimeter
G0 X138.139 Y118.214 F10800
G1 X137.505 Y118.479 E9.1192 F359
G1 X137.505 Y75.772 E10.5397
G1 X143.291 Y75.772 E10.7321
G1 X144.147 Y75.868 E10.7608
G1 X144.950 Y76.149 E10.7891
G1 X145.670 Y76.602 E10.8174
G1 X146.271 Y77.203 E10.8457
G1 X146.723 Y77.923 E10.8739
G1 X147.004 Y78.724 E10.9022
G1 X147.100 Y79.580 E10.9308
G1 X147.100 Y114.729 E12.0999
G1 X147.004 Y115.585 E12.1285
G1 X146.723 Y116.386 E12.1568
G1 X146.271 Y117.106 E12.1850
G1 X145.670 Y117.707 E12.2133
G1 X144.950 Y118.160 E12.2416
G1 X144.147 Y118.441 E12.2699
G1 X143.291 Y118.537 E12.2985
G1 X137.562 Y118.537 E12.4891
G1 X137.825 Y117.896
;segType:Loop
G0 X137.905 Y117.477 F10800
G1 X137.905 Y76.176 E13.8628 F600
G1 X143.268 Y76.176 E14.0412
G1 X144.058 Y76.265 E14.0676
G1 X144.777 Y76.516 E14.0929
G1 X145.420 Y76.921 E14.1182
G1 X145.957 Y77.458 E14.1435
G1 X146.361 Y78.100 E14.1687
G1 X146.611 Y78.816 E14.1939
G1 X146.700 Y79.603 E14.2203
G1 X146.700 Y114.706 E15.3878
G1 X146.611 Y115.493 E15.4141
G1 X146.361 Y116.208 E15.4393
G1 X145.957 Y116.851 E15.4646
G1 X145.420 Y117.388 E15.4899
G1 X144.777 Y117.793 E15.5151
G1 X144.058 Y118.044 E15.5405
G1 X143.268 Y118.133 E15.5669
G1 X137.905 Y118.133 E15.7453
G1 X137.905 Y117.670 E15.7607
G0 X141.838 Y112.719 F10800
G0 X146.500 Y110.214
;segType:HShell
G1 X144.576 Y112.157 E15.8516 F600
G1 X144.935 Y112.340
G1 X146.500 Y110.759 E15.9256
G1 X146.500 Y111.304
G1 X145.224 Y112.593 E15.9859
G1 X145.495 Y112.864
G1 X146.500 Y111.849 E16.0335
G1 X146.500 Y112.394
G1 X145.730 Y113.172 E16.0699
G1 X145.913 Y113.532
G1 X146.500 Y112.939 E16.0976
G1 X146.500 Y113.484
G1 X146.079 Y113.909 E16.1175
G1 X146.154 Y114.379
G1 X146.500 Y114.029 E16.1339
G1 X146.500 Y114.574
G1 X146.187 Y114.890 E16.1487
G1 X146.085 Y115.538
G1 X146.446 Y115.173 E16.1658
;segType:Perimeter
G0 X146.051 Y115.143 F10800
G1 X145.464 Y115.504 E16.1887 F359
G1 X145.163 Y116.095 E16.2108
G1 X144.654 Y116.605 E16.2347
G1 X144.012 Y116.932 E16.2587
G1 X143.302 Y117.044 E16.2826
G1 X142.591 Y116.932 E16.3065
G1 X141.950 Y116.605 E16.3305
G1 X141.440 Y116.095 E16.3544
G1 X141.113 Y115.453 E16.3784
G1 X141.000 Y114.740 E16.4024
G1 X141.113 Y114.028 E16.4264
G1 X141.440 Y113.385 E16.4504
G1 X141.950 Y112.876 E16.4743
G1 X142.591 Y112.549 E16.4983
G1 X143.302 Y112.436 E16.5222
G1 X144.012 Y112.549 E16.5461
G1 X144.654 Y112.876 E16.5701
G1 X145.163 Y113.385 E16.5941
G1 X145.491 Y114.028 E16.6180
G1 X145.603 Y114.740 E16.6420
G1 X145.500 Y115.396 E16.6641
G1 X145.760 Y116.037
G0 F4800 E15.6641
G0 X145.208 Y116.619 F10800
G0 F4800 E16.6641
;segType:Loop
G1 X144.890 Y116.937 E16.6790 F600
G1 X144.137 Y117.321 E16.7072
G1 X143.302 Y117.453 E16.7353
G1 X142.467 Y117.321 E16.7634
G1 X141.713 Y116.937 E16.7915
G1 X141.114 Y116.337 E16.8197
G1 X140.728 Y115.580 E16.8480
G1 X140.595 Y114.740 E16.8763
G1 X140.728 Y113.901 E16.9045
G1 X141.114 Y113.143 E16.9328
G1 X141.713 Y112.544 E16.9610
G1 X142.467 Y112.159 E16.9891
G1 X143.302 Y112.027 E17.0172
G1 X144.137 Y112.159 E17.0454
G1 X144.890 Y112.544 E17.0735
G1 X145.490 Y113.143 E17.1017
G1 X145.875 Y113.901 E17.1300
G1 X146.008 Y114.740 E17.1582
G1 X145.875 Y115.580 E17.1865
G1 X145.490 Y116.337 E17.2148
G1 X145.343 Y116.484 E17.2217
G0 X145.672 Y115.513 F10800
G0 X145.794 Y114.740
G0 X138.105 Y80.546
;segType:HShell
G1 X142.231 Y76.378 E17.4168 F600
G1 X142.313 Y76.840
G1 X142.771 Y76.378 E17.4384
G1 X143.305 Y76.383
G1 X142.991 Y76.701 E17.4533
G1 X143.542 Y76.689
G1 X143.790 Y76.438 E17.4650
G1 X144.230 Y76.539
G1 X144.008 Y76.763 E17.4755
G1 X144.411 Y76.901
G1 X144.631 Y76.679 E17.4859
G1 X144.974 Y76.878
G1 X144.769 Y77.084 E17.4956
G1 X145.099 Y77.296
G1 X145.304 Y77.089 E17.5053
G1 X145.575 Y77.360
G1 X145.370 Y77.567 E17.5150
G1 X145.641 Y77.839
G1 X145.836 Y77.642 E17.5242
G1 X146.045 Y77.975
G1 X145.828 Y78.194 E17.5345
G1 X146.011 Y78.554
G1 X146.230 Y78.333 E17.5449
;segType:Perimeter
G0 X145.760 Y78.272 F10800
G1 X145.500 Y78.913 E17.5679 F359
G1 X145.603 Y79.569 E17.5900
G1 X145.491 Y80.281 E17.6140
G1 X145.163 Y80.924 E17.6379
G1 X144.654 Y81.433 E17.6619
G1 X144.012 Y81.760 E17.6859
G1 X143.302 Y81.873 E17.7098
G1 X142.591 Y81.760 E17.7337
G1 X141.950 Y81.433 E17.7577
G1 X141.440 Y80.924 E17.7816
G1 X141.113 Y80.281 E17.8056
G1 X141.000 Y79.569 E17.8296
G1 X141.113 Y78.856 E17.8536
G1 X141.440 Y78.214 E17.8776
G1 X141.950 Y77.704 E17.9015
G1 X142.591 Y77.377 E17.9255
G1 X143.302 Y77.265 E17.9494
G1 X144.012 Y77.377 E17.9733
G1 X144.654 Y77.704 E17.9973
G1 X145.163 Y78.214 E18.0212
G1 X145.464 Y78.805 E18.0433
G1 X146.051 Y79.166
;segType:Loop
G0 X145.945 Y79.966 F10800
G1 X145.875 Y80.408 E18.0582 F600
G1 X145.490 Y81.166 E18.0865
G1 X144.890 Y81.765 E18.1147
G1 X144.137 Y82.150 E18.1428
G1 X143.302 Y82.282 E18.1709
G1 X142.467 Y82.150 E18.1990
G1 X141.713 Y81.765 E18.2272
G1 X141.114 Y81.166 E18.2554
G1 X140.728 Y80.408 E18.2836
G1 X140.595 Y79.569 E18.3119
G1 X140.728 Y78.729 E18.3402
G1 X141.114 Y77.972 E18.3684
G1 X141.713 Y77.372 E18.3966
G1 X142.467 Y76.988 E18.4248
G1 X143.302 Y76.856 E18.4529
G1 X144.137 Y76.988 E18.4810
G1 X144.890 Y77.372 E18.5091
G1 X145.490 Y77.972 E18.5373
G1 X145.875 Y78.729 E18.5656
G1 X146.008 Y79.569 E18.5939
G1 X145.975 Y79.776 E18.6009
;segType:HShell
G0 X146.132 Y80.068 F10800
G1 X146.500 Y79.696 E18.6183 F600
G1 X146.453 Y79.198
G1 X146.194 Y79.460 E18.6305
G1 X146.119 Y78.990
G1 X146.371 Y78.736 E18.6425
G0 X144.071 Y77.194 F10800
G0 X141.692 Y76.378
G1 X138.105 Y80.001 E18.8120 F600
G1 X138.105 Y79.456
G1 X141.152 Y76.378 E18.9561
G1 X140.613 Y76.378
G1 X138.105 Y78.911 E19.0747
G1 X138.105 Y78.366
G1 X140.073 Y76.378 E19.1677
G1 X139.534 Y76.378
G1 X138.105 Y77.821 E19.2353
G1 X138.105 Y77.276
G1 X138.994 Y76.378 E19.2773
G1 X138.455 Y76.378
G1 X138.105 Y76.731 E19.2938
G0 X140.567 Y78.604 F10800
G1 X138.105 Y81.091 E19.4102 F600
G0 X140.439 Y79.278 F10800
G1 X138.105 Y81.636 E19.5206 F600
G1 X138.105 Y82.181
G1 X140.434 Y79.828 E19.6307
G1 X140.508 Y80.298
G1 X138.105 Y82.726 E19.7443
G1 X138.105 Y83.271
G1 X140.651 Y80.699 E19.8647
G1 X140.834 Y81.059
G1 X138.105 Y83.816 E19.9937
G1 X138.105 Y84.361
G1 X141.050 Y81.386 E20.1330
G1 X141.321 Y81.657
G1 X138.105 Y84.906 E20.2850
G1 X138.105 Y85.451
G1 X141.592 Y81.928 E20.4499
G1 X141.950 Y82.112
G1 X138.105 Y85.996 E20.6316
G1 X138.105 Y86.541
G1 X142.308 Y82.295 E20.8303
G1 X142.745 Y82.398
G1 X138.105 Y87.086 E21.0497
G1 X138.105 Y87.631
G1 X143.212 Y82.472 E21.2912
G1 X143.818 Y82.405
G1 X138.105 Y88.176 E21.5613
G1 X138.105 Y88.720
G1 X144.640 Y82.119 E21.8702
G0 X146.500 Y109.669 F10800
G1 X144.218 Y111.974 E21.9781 F600
G1 X143.757 Y111.895
G1 X146.500 Y109.124 E22.1078
G1 X146.500 Y108.579
G1 X143.287 Y111.825 E22.2597
G1 X142.647 Y111.926
G1 X146.500 Y108.034 E22.4419
G1 X146.500 Y107.489
G1 X141.727 Y112.311 E22.6675
G0 X143.302 Y112.243 F10800
G0 X144.071 Y112.365
G0 X144.765 Y112.719
G0 X145.317 Y113.271
G0 X145.672 Y113.968
G0 X146.252 Y115.915
G1 X144.512 Y117.672 E22.7498 F600
G1 X144.114 Y117.529
G1 X143.773 Y117.873 E22.7659
G1 X143.176 Y117.931
G1 X143.474 Y117.630 E22.7799
G1 X142.961 Y117.604
G1 X142.637 Y117.931 E22.7953
G1 X142.097 Y117.931
G1 X142.494 Y117.530 E22.8140
G1 X142.115 Y117.368
G1 X141.558 Y117.931 E22.8404
G1 X141.018 Y117.931
G1 X141.757 Y117.185 E22.8753
G0 X138.105 Y117.604 F10800
G1 X140.468 Y115.217 E22.9871 F600
G1 X140.394 Y114.747
G1 X138.105 Y117.059 E23.0953
G1 X138.105 Y116.514
G1 X140.494 Y114.101 E23.2082
G0 X140.875 Y113.171 F10800
G1 X138.105 Y115.969 E23.3392 F600
G1 X138.105 Y115.424
G1 X146.500 Y106.944 E23.7361
G1 X146.500 Y106.399
G1 X138.105 Y114.879 E24.1329
G1 X138.105 Y114.334
G1 X146.500 Y105.854 E24.5298
G1 X146.500 Y105.309
G1 X138.105 Y113.789 E24.9267
G1 X138.105 Y113.244
G1 X146.500 Y104.764 E25.3236
G1 X146.500 Y104.219
G1 X138.105 Y112.699 E25.7205
G1 X138.105 Y112.154
G1 X146.500 Y103.674 E26.1173
G1 X146.500 Y103.129
G1 X138.105 Y111.609 E26.5142
G1 X138.105 Y111.064
G1 X146.500 Y102.584 E26.9111
G1 X146.500 Y102.039
G1 X138.105 Y110.519 E27.3080
G1 X138.105 Y109.974
G1 X146.500 Y101.495 E27.7048
G1 X146.500 Y100.950
G1 X138.105 Y109.429 E28.1017
G1 X138.105 Y108.884
G1 X146.500 Y100.405 E28.4986
G1 X146.500 Y99.860
G1 X138.105 Y108.339 E28.8955
G1 X138.105 Y107.794
G1 X146.500 Y99.315 E29.2924
G1 X146.500 Y98.770
G1 X138.105 Y107.249 E29.6892
G1 X138.105 Y106.705
G1 X146.500 Y98.225 E30.0861
G1 X146.500 Y97.680
G1 X138.105 Y106.160 E30.4830
G1 X138.105 Y105.615
G1 X146.500 Y97.135 E30.8799
G1 X146.500 Y96.590
G1 X138.105 Y105.070 E31.2768
G1 X138.105 Y104.525
G1 X146.500 Y96.045 E31.6736
G1 X146.500 Y95.500
G1 X138.105 Y103.980 E32.0705
G1 X138.105 Y103.435
G1 X146.500 Y94.955 E32.4674
G1 X146.500 Y94.410
G1 X138.105 Y102.890 E32.8643
G1 X138.105 Y102.345
G1 X146.500 Y93.865 E33.2612
G1 X146.500 Y93.320
G1 X138.105 Y101.800 E33.6580
G1 X138.105 Y101.255
G1 X146.500 Y92.775 E34.0549
G1 X146.500 Y92.230
G1 X138.105 Y100.710 E34.4518
G1 X138.105 Y100.165
G1 X146.500 Y91.685 E34.8487
G1 X146.500 Y91.140
G1 X138.105 Y99.620 E35.2455
G1 X138.105 Y99.075
G1 X146.500 Y90.595 E35.6424
G1 X146.500 Y90.050
G1 X138.105 Y98.530 E36.0393
G1 X138.105 Y97.985
G1 X146.500 Y89.505 E36.4362
G1 X146.500 Y88.960
G1 X138.105 Y97.440 E36.8331
G1 X138.105 Y96.895
G1 X146.500 Y88.415 E37.2299
G1 X146.500 Y87.870
G1 X138.105 Y96.350 E37.6268
G1 X138.105 Y95.805
G1 X146.500 Y87.325 E38.0237
G1 X146.500 Y86.780
G1 X138.105 Y95.260 E38.4206
G1 X138.105 Y94.715
G1 X146.500 Y86.235 E38.8174
G1 X146.500 Y85.690
G1 X138.105 Y94.170 E39.2143
G1 X138.105 Y93.625
G1 X146.500 Y85.145 E39.6112
G1 X146.500 Y84.600
G1 X138.105 Y93.080 E40.0081
G1 X138.105 Y92.535
G1 X146.500 Y84.055 E40.4050
G1 X146.500 Y83.511
G1 X138.105 Y91.990 E40.8018
G1 X138.105 Y91.445
G1 X146.500 Y82.966 E41.1987
G1 X146.500 Y82.421
G1 X138.105 Y90.900 E41.5956
G1 X138.105 Y90.355
G1 X146.500 Y81.876 E41.9925
G1 X146.500 Y81.331
G1 X138.105 Y89.810 E42.3893
G1 X138.105 Y89.265
G1 X146.500 Y80.786 E42.7862
G1 X146.500 Y80.241
G1 X145.853 Y80.894 E42.8168
;segType:Support
G0 F4800 E41.8168
G0 X135.400 Y118.000 F10800
G0 F4800 E42.8168
G1 X123.307 Y118.000 E43.1587 F900
G1 X123.307 Y116.200 E43.2096
G1 X135.400 Y116.200 E43.5515
G1 X135.400 Y114.400 E43.6024
G1 X123.307 Y114.400 E43.9442
G1 X123.307 Y112.600 E43.9951
G1 X135.400 Y112.600 E44.3370
G1 X135.400 Y110.800 E44.3879
G1 X123.307 Y110.800 E44.7298
G1 X123.307 Y109.000 E44.7807
G1 X135.400 Y109.000 E45.1226
G1 X135.400 Y107.200 E45.1735
G1 X123.307 Y107.200 E45.5154
G1 X123.307 Y105.400 E45.5662
G1 X135.400 Y105.400 E45.9081
G1 X135.400 Y103.600 E45.9590
G1 X123.307 Y103.600 E46.3009
G1 X123.307 Y101.800 E46.3518
G1 X135.400 Y101.800 E46.6937
G1 X135.400 Y100.000 E46.7446
G1 X123.307 Y100.000 E47.0865
G1 X123.307 Y98.200 E47.1373
G1 X135.400 Y98.200 E47.4792
G0 F4800 E46.4792
G0 X135.400 Y92.800 F10800
G0 F4800 E47.4792
G1 X123.307 Y92.800 E47.8211 F900
G1 X123.307 Y94.600 E47.8720
G1 X135.400 Y94.600 E48.2139
G1 X135.400 Y96.400 E48.2648
G1 X123.307 Y96.400 E48.6067
G0 F4800 E47.6067
G0 X122.957 Y101.704 F10800
G0 X122.782 Y104.356
G0 X122.257 Y112.312
G0 X122.082 Y114.964
G0 X121.907 Y117.616
G0 F4800 E48.6067
;segType:HShell
G1 X121.595 Y117.931 E48.6214 F600
;segType:Loop
G0 X121.458 Y118.133 F10800
G1 X116.743 Y118.133 E48.7782 F600
G1 X115.954 Y118.044 E48.8047
G1 X115.235 Y117.793 E48.8300
G1 X114.592 Y117.388 E48.8553
G1 X114.054 Y116.851 E48.8805
G1 X113.651 Y116.209 E48.9058
G1 X113.401 Y115.493 E48.9310
G1 X113.312 Y114.706 E48.9573
G1 X113.312 Y79.603 E50.1248
G1 X113.401 Y78.816 E50.1512
G1 X113.651 Y78.100 E50.1764
G1 X114.054 Y77.458 E50.2017
G1 X114.591 Y76.921 E50.2269
G1 X115.235 Y76.516 E50.2522
G1 X115.954 Y76.265 E50.2775
G1 X116.743 Y76.176 E50.3040
G1 X122.107 Y76.176 E50.4824
G1 X122.107 Y118.133 E51.8779
G1 X121.649 Y118.133 E51.8931
;segType:Perimeter
G0 X122.187 Y117.896 F10800
G1 X122.450 Y118.537 E51.9161 F359
G1 X116.721 Y118.537 E52.1067
G1 X115.865 Y118.441 E52.1353
G1 X115.062 Y118.160 E52.1636
G1 X114.342 Y117.707 E52.1919
G1 X113.741 Y117.106 E52.2202
G1 X113.289 Y116.386 E52.2485
G1 X113.008 Y115.585 E52.2767
G1 X112.912 Y114.729 E52.3054
G1 X112.912 Y79.580 E53.4744
G1 X113.008 Y78.724 E53.5030
G1 X113.289 Y77.923 E53.5313
G1 X113.741 Y77.203 E53.5596
G1 X114.342 Y76.602 E53.5878
G1 X115.062 Y76.149 E53.6161
G1 X115.865 Y75.868 E53.6444
G1 X116.721 Y75.772 E53.6731
G1 X122.507 Y75.772 E53.8655
G1 X122.507 Y118.479 E55.2860
G1 X121.872 Y118.214
;segType:HShell
G0 X119.405 Y115.783 F10800
G1 X121.907 Y113.256 E55.4043 F600
G1 X121.907 Y112.711
G1 X119.566 Y115.076 E55.5149
;segType:Loop
G0 X118.616 Y116.619 F10800
G1 X118.298 Y116.937 E55.5299 F600
G1 X117.545 Y117.321 E55.5580
G1 X116.710 Y117.453 E55.5861
G1 X115.875 Y117.321 E55.6142
G1 X115.121 Y116.937 E55.6424
G1 X114.522 Y116.337 E55.6706
G1 X114.136 Y115.580 E55.6988
G1 X114.004 Y114.740 E55.7271
G1 X114.136 Y113.901 E55.7554
G1 X114.522 Y113.143 E55.7836
G1 X115.121 Y112.544 E55.8118
G1 X115.875 Y112.159 E55.8400
G1 X116.710 Y112.027 E55.8681
G1 X117.545 Y112.159 E55.8962
G1 X118.298 Y112.544 E55.9243
G1 X118.898 Y113.143 E55.9525
G1 X119.283 Y113.901 E55.9808
G1 X119.416 Y114.740 E56.0091
G1 X119.283 Y115.580 E56.0374
G1 X118.898 Y116.337 E56.0656
G1 X118.751 Y116.484 E56.0725
;segType:Perimeter
G0 X119.459 Y115.143 F10800
G1 X118.872 Y115.504 E56.0954 F359
G1 X118.571 Y116.095 E56.1175
G1 X118.062 Y116.605 E56.1415
G1 X117.420 Y116.932 E56.1654
G1 X116.710 Y117.044 E56.1893
G1 X115.999 Y116.932 E56.2133
G1 X115.358 Y116.605 E56.2372
G1 X114.848 Y116.095 E56.2612
G1 X114.521 Y115.453 E56.2852
G1 X114.408 Y114.740 E56.3092
G1 X114.521 Y114.028 E56.3331
G1 X114.848 Y113.385 E56.3571
G1 X115.358 Y112.876 E56.3811
G1 X115.999 Y112.549 E56.4050
G1 X116.710 Y112.436 E56.4290
G1 X117.420 Y112.549 E56.4529
G1 X118.062 Y112.876 E56.4768
G1 X118.571 Y113.385 E56.5008
G1 X118.899 Y114.028 E56.5248
G1 X119.011 Y114.740 E56.5488
G1 X118.908 Y115.396 E56.5709
G1 X119.168 Y116.037
;segType:HShell
G0 X119.571 Y76.378 F10800
G1 X118.585 Y77.374 E56.6175 F600
G1 X118.856 Y77.645
G1 X120.110 Y76.378 E56.6768
G1 X120.650 Y76.378
G1 X119.105 Y77.938 E56.7498
G1 X119.289 Y78.298
G1 X121.190 Y76.378 E56.8397
G1 X121.729 Y76.378
G1 X119.472 Y78.658 E56.9464
;segType:Perimeter
G0 X119.168 Y78.272 F10800
G1 X118.908 Y78.913 E56.9694 F359
G1 X119.011 Y79.569 E56.9915
G1 X118.899 Y80.281 E57.0155
G1 X118.571 Y80.924 E57.0395
G1 X118.062 Y81.433 E57.0634
G1 X117.420 Y81.760 E57.0874
G1 X116.710 Y81.873 E57.1113
G1 X115.999 Y81.760 E57.1352
G1 X115.358 Y81.433 E57.1592
G1 X114.848 Y80.924 E57.1831
G1 X114.521 Y80.281 E57.2071
G1 X114.408 Y79.569 E57.2311
G1 X114.521 Y78.856 E57.2551
G1 X114.848 Y78.214 E57.2791
G1 X115.358 Y77.704 E57.3031
G1 X115.999 Y77.377 E57.3270
G1 X116.710 Y77.265 E57.3509
G1 X117.420 Y77.377 E57.3749
G1 X118.062 Y77.704 E57.3988
G1 X118.571 Y78.214 E57.4228
G1 X118.872 Y78.805 E57.4448
G1 X119.459 Y79.166
;segType:Loop
G0 X119.353 Y79.966 F10800
G1 X119.283 Y80.408 E57.4597 F600
G1 X118.898 Y81.166 E57.4880
G1 X118.298 Y81.765 E57.5162
G1 X117.545 Y82.150 E57.5443
G1 X116.710 Y82.282 E57.5724
G1 X115.875 Y82.150 E57.6006
G1 X115.121 Y81.765 E57.6287
G1 X114.522 Y81.166 E57.6569
G1 X114.136 Y80.408 E57.6852
G1 X114.004 Y79.569 E57.7134
G1 X114.136 Y78.729 E57.7417
G1 X114.522 Y77.972 E57.7700
G1 X115.121 Y77.372 E57.7982
G1 X115.875 Y76.988 E57.8263
G1 X116.710 Y76.856 E57.8544
G1 X117.545 Y76.988 E57.8825
G1 X118.298 Y77.372 E57.9107
G1 X118.898 Y77.972 E57.9389
G1 X119.283 Y78.729 E57.9671
G1 X119.416 Y79.569 E57.9954
G1 X119.383 Y79.776 E58.0024
;segType:HShell
G0 X119.549 Y79.125 F10800
G1 X121.907 Y76.743 E58.1139 F600
G1 X121.907 Y77.288
G1 X119.613 Y79.605 E58.2223
G1 X119.511 Y80.254
G1 X121.907 Y77.833 E58.3356
G1 X121.907 Y78.378
G1 X119.097 Y81.216 E58.4685
G0 X118.361 Y81.960 F10800
G1 X113.512 Y86.858 E58.6977 F600
G1 X113.512 Y87.403
G1 X121.907 Y78.923 E59.0946
G1 X121.907 Y79.468
G1 X113.512 Y87.948 E59.4915
G1 X113.512 Y88.493
G1 X121.907 Y80.013 E59.8883
G1 X121.907 Y80.558
G1 X113.512 Y89.038 E60.2852
G1 X113.512 Y89.583
G1 X121.907 Y81.103 E60.6821
G1 X121.907 Y81.648
G1 X113.512 Y90.128 E61.0790
G1 X113.512 Y90.673
G1 X121.907 Y82.193 E61.4758
G1 X121.907 Y82.738
G1 X113.512 Y91.218 E61.8727
G1 X113.512 Y91.763
G1 X121.907 Y83.283 E62.2696
G1 X121.907 Y83.828
G1 X113.512 Y92.308 E62.6665
G1 X113.512 Y92.852
G1 X121.907 Y84.373 E63.0633
G1 X121.907 Y84.918
G1 X113.512 Y93.397 E63.4602
G1 X113.512 Y93.942
G1 X121.907 Y85.463 E63.8571
G1 X121.907 Y86.008
G1 X113.512 Y94.487 E64.2540
G1 X113.512 Y95.032
G1 X121.907 Y86.553 E64.6509
G1 X121.907 Y87.098
G1 X113.512 Y95.577 E65.0477
G1 X113.512 Y96.122
G1 X121.907 Y87.643 E65.4446
G1 X121.907 Y88.187
G1 X113.512 Y96.667 E65.8415
G1 X113.512 Y97.212
G1 X121.907 Y88.732 E66.2384
G1 X121.907 Y89.277
G1 X113.512 Y97.757 E66.6353
G1 X113.512 Y98.302
G1 X121.907 Y89.822 E67.0322
G1 X121.907 Y90.367
G1 X113.512 Y98.847 E67.4290
G1 X113.512 Y99.392
G1 X121.907 Y90.912 E67.8259
G1 X121.907 Y91.457
G1 X113.512 Y99.937 E68.2228
G1 X113.512 Y100.482
G1 X121.907 Y92.002 E68.6197
G1 X121.907 Y92.547
G1 X113.512 Y101.027 E69.0166
G1 X113.512 Y101.572
G1 X121.907 Y93.092 E69.4134
G1 X121.907 Y93.637
G1 X113.512 Y102.117 E69.8103
G1 X113.512 Y102.662
G1 X121.907 Y94.182 E70.2072
G1 X121.907 Y94.727
G1 X113.512 Y103.207 E70.6041
G1 X113.512 Y103.752
G1 X121.907 Y95.272 E71.0010
G1 X121.907 Y95.817
G1 X113.512 Y104.297 E71.3978
G1 X113.512 Y104.842
G1 X121.907 Y96.362 E71.7947
G1 X121.907 Y96.907
G1 X113.512 Y105.387 E72.1916
G1 X113.512 Y105.932
G1 X121.907 Y97.452 E72.5885
G1 X121.907 Y97.997
G1 X113.512 Y106.477 E72.9854
G1 X113.512 Y107.022
G1 X121.907 Y98.542 E73.3823
G1 X121.907 Y99.087
G1 X113.512 Y107.567 E73.7791
G1 X113.512 Y108.112
G1 X121.907 Y99.632 E74.1760
G1 X121.907 Y100.177
G1 X113.512 Y108.657 E74.5729
G1 X113.512 Y109.202
G1 X121.907 Y100.722 E74.9698
G1 X121.907 Y101.267
G1 X113.512 Y109.747 E75.3667
G1 X113.512 Y110.292
G1 X121.907 Y101.812 E75.7635
G1 X121.907 Y102.357
G1 X113.512 Y110.837 E76.1604
G1 X113.512 Y111.381
G1 X121.907 Y102.902 E76.5573
G1 X121.907 Y103.447
G1 X113.512 Y111.926 E76.9542
G1 X113.512 Y112.471
G1 X121.907 Y103.992 E77.3511
G1 X121.907 Y104.537
G1 X113.512 Y113.016 E77.7479
G1 X113.512 Y113.561
G1 X121.907 Y105.082 E78.1448
G1 X121.907 Y105.627
G1 X115.447 Y112.151 E78.4502
G0 X114.119 Y113.493 F10800
G1 X113.512 Y114.106 E78.4789 F600
G1 X113.512 Y114.651
G1 X113.873 Y114.287 E78.4959
G1 X113.823 Y114.882
G1 X113.563 Y115.145 E78.5083
G1 X113.650 Y115.601
G1 X113.898 Y115.352 E78.5200
G1 X114.013 Y115.780
G1 X113.791 Y116.004 E78.5304
G1 X113.981 Y116.357
G1 X114.196 Y116.140 E78.5406
G1 X114.390 Y116.489
G1 X114.191 Y116.690 E78.5500
G1 X114.456 Y116.968
G1 X114.661 Y116.760 E78.5597
G1 X114.932 Y117.032
G1 X114.729 Y117.237 E78.5693
G1 X115.061 Y117.446
G1 X115.268 Y117.237 E78.5791
G1 X115.626 Y117.420
G1 X115.409 Y117.640 E78.5894
G1 X115.810 Y117.780
G1 X116.036 Y117.551 E78.6001
G1 X116.503 Y117.625
G1 X116.255 Y117.875 E78.6118
G1 X116.741 Y117.930
G1 X117.066 Y117.601 E78.6271
G1 X117.775 Y117.430
G1 X117.279 Y117.931 E78.6506
G1 X117.818 Y117.931
G1 X121.907 Y113.801 E78.8439
G1 X121.907 Y114.346
G1 X118.358 Y117.931 E79.0117
G1 X118.897 Y117.931
G1 X121.907 Y114.891 E79.1540
G1 X121.907 Y115.436
G1 X119.437 Y117.931 E79.2708
G1 X119.976 Y117.931
G1 X121.907 Y115.981 E79.3620
G1 X121.907 Y116.526
G1 X120.516 Y117.931 E79.4278
G1 X121.055 Y117.931
G1 X121.907 Y117.071 E79.4681
G0 X119.583 Y114.514 F10800
G1 X121.907 Y112.166 E79.5779 F600
G1 X121.907 Y111.621
G1 X119.509 Y114.044 E79.6913
G1 X119.373 Y113.635
G1 X121.907 Y111.076 E79.8111
G1 X121.907 Y110.531
G1 X119.190 Y113.275 E79.9395
G1 X118.981 Y112.942
G1 X121.907 Y109.986 E80.0778
G1 X121.907 Y109.441
G1 X118.710 Y112.671 E80.2290
G1 X118.439 Y112.400
G1 X121.907 Y108.896 E80.3929
G1 X121.907 Y108.351
G1 X118.087 Y112.210 E80.5735
G1 X117.729 Y112.027
G1 X121.907 Y107.806 E80.7710
G1 X121.907 Y107.261
G1 X117.299 Y111.916 E80.9889
G1 X116.833 Y111.842
G1 X121.907 Y106.716 E81.2288
G1 X121.907 Y106.172
G1 X116.238 Y111.897 E81.4968
G0 X117.410 Y82.375 F10800
G1 X113.512 Y86.313 E81.6810 F600
G1 X113.512 Y85.768
G1 X116.770 Y82.477 E81.8351
G1 X116.287 Y82.419
G1 X113.512 Y85.223 E81.9663
G1 X113.512 Y84.678
G1 X115.821 Y82.346 E82.0754
G1 X115.461 Y82.165
G1 X113.512 Y84.133 E82.1676
G1 X113.512 Y83.588
G1 X115.102 Y81.982 E82.2428
G1 X114.807 Y81.735
G1 X113.512 Y83.043 E82.3040
G1 X113.512 Y82.498
G1 X114.536 Y81.464 E82.3524
G1 X114.295 Y81.162
G1 X113.512 Y81.953 E82.3894
G1 X113.512 Y81.408
G1 X114.112 Y80.802 E82.4178
G1 X113.938 Y80.433
G1 X113.512 Y80.863 E82.4379
G1 X113.512 Y80.318
G1 X113.863 Y79.963 E82.4545
G1 X113.818 Y79.464
G1 X113.512 Y79.773 E82.4690
G1 X113.561 Y79.179
G1 X113.920 Y78.816 E82.4860
G1 X113.740 Y78.453
G1 X115.557 Y76.617 E82.5719
G1 X116.281 Y76.431
G1 X115.943 Y76.773 E82.5879
G1 X116.583 Y76.671
G1 X116.873 Y76.378 E82.6016
G1 X117.413 Y76.378
G1 X117.083 Y76.710 E82.6172
G1 X117.550 Y76.784
G1 X117.952 Y76.378 E82.6362
G1 X118.492 Y76.378
G1 X117.922 Y76.954 E82.6632
G1 X118.280 Y77.137
G1 X119.031 Y76.378 E82.6987
;segType:Support
G0 F4800 E81.6987
G0 X123.307 Y76.600 F10800
G0 F4800 E82.6987
G1 X135.400 Y76.600 E83.0406 F900
G1 X135.400 Y78.400 E83.0915
G1 X123.307 Y78.400 E83.4334
G1 X123.307 Y80.200 E83.4842
G1 X135.400 Y80.200 E83.8261
G1 X135.400 Y82.000 E83.8770
G1 X123.307 Y82.000 E84.2189
G1 X123.307 Y83.800 E84.2698
G1 X135.400 Y83.800 E84.6117
G1 X135.400 Y85.600 E84.6626
G1 X123.307 Y85.600 E85.0045
G1 X123.307 Y87.400 E85.0553
G1 X135.400 Y87.400 E85.3972
G1 X135.400 Y89.200 E85.4481
G1 X123.307 Y89.200 E85.7900
G1 X123.307 Y91.000 E85.8409
G1 X135.400 Y91.000 E86.1828
; ------------------------------------
; Layer #1
; ------------------------------------
G21 ; mm
G90 ; abs
G92 E0 ; reset extr
M106 S255
;segType:Support
G0 F4800 E-1.0000
G0 F300 Z0.400
G0 X135.400 Y91.000 F10800
G0 F4800 E0.0000
G1 X123.307 Y91.000 E0.3419 F5400
G0 F4800 E-0.6581
G0 X135.400 Y89.200 F10800
G0 F4800 E0.3419
G1 X123.307 Y89.200 E0.6838 F5400
G1 X123.307 Y87.400 E0.7347
G1 X135.400 Y87.400 E1.0765
G1 X135.400 Y85.600 E1.1274
G1 X123.307 Y85.600 E1.4693
G1 X123.307 Y83.800 E1.5202
G1 X135.400 Y83.800 E1.8621
G1 X135.400 Y82.000 E1.9130
G1 X123.307 Y82.000 E2.2549
G1 X123.307 Y80.200 E2.3058
G1 X135.400 Y80.200 E2.6476
G0 F4800 E1.6476
G0 X135.400 Y76.600 F10800
G0 F4800 E2.6476
G1 X123.307 Y76.600 E2.9895 F5400
G0 F4800 E1.9895
G0 X135.400 Y78.400 F10800
G0 F4800 E2.9895
G1 X123.307 Y78.400 E3.3314 F5400
G0 F4800 E2.3314
G0 X123.035 Y80.941 F10800
G0 X122.763 Y83.483
G0 X122.491 Y86.024
G0 X122.219 Y88.566
G0 X119.499 Y113.980
G0 F4800 E3.3314
;segType:HShell
G1 X121.907 Y116.413 E3.4453 F3600
G1 X121.907 Y116.958
G1 X119.601 Y114.629 E3.5543
G1 X119.557 Y115.129
G1 X121.907 Y117.503 E3.6654
;segType:Perimeter
G0 X122.187 Y117.896 F10800
G1 X122.450 Y118.537 E3.6884 F2159
G1 X116.721 Y118.537 E3.8789
G1 X115.865 Y118.441 E3.9076
G1 X115.062 Y118.160 E3.9359
G1 X114.342 Y117.707 E3.9642
G1 X113.741 Y117.106 E3.9924
G1 X113.289 Y116.386 E4.0207
G1 X113.008 Y115.585 E4.0490
G1 X112.912 Y114.729 E4.0776
G1 X112.912 Y79.580 E5.2466
G1 X113.008 Y78.724 E5.2753
G1 X113.289 Y77.923 E5.3035
G1 X113.741 Y77.203 E5.3318
G1 X114.342 Y76.602 E5.3601
G1 X115.062 Y76.149 E5.3884
G1 X115.865 Y75.868 E5.4167
G1 X116.721 Y75.772 E5.4453
G1 X122.507 Y75.772 E5.6378
G1 X122.507 Y118.479 E7.0582
G1 X121.872 Y118.214
;segType:Loop
G0 X121.458 Y118.133 F10800
G1 X116.743 Y118.133 E7.2150 F3600
G1 X115.954 Y118.044 E7.2415
G1 X115.235 Y117.793 E7.2668
G1 X114.592 Y117.388 E7.2921
G1 X114.054 Y116.851 E7.3173
G1 X113.651 Y116.209 E7.3426
G1 X113.401 Y115.493 E7.3678
G1 X113.312 Y114.706 E7.3941
G1 X113.312 Y79.603 E8.5616
G1 X113.401 Y78.816 E8.5880
G1 X113.651 Y78.100 E8.6132
G1 X114.054 Y77.458 E8.6384
G1 X114.591 Y76.921 E8.6637
G1 X115.235 Y76.516 E8.6890
G1 X115.954 Y76.265 E8.7143
G1 X116.743 Y76.176 E8.7407
G1 X122.107 Y76.176 E8.9191
G1 X122.107 Y118.133 E10.3146
G1 X121.649 Y118.133 E10.3299
;segType:HShell
G0 X121.792 Y117.931 F10800
G1 X119.483 Y115.599 E10.4390 F3600
;segType:Loop
G0 X118.616 Y116.619 F10800
G1 X118.298 Y116.937 E10.4539 F3600
G1 X117.545 Y117.321 E10.4821
G1 X116.710 Y117.453 E10.5102
G1 X115.875 Y117.321 E10.5383
G1 X115.121 Y116.937 E10.5664
G1 X114.522 Y116.337 E10.5946
G1 X114.136 Y115.580 E10.6229
G1 X114.004 Y114.740 E10.6512
G1 X114.136 Y113.901 E10.6795
G1 X114.522 Y113.143 E10.7077
G1 X115.121 Y112.544 E10.7359
G1 X115.875 Y112.159 E10.7641
G1 X116.710 Y112.027 E10.7922
G1 X117.545 Y112.159 E10.8203
G1 X118.298 Y112.544 E10.8484
G1 X118.898 Y113.143 E10.8766
G1 X119.283 Y113.901 E10.9049
G1 X119.416 Y114.740 E10.9332
G1 X119.283 Y115.580 E10.9614
G1 X118.898 Y116.337 E10.9897
G1 X118.751 Y116.484 E10.9966
;segType:Perimeter
G0 X119.459 Y115.143 F10800
G1 X118.872 Y115.504 E11.0195 F2159
G1 X118.571 Y116.095 E11.0416
G1 X118.062 Y116.605 E11.0655
G1 X117.420 Y116.932 E11.0895
G1 X116.710 Y117.044 E11.1134
G1 X115.999 Y116.932 E11.1373
G1 X115.358 Y116.605 E11.1613
G1 X114.848 Y116.095 E11.1852
G1 X114.521 Y115.453 E11.2092
G1 X114.408 Y114.740 E11.2332
G1 X114.521 Y114.028 E11.2572
G1 X114.848 Y113.385 E11.2812
G1 X115.358 Y112.876 E11.3052
G1 X115.999 Y112.549 E11.3291
G1 X116.710 Y112.436 E11.3530
G1 X117.420 Y112.549 E11.3770
G1 X118.062 Y112.876 E11.4009
G1 X118.571 Y113.385 E11.4249
G1 X118.899 Y114.028 E11.4489
G1 X119.011 Y114.740 E11.4728
G1 X118.908 Y115.396 E11.4949
G1 X119.168 Y116.037
;segType:HShell
G0 X121.907 Y79.900 F10800
G1 X118.420 Y76.378 E11.6598 F3600
G1 X117.881 Y76.378
G1 X121.907 Y80.445 E11.8501
G1 X121.907 Y80.990
G1 X119.339 Y78.396 E11.9715
;segType:Perimeter
G0 X119.168 Y78.272 F10800
G1 X118.908 Y78.913 E11.9946 F2159
G1 X119.011 Y79.569 E12.0166
G1 X118.899 Y80.281 E12.0406
G1 X118.571 Y80.924 E12.0646
G1 X118.062 Y81.433 E12.0886
G1 X117.420 Y81.760 E12.1125
G1 X116.710 Y81.873 E12.1364
G1 X115.999 Y81.760 E12.1604
G1 X115.358 Y81.433 E12.1843
G1 X114.848 Y80.924 E12.2083
G1 X114.521 Y80.281 E12.2323
G1 X114.408 Y79.569 E12.2563
G1 X114.521 Y78.856 E12.2803
G1 X114.848 Y78.214 E12.3042
G1 X115.358 Y77.704 E12.3282
G1 X115.999 Y77.377 E12.3521
G1 X116.710 Y77.265 E12.3761
G1 X117.420 Y77.377 E12.4000
G1 X118.062 Y77.704 E12.4240
G1 X118.571 Y78.214 E12.4479
G1 X118.872 Y78.805 E12.4700
G1 X119.459 Y79.166
;segType:Loop
G0 X119.353 Y79.966 F10800
G1 X119.283 Y80.408 E12.4849 F3600
G1 X118.898 Y81.166 E12.5131
G1 X118.298 Y81.765 E12.5413
G1 X117.545 Y82.150 E12.5695
G1 X116.710 Y82.282 E12.5976
G1 X115.875 Y82.150 E12.6257
G1 X115.121 Y81.765 E12.6538
G1 X114.522 Y81.166 E12.6820
G1 X114.136 Y80.408 E12.7103
G1 X114.004 Y79.569 E12.7386
G1 X114.136 Y78.729 E12.7668
G1 X114.522 Y77.972 E12.7951
G1 X115.121 Y77.372 E12.8233
G1 X115.875 Y76.988 E12.8514
G1 X116.710 Y76.856 E12.8796
G1 X117.545 Y76.988 E12.9077
G1 X118.298 Y77.372 E12.9358
G1 X118.898 Y77.972 E12.9640
G1 X119.283 Y78.729 E12.9923
G1 X119.416 Y79.569 E13.0205
G1 X119.383 Y79.776 E13.0275
;segType:HShell
G0 X119.554 Y79.158 F10800
G1 X121.907 Y81.535 E13.1388 F3600
G1 X121.907 Y82.080
G1 X119.591 Y79.741 E13.2482
G1 X119.517 Y80.211
G1 X121.907 Y82.625 E13.3612
G1 X121.907 Y83.170
G1 X119.395 Y80.632 E13.4800
G1 X119.211 Y80.992
G1 X121.907 Y83.715 E13.6074
G1 X121.907 Y84.260
G1 X119.012 Y81.336 E13.7442
G1 X118.741 Y81.607
G1 X121.907 Y84.805 E13.8939
G1 X121.907 Y85.349
G1 X118.470 Y81.878 E14.0564
G1 X118.129 Y82.078
G1 X121.907 Y85.894 E14.2350
G1 X121.907 Y86.439
G1 X117.770 Y82.261 E14.4306
G1 X117.353 Y82.384
G1 X121.907 Y86.984 E14.6459
G1 X121.907 Y87.529
G1 X116.887 Y82.458 E14.8832
G1 X116.312 Y82.423
G1 X121.907 Y88.074 E15.1477
G1 X121.907 Y88.619
G1 X115.574 Y82.222 E15.4471
G0 X119.310 Y115.970 F10800
G1 X121.252 Y117.931 E15.5389 F3600
G1 X120.712 Y117.931
G1 X119.127 Y116.329 E15.6139
G1 X118.887 Y116.632
G1 X120.173 Y117.931 E15.6746
G1 X119.633 Y117.931
G1 X118.616 Y116.903 E15.7227
G1 X118.322 Y117.151
G1 X119.094 Y117.931 E15.7593
G1 X118.554 Y117.931
G1 X117.963 Y117.334 E15.7872
G1 X117.604 Y117.516
G1 X118.015 Y117.931 E15.8066
G1 X117.475 Y117.931
G1 X117.137 Y117.590 E15.8226
G1 X116.657 Y117.649
G1 X116.936 Y117.931 E15.8358
G1 X116.351 Y117.886
G1 X116.017 Y117.548 E15.8516
G1 X115.653 Y117.725
G1 X115.070 Y117.137 E15.8791
G0 X114.316 Y116.375 F10800
G1 X113.705 Y115.758 E15.9080 F3600
G1 X113.553 Y115.059
G1 X113.908 Y115.418 E15.9248
G1 X113.806 Y114.770
G1 X113.512 Y114.473 E15.9387
G1 X113.512 Y113.928
G1 X113.872 Y114.291 E15.9557
G1 X113.950 Y113.825
G1 X113.512 Y113.383 E15.9764
G1 X113.512 Y112.838
G1 X114.133 Y113.465 E16.0058
G1 X114.316 Y113.105
G1 X113.512 Y112.293 E16.0438
G1 X113.512 Y111.748
G1 X114.567 Y112.814 E16.0937
G1 X114.838 Y112.543
G1 X113.512 Y111.203 E16.1564
G1 X113.512 Y110.658
G1 X115.143 Y112.306 E16.2336
G1 X115.502 Y112.123
G1 X113.512 Y110.113 E16.3277
G1 X113.512 Y109.568
G1 X115.875 Y111.955 E16.4394
G1 X116.341 Y111.881
G1 X113.512 Y109.023 E16.5731
G1 X113.512 Y108.478
G1 X116.844 Y111.844 E16.7307
G1 X117.484 Y111.945
G1 X113.512 Y107.933 E16.9185
G1 X113.512 Y107.388
G1 X121.907 Y115.868 E17.3153
G1 X121.907 Y115.323
G1 X113.512 Y106.843 E17.7122
G1 X113.512 Y106.298
G1 X121.907 Y114.778 E18.1091
G1 X121.907 Y114.233
G1 X113.512 Y105.753 E18.5060
G1 X113.512 Y105.208
G1 X121.907 Y113.688 E18.9029
G1 X121.907 Y113.143
G1 X113.512 Y104.663 E19.2997
G1 X113.512 Y104.118
G1 X121.907 Y112.598 E19.6966
G1 X121.907 Y112.053
G1 X113.512 Y103.573 E20.0935
G1 X113.512 Y103.028
G1 X121.907 Y111.508 E20.4904
G1 X121.907 Y110.963
G1 X113.512 Y102.483 E20.8873
G1 X113.512 Y101.938
G1 X121.907 Y110.418 E21.2841
G1 X121.907 Y109.873
G1 X113.512 Y101.393 E21.6810
G1 X113.512 Y100.848
G1 X121.907 Y109.328 E22.0779
G1 X121.907 Y108.783
G1 X113.512 Y100.303 E22.4748
G1 X113.512 Y99.758
G1 X121.907 Y108.238 E22.8716
G1 X121.907 Y107.693
G1 X113.512 Y99.213 E23.2685
G1 X113.512 Y98.669
G1 X121.907 Y107.148 E23.6654
G1 X121.907 Y106.603
G1 X113.512 Y98.124 E24.0623
G1 X113.512 Y97.579
G1 X121.907 Y106.058 E24.4592
G1 X121.907 Y105.513
G1 X113.512 Y97.034 E24.8560
G1 X113.512 Y96.489
G1 X121.907 Y104.968 E25.2529
G1 X121.907 Y104.423
G1 X113.512 Y95.944 E25.6498
G1 X113.512 Y95.399
G1 X121.907 Y103.878 E26.0467
G1 X121.907 Y103.334
G1 X113.512 Y94.854 E26.4436
G1 X113.512 Y94.309
G1 X121.907 Y102.789 E26.8404
G1 X121.907 Y102.244
G1 X113.512 Y93.764 E27.2373
G1 X113.512 Y93.219
G1 X121.907 Y101.699 E27.6342
G1 X121.907 Y101.154
G1 X113.512 Y92.674 E28.0311
G1 X113.512 Y92.129
G1 X121.907 Y100.609 E28.4280
G1 X121.907 Y100.064
G1 X113.512 Y91.584 E28.8248
G1 X113.512 Y91.039
G1 X121.907 Y99.519 E29.2217
G1 X121.907 Y98.974
G1 X113.512 Y90.494 E29.6186
G1 X113.512 Y89.949
G1 X121.907 Y98.429 E30.0155
G1 X121.907 Y97.884
G1 X113.512 Y89.404 E30.4124
G1 X113.512 Y88.859
G1 X121.907 Y97.339 E30.8092
G1 X121.907 Y96.794
G1 X113.512 Y88.314 E31.2061
G1 X113.512 Y87.769
G1 X121.907 Y96.249 E31.6030
G1 X121.907 Y95.704
G1 X113.512 Y87.224 E31.9999
G1 X113.512 Y86.679
G1 X121.907 Y95.159 E32.3967
G1 X121.907 Y94.614
G1 X113.512 Y86.134 E32.7936
G1 X113.512 Y85.589
G1 X121.907 Y94.069 E33.1905
G1 X121.907 Y93.524
G1 X113.512 Y85.044 E33.5874
G1 X113.512 Y84.499
G1 X121.907 Y92.979 E33.9843
G1 X121.907 Y92.434
G1 X113.512 Y83.954 E34.3811
G1 X113.512 Y83.409
G1 X121.907 Y91.889 E34.7780
G1 X121.907 Y91.344
G1 X113.512 Y82.864 E35.1749
G1 X113.512 Y82.319
G1 X121.907 Y90.799 E35.5718
G1 X121.907 Y90.254
G1 X113.512 Y81.774 E35.9686
G1 X113.512 Y81.229
G1 X121.907 Y89.709 E36.3655
G1 X121.907 Y89.164
G1 X113.512 Y80.684 E36.7624
G1 X113.512 Y80.140
G1 X114.053 Y80.686 E36.7880
G1 X113.861 Y79.947
G1 X113.514 Y79.597 E36.8044
G1 X113.569 Y79.107
G1 X113.832 Y79.373 E36.8168
G1 X113.906 Y78.903
G1 X113.667 Y78.661 E36.8281
G1 X113.808 Y78.259
G1 X114.034 Y78.487 E36.8388
G1 X114.218 Y78.128
G1 X114.005 Y77.913 E36.8489
G1 X114.216 Y77.581
G1 X114.421 Y77.788 E36.8586
G1 X114.692 Y77.517
G1 X114.487 Y77.310 E36.8683
G1 X114.768 Y77.048
G1 X114.963 Y77.246 E36.8775
G1 X115.309 Y77.050
G1 X115.100 Y76.839 E36.8874
G1 X115.455 Y76.653
G1 X115.668 Y76.867 E36.8975
G1 X116.090 Y76.749
G1 X115.856 Y76.513 E36.9085
G1 X116.311 Y76.428
G1 X116.557 Y76.675 E36.9201
G1 X117.140 Y76.719
G1 X116.801 Y76.378 E36.9361
G1 X117.341 Y76.378
G1 X117.901 Y76.943 E36.9626
G0 X121.907 Y76.630 F10800
G1 X121.657 Y76.378 E36.9744 F3600
G1 X121.118 Y76.378
G1 X121.907 Y77.175 E37.0117
G1 X121.907 Y77.720
G1 X120.578 Y76.378 E37.0745
G1 X120.039 Y76.378
G1 X121.907 Y78.265 E37.1629
G1 X121.907 Y78.810
G1 X119.499 Y76.378 E37.2767
G1 X118.960 Y76.378
G1 X121.907 Y79.355 E37.4160
;segType:Support
G0 F4800 E36.4160
G0 X123.307 Y110.800 F10800
G0 F4800 E37.4160
G1 X135.400 Y110.800 E37.7579 F5400
G1 X135.400 Y112.600 E37.8088
G1 X123.307 Y112.600 E38.1507
G0 F4800 E37.1507
G0 X123.307 Y118.000 F10800
G0 F4800 E38.1507
G1 X135.400 Y118.000 E38.4926 F5400
G1 X135.400 Y116.200 E38.5435
G1 X123.307 Y116.200 E38.8853
G1 X123.307 Y114.400 E38.9362
G1 X135.400 Y114.400 E39.2781
;segType:HShell
G0 F4800 E38.2781
G0 X138.105 Y115.335 F10800
G0 F4800 E39.2781
G1 X140.675 Y117.931 E39.3996 F3600
G1 X140.136 Y117.931
G1 X138.105 Y115.880 E39.4956
G1 X138.105 Y116.425
G1 X139.596 Y117.931 E39.5661
G1 X139.057 Y117.931
G1 X138.105 Y116.970 E39.6111
G1 X138.105 Y117.515
G1 X138.517 Y117.931 E39.6306
;segType:Perimeter
G0 X138.139 Y118.214 F10800
G1 X137.505 Y118.479 E39.6535 F2159
G1 X137.505 Y75.772 E41.0740
G1 X143.291 Y75.772 E41.2664
G1 X144.147 Y75.868 E41.2951
G1 X144.950 Y76.149 E41.3234
G1 X145.670 Y76.602 E41.3516
G1 X146.271 Y77.203 E41.3799
G1 X146.723 Y77.923 E41.4082
G1 X147.004 Y78.724 E41.4364
G1 X147.100 Y79.580 E41.4651
G1 X147.100 Y114.729 E42.6341
G1 X147.004 Y115.585 E42.6628
G1 X146.723 Y116.386 E42.6910
G1 X146.271 Y117.106 E42.7193
G1 X145.670 Y117.707 E42.7476
G1 X144.950 Y118.160 E42.7758
G1 X144.147 Y118.441 E42.8041
G1 X143.291 Y118.537 E42.8328
G1 X137.562 Y118.537 E43.0233
G1 X137.825 Y117.896
;segType:Loop
G0 X137.905 Y117.477 F10800
G1 X137.905 Y76.176 E44.3970 F3600
G1 X143.268 Y76.176 E44.5754
G1 X144.058 Y76.265 E44.6019
G1 X144.777 Y76.516 E44.6272
G1 X145.420 Y76.921 E44.6525
G1 X145.957 Y77.458 E44.6777
G1 X146.361 Y78.100 E44.7030
G1 X146.611 Y78.816 E44.7282
G1 X146.700 Y79.603 E44.7545
G1 X146.700 Y114.706 E45.9220
G1 X146.611 Y115.493 E45.9484
G1 X146.361 Y116.208 E45.9736
G1 X145.957 Y116.851 E45.9988
G1 X145.420 Y117.388 E46.0241
G1 X144.777 Y117.793 E46.0494
G1 X144.058 Y118.044 E46.0747
G1 X143.268 Y118.133 E46.1011
G1 X137.905 Y118.133 E46.2795
G1 X137.905 Y117.670 E46.2949
;segType:HShell
G0 X138.105 Y113.700 F10800
G1 X142.294 Y117.931 E46.4930 F3600
G1 X142.833 Y117.931
G1 X142.425 Y117.519 E46.5123
G1 X143.065 Y117.620
G1 X143.361 Y117.919 E46.5263
G1 X143.847 Y117.865
G1 X143.596 Y117.611 E46.5381
G1 X144.062 Y117.537
G1 X144.277 Y117.754 E46.5483
G1 X144.677 Y117.614
G1 X144.452 Y117.386 E46.5589
G1 X144.811 Y117.204
G1 X145.012 Y117.407 E46.5684
G1 X145.335 Y117.189
G1 X145.130 Y116.981 E46.5782
G1 X145.401 Y116.710
G1 X145.607 Y116.917 E46.5879
G1 X145.860 Y116.629
G1 X145.666 Y116.433 E46.5970
G1 X145.849 Y116.073
G1 X146.069 Y116.295 E46.6074
G1 X146.247 Y115.929
G1 X146.033 Y115.713 E46.6175
G1 X146.128 Y115.264
G1 X146.388 Y115.527 E46.6298
G1 X146.460 Y115.054
G1 X146.202 Y114.794 E46.6420
;segType:Perimeter
G0 X146.051 Y115.143 F10800
G1 X145.464 Y115.504 E46.6649 F2159
G1 X145.163 Y116.095 E46.6870
G1 X144.654 Y116.605 E46.7109
G1 X144.012 Y116.932 E46.7349
G1 X143.302 Y117.044 E46.7588
G1 X142.591 Y116.932 E46.7827
G1 X141.950 Y116.605 E46.8067
G1 X141.440 Y116.095 E46.8306
G1 X141.113 Y115.453 E46.8546
G1 X141.000 Y114.740 E46.8786
G1 X141.113 Y114.028 E46.9026
G1 X141.440 Y113.385 E46.9266
G1 X141.950 Y112.876 E46.9505
G1 X142.591 Y112.549 E46.9745
G1 X143.302 Y112.436 E46.9984
G1 X144.012 Y112.549 E47.0224
G1 X144.654 Y112.876 E47.0463
G1 X145.163 Y113.385 E47.0703
G1 X145.491 Y114.028 E47.0942
G1 X145.603 Y114.740 E47.1182
G1 X145.500 Y115.396 E47.1403
G1 X145.760 Y116.037
G0 F4800 E46.1403
G0 X145.208 Y116.619 F10800
G0 F4800 E47.1403
;segType:Loop
G1 X144.890 Y116.937 E47.1552 F3600
G1 X144.137 Y117.321 E47.1834
G1 X143.302 Y117.453 E47.2115
G1 X142.467 Y117.321 E47.2396
G1 X141.713 Y116.937 E47.2677
G1 X141.114 Y116.337 E47.2959
G1 X140.728 Y115.580 E47.3242
G1 X140.595 Y114.740 E47.3525
G1 X140.728 Y113.901 E47.3807
G1 X141.114 Y113.143 E47.4090
G1 X141.713 Y112.544 E47.4372
G1 X142.467 Y112.159 E47.4653
G1 X143.302 Y112.027 E47.4935
G1 X144.137 Y112.159 E47.5216
G1 X144.890 Y112.544 E47.5497
G1 X145.490 Y113.143 E47.5779
G1 X145.875 Y113.901 E47.6062
G1 X146.008 Y114.740 E47.6344
G1 X145.875 Y115.580 E47.6627
G1 X145.490 Y116.337 E47.6910
G1 X145.343 Y116.484 E47.6979
G0 X145.672 Y115.513 F10800
G0 X145.794 Y114.740
G0 X140.810 Y79.569
G0 X140.940 Y77.871
;segType:HShell
G1 X139.462 Y76.378 E47.7678 F3600
G1 X140.001 Y76.378
G1 X141.206 Y77.595 E47.8247
G1 X141.478 Y77.324
G1 X140.541 Y76.378 E47.8690
G1 X141.080 Y76.378
G1 X141.798 Y77.103 E47.9030
G1 X142.157 Y76.920
G1 X141.620 Y76.378 E47.9283
G1 X142.160 Y76.378
G1 X142.548 Y76.771 E47.9467
G1 X143.015 Y76.697
G1 X142.699 Y76.378 E47.9616
G1 X143.239 Y76.378
G1 X143.548 Y76.690 E47.9763
G1 X144.188 Y76.792
G1 X143.844 Y76.444 E47.9925
G1 X144.608 Y76.671
G1 X146.218 Y78.297 E48.0686
;segType:Perimeter
G0 X145.760 Y78.272 F10800
G1 X145.500 Y78.913 E48.0917 F2159
G1 X145.603 Y79.569 E48.1138
G1 X145.491 Y80.281 E48.1377
G1 X145.163 Y80.924 E48.1617
G1 X144.654 Y81.433 E48.1857
G1 X144.012 Y81.760 E48.2096
G1 X143.302 Y81.873 E48.2336
G1 X142.591 Y81.760 E48.2575
G1 X141.950 Y81.433 E48.2814
G1 X141.440 Y80.924 E48.3054
G1 X141.113 Y80.281 E48.3294
G1 X141.000 Y79.569 E48.3534
G1 X141.113 Y78.856 E48.3774
G1 X141.440 Y78.214 E48.4014
G1 X141.950 Y77.704 E48.4253
G1 X142.591 Y77.377 E48.4493
G1 X143.302 Y77.265 E48.4732
G1 X144.012 Y77.377 E48.4971
G1 X144.654 Y77.704 E48.5211
G1 X145.163 Y78.214 E48.5450
G1 X145.464 Y78.805 E48.5671
G1 X146.051 Y79.166
;segType:Loop
G0 X145.945 Y79.966 F10800
G1 X145.875 Y80.408 E48.5820 F3600
G1 X145.490 Y81.166 E48.6102
G1 X144.890 Y81.765 E48.6384
G1 X144.137 Y82.150 E48.6666
G1 X143.302 Y82.282 E48.6947
G1 X142.467 Y82.150 E48.7228
G1 X141.713 Y81.765 E48.7509
G1 X141.114 Y81.166 E48.7791
G1 X140.728 Y80.408 E48.8074
G1 X140.595 Y79.569 E48.8357
G1 X140.728 Y78.729 E48.8640
G1 X141.114 Y77.972 E48.8922
G1 X141.713 Y77.372 E48.9204
G1 X142.467 Y76.988 E48.9486
G1 X143.302 Y76.856 E48.9767
G1 X144.137 Y76.988 E49.0048
G1 X144.890 Y77.372 E49.0329
G1 X145.490 Y77.972 E49.0611
G1 X145.875 Y78.729 E49.0894
G1 X146.008 Y79.569 E49.1177
G1 X145.975 Y79.776 E49.1246
G0 X144.071 Y81.944 F10800
G0 X143.302 Y82.065
G0 X142.533 Y81.944
G0 X140.808 Y81.008
;segType:HShell
G1 X138.105 Y78.277 E49.2525 F3600
G1 X138.105 Y77.732
G1 X140.482 Y80.133 E49.3649
G1 X140.403 Y79.508
G1 X138.105 Y77.187 E49.4735
G1 X138.105 Y76.642
G1 X140.477 Y79.038 E49.5856
G1 X140.574 Y78.591
G1 X138.383 Y76.378 E49.6892
G1 X138.922 Y76.378
G1 X140.757 Y78.231 E49.7759
G0 X142.533 Y77.194 F10800
G0 X143.302 Y77.072
G0 X144.071 Y77.194
G0 X144.765 Y77.548
G0 X146.073 Y78.696
G1 X146.438 Y79.065 E49.7932 F3600
G1 X146.500 Y79.672
G1 X146.175 Y79.344 E49.8086
G1 X146.162 Y79.876
G1 X146.500 Y80.217 E49.8245
G1 X146.500 Y80.762
G1 X146.088 Y80.346 E49.8440
G1 X145.934 Y80.735
G1 X146.500 Y81.307 E49.8708
G1 X146.500 Y81.852
G1 X145.751 Y81.095 E49.9062
G1 X145.526 Y81.414
G1 X146.500 Y82.397 E49.9522
G1 X146.500 Y82.942
G1 X145.255 Y81.685 E50.0110
G1 X144.976 Y81.948
G1 X146.500 Y83.487 E50.0831
G1 X146.500 Y84.032
G1 X144.618 Y82.131 E50.1721
G1 X144.259 Y82.313
G1 X146.500 Y84.577 E50.2780
G1 X146.500 Y85.122
G1 X143.811 Y82.406 E50.4051
G1 X143.345 Y82.480
G1 X146.500 Y85.667 E50.5543
G1 X146.500 Y86.212
G1 X142.721 Y82.394 E50.7329
G1 X141.853 Y82.063
G1 X146.500 Y86.757 E50.9526
G1 X146.500 Y87.302
G1 X138.105 Y78.822 E51.3495
G1 X138.105 Y79.367
G1 X146.500 Y87.847 E51.7464
G1 X146.500 Y88.392
G1 X138.105 Y79.912 E52.1433
G1 X138.105 Y80.457
G1 X146.500 Y88.937 E52.5402
G1 X146.500 Y89.482
G1 X138.105 Y81.002 E52.9370
G1 X138.105 Y81.547
G1 X146.500 Y90.026 E53.3339
G1 X146.500 Y90.571
G1 X138.105 Y82.092 E53.7308
G1 X138.105 Y82.637
G1 X146.500 Y91.116 E54.1277
G1 X146.500 Y91.661
G1 X138.105 Y83.182 E54.5245
G1 X138.105 Y83.727
G1 X146.500 Y92.206 E54.9214
G1 X146.500 Y92.751
G1 X138.105 Y84.272 E55.3183
G1 X138.105 Y84.817
G1 X146.500 Y93.296 E55.7152
G1 X146.500 Y93.841
G1 X138.105 Y85.361 E56.1121
G1 X138.105 Y85.906
G1 X146.500 Y94.386 E56.5089
G1 X146.500 Y94.931
G1 X138.105 Y86.451 E56.9058
G1 X138.105 Y86.996
G1 X146.500 Y95.476 E57.3027
G1 X146.500 Y96.021
G1 X138.105 Y87.541 E57.6996
G1 X138.105 Y88.086
G1 X146.500 Y96.566 E58.0964
G1 X146.500 Y97.111
G1 X138.105 Y88.631 E58.4933
G1 X138.105 Y89.176
G1 X146.500 Y97.656 E58.8902
G1 X146.500 Y98.201
G1 X138.105 Y89.721 E59.2871
G1 X138.105 Y90.266
G1 X146.500 Y98.746 E59.6840
G1 X146.500 Y99.291
G1 X138.105 Y90.811 E60.0808
G1 X138.105 Y91.356
G1 X146.500 Y99.836 E60.4777
G1 X146.500 Y100.381
G1 X138.105 Y91.901 E60.8746
G1 X138.105 Y92.446
G1 X146.500 Y100.926 E61.2715
G1 X146.500 Y101.471
G1 X138.105 Y92.991 E61.6683
G1 X138.105 Y93.536
G1 X146.500 Y102.016 E62.0652
G1 X146.500 Y102.561
G1 X138.105 Y94.081 E62.4621
G1 X138.105 Y94.626
G1 X146.500 Y103.106 E62.8590
G1 X146.500 Y103.651
G1 X138.105 Y95.171 E63.2559
G1 X138.105 Y95.716
G1 X146.500 Y104.196 E63.6527
G1 X146.500 Y104.741
G1 X138.105 Y96.261 E64.0496
G1 X138.105 Y96.806
G1 X146.500 Y105.286 E64.4465
G1 X146.500 Y105.831
G1 X138.105 Y97.351 E64.8434
G1 X138.105 Y97.896
G1 X146.500 Y106.376 E65.2403
G1 X146.500 Y106.921
G1 X138.105 Y98.441 E65.6371
G1 X138.105 Y98.986
G1 X146.500 Y107.466 E66.0340
G1 X146.500 Y108.011
G1 X138.105 Y99.531 E66.4309
G1 X138.105 Y100.076
G1 X146.500 Y108.555 E66.8278
G1 X146.500 Y109.100
G1 X138.105 Y100.621 E67.2247
G1 X138.105 Y101.166
G1 X146.500 Y109.645 E67.6215
G1 X146.500 Y110.190
G1 X138.105 Y101.711 E68.0184
G1 X138.105 Y102.256
G1 X146.500 Y110.735 E68.4153
G1 X146.500 Y111.280
G1 X138.105 Y102.801 E68.8122
G1 X138.105 Y103.345
G1 X146.500 Y111.825 E69.2091
G1 X146.500 Y112.370
G1 X138.105 Y103.890 E69.6059
G1 X138.105 Y104.435
G1 X146.500 Y112.915 E70.0028
G1 X146.500 Y113.460
G1 X138.105 Y104.980 E70.3997
G1 X138.105 Y105.525
G1 X144.766 Y112.254 E70.7146
G0 X145.787 Y113.285 F10800
G1 X146.500 Y114.005 E70.7483 F3600
G1 X146.500 Y114.550
G1 X146.120 Y114.166 E70.7663
G0 X143.892 Y111.916 F10800
G1 X138.105 Y106.070 E71.0399 F3600
G1 X138.105 Y106.615
G1 X143.266 Y111.828 E71.2839
G1 X142.799 Y111.902
G1 X138.105 Y107.160 E71.5058
G1 X138.105 Y107.705
G1 X142.350 Y111.993 E71.7065
G1 X141.991 Y112.176
G1 X138.105 Y108.250 E71.8902
G1 X138.105 Y108.795
G1 X141.633 Y112.359 E72.0570
G1 X141.352 Y112.620
G1 X138.105 Y109.340 E72.2105
G1 X138.105 Y109.885
G1 X141.081 Y112.892 E72.3512
G1 X140.856 Y113.209
G1 X138.105 Y110.430 E72.4813
G1 X138.105 Y110.975
G1 X140.672 Y113.569 E72.6026
G1 X140.517 Y113.956
G1 X138.105 Y111.520 E72.7167
G1 X138.105 Y112.065
G1 X140.443 Y114.426 E72.8272
G1 X140.427 Y114.956
G1 X138.105 Y112.610 E72.9370
G1 X138.105 Y113.155
G1 X140.529 Y115.604 E73.0516
G0 X138.105 Y114.790 F10800
G1 X141.215 Y117.931 E73.1986 F3600
G1 X141.754 Y117.931
G1 X138.105 Y114.245 E73.3711
;segType:Support
G0 F4800 E72.3711
G0 X135.400 Y109.000 F10800
G0 F4800 E73.3711
G1 X123.307 Y109.000 E73.7130 F5400
G1 X123.307 Y107.200 E73.7639
G1 X135.400 Y107.200 E74.1058
G1 X135.400 Y105.400 E74.1567
G1 X123.307 Y105.400 E74.4986
G1 X123.307 Y103.600 E74.5495
G1 X135.400 Y103.600 E74.8914
G1 X135.400 Y101.800 E74.9422
G1 X123.307 Y101.800 E75.2841
G1 X123.307 Y100.000 E75.3350
G1 X135.400 Y100.000 E75.6769
G1 X135.400 Y98.200 E75.7278
G1 X123.307 Y98.200 E76.0697
G1 X123.307 Y96.400 E76.1206
G1 X135.400 Y96.400 E76.4625
G0 F4800 E75.4625
G0 X135.400 Y92.800 F10800
G0 F4800 E76.4625
G1 X123.307 Y92.800 E76.8044 F5400
G1 X123.307 Y94.600 E76.8552
G1 X135.400 Y94.600 E77.1971
; ------------------------------------
; Layer #2
; ------------------------------------
G21 ; mm
G90 ; abs
G92 E0 ; reset extr
M106 S255
;segType:Support
G0 F4800 E-1.0000
G0 F300 Z0.600
G0 X135.400 Y94.600 F10800
G0 F4800 E0.0000
G1 X123.307 Y94.600 E0.3419 F5400
G0 F4800 E-0.6581
G0 X123.307 Y91.000 F10800
G0 F4800 E0.3419
G1 X135.400 Y91.000 E0.6838 F5400
;segType:HShell
G0 F4800 E-0.3162
G0 X138.105 Y116.514 F10800
G0 F4800 E0.6838
G1 X140.494 Y114.101 E0.7967 F3600
G1 X140.394 Y114.747
G1 X138.105 Y117.059 E0.9049
G1 X138.105 Y117.604
G1 X140.468 Y115.217 E1.0167
G1 X140.552 Y115.677
G1 X138.320 Y117.931 E1.1222
;segType:Perimeter
G0 X138.139 Y118.214 F10800
G1 X137.505 Y118.479 E1.1451 F2159
G1 X137.505 Y75.772 E2.5655
G1 X143.291 Y75.772 E2.7580
G1 X144.147 Y75.868 E2.7866
G1 X144.950 Y76.149 E2.8149
G1 X145.670 Y76.602 E2.8432
G1 X146.271 Y77.203 E2.8715
G1 X146.723 Y77.923 E2.8998
G1 X147.004 Y78.724 E2.9280
G1 X147.100 Y79.580 E2.9567
G1 X147.100 Y114.729 E4.1257
G1 X147.004 Y115.585 E4.1543
G1 X146.723 Y116.386 E4.1826
G1 X146.271 Y117.106 E4.2109
G1 X145.670 Y117.707 E4.2391
G1 X144.950 Y118.160 E4.2674
G1 X144.147 Y118.441 E4.2957
G1 X143.291 Y118.537 E4.3244
G1 X137.562 Y118.537 E4.5149
G1 X137.825 Y117.896
;segType:Loop
G0 X137.905 Y117.477 F10800
G1 X137.905 Y76.176 E5.8886 F3600
G1 X143.268 Y76.176 E6.0670
G1 X144.058 Y76.265 E6.0934
G1 X144.777 Y76.516 E6.1188
G1 X145.420 Y76.921 E6.1440
G1 X145.957 Y77.458 E6.1693
G1 X146.361 Y78.100 E6.1945
G1 X146.611 Y78.816 E6.2197
G1 X146.700 Y79.603 E6.2461
G1 X146.700 Y114.706 E7.4136
G1 X146.611 Y115.493 E7.4400
G1 X146.361 Y116.208 E7.4652
G1 X145.957 Y116.851 E7.4904
G1 X145.420 Y117.388 E7.5157
G1 X144.777 Y117.793 E7.5410
G1 X144.058 Y118.044 E7.5663
G1 X143.268 Y118.133 E7.5927
G1 X137.905 Y118.133 E7.7711
G1 X137.905 Y117.670 E7.7865
;segType:HShell
G0 X139.939 Y117.931 F10800
G1 X141.175 Y116.683 E7.8449 F3600
G1 X141.446 Y116.954
G1 X140.478 Y117.931 E7.8907
G1 X141.018 Y117.931
G1 X141.757 Y117.185 E7.9256
G1 X142.115 Y117.368
G1 X141.558 Y117.931 E7.9520
G1 X142.097 Y117.931
G1 X142.494 Y117.530 E7.9708
G1 X142.961 Y117.604
G1 X142.637 Y117.931 E7.9861
G1 X143.176 Y117.931
G1 X143.474 Y117.630 E8.0002
G1 X144.114 Y117.529
G1 X143.773 Y117.873 E8.0163
G1 X144.512 Y117.672
G1 X146.252 Y115.915 E8.0985
G1 X146.085 Y115.538
G1 X146.446 Y115.173 E8.1156
G1 X146.500 Y114.574
G1 X146.187 Y114.890 E8.1304
;segType:Perimeter
G0 X146.051 Y115.143 F10800
G1 X145.464 Y115.504 E8.1533 F2159
G1 X145.163 Y116.095 E8.1754
G1 X144.654 Y116.605 E8.1993
G1 X144.012 Y116.932 E8.2233
G1 X143.302 Y117.044 E8.2472
G1 X142.591 Y116.932 E8.2711
G1 X141.950 Y116.605 E8.2951
G1 X141.440 Y116.095 E8.3190
G1 X141.113 Y115.453 E8.3430
G1 X141.000 Y114.740 E8.3670
G1 X141.113 Y114.028 E8.3910
G1 X141.440 Y113.385 E8.4150
G1 X141.950 Y112.876 E8.4389
G1 X142.591 Y112.549 E8.4629
G1 X143.302 Y112.436 E8.4868
G1 X144.012 Y112.549 E8.5107
G1 X144.654 Y112.876 E8.5347
G1 X145.163 Y113.385 E8.5587
G1 X145.491 Y114.028 E8.5826
G1 X145.603 Y114.740 E8.6066
G1 X145.500 Y115.396 E8.6287
G1 X145.760 Y116.037
G0 F4800 E7.6287
G0 X145.208 Y116.619 F10800
G0 F4800 E8.6287
;segType:Loop
G1 X144.890 Y116.937 E8.6436 F3600
G1 X144.137 Y117.321 E8.6718
G1 X143.302 Y117.453 E8.6999
G1 X142.467 Y117.321 E8.7280
G1 X141.713 Y116.937 E8.7561
G1 X141.114 Y116.337 E8.7843
G1 X140.728 Y115.580 E8.8126
G1 X140.595 Y114.740 E8.8409
G1 X140.728 Y113.901 E8.8691
G1 X141.114 Y113.143 E8.8974
G1 X141.713 Y112.544 E8.9256
G1 X142.467 Y112.159 E8.9537
G1 X143.302 Y112.027 E8.9818
G1 X144.137 Y112.159 E9.0100
G1 X144.890 Y112.544 E9.0381
G1 X145.490 Y113.143 E9.0663
G1 X145.875 Y113.901 E9.0946
G1 X146.008 Y114.740 E9.1228
G1 X145.875 Y115.580 E9.1511
G1 X145.490 Y116.337 E9.1794
G1 X145.343 Y116.484 E9.1863
G0 X145.672 Y115.513 F10800
G0 X145.794 Y114.740
G0 X138.105 Y80.546
;segType:HShell
G1 X142.231 Y76.378 E9.3814 F3600
G1 X142.313 Y76.840
G1 X142.771 Y76.378 E9.4030
G1 X142.991 Y76.701
G1 X143.305 Y76.383 E9.4179
G1 X143.790 Y76.438
G1 X143.542 Y76.689 E9.4296
G1 X144.008 Y76.763
G1 X144.230 Y76.539 E9.4401
G1 X144.631 Y76.679
G1 X144.411 Y76.901 E9.4505
G1 X144.769 Y77.084
G1 X144.974 Y76.878 E9.4602
G1 X145.304 Y77.089
G1 X145.099 Y77.296 E9.4699
G1 X145.370 Y77.567
G1 X145.575 Y77.360 E9.4796
G1 X145.836 Y77.642
G1 X145.641 Y77.839 E9.4888
;segType:Perimeter
G0 X145.760 Y78.272 F10800
G1 X145.500 Y78.913 E9.5119 F2159
G1 X145.603 Y79.569 E9.5340
G1 X145.491 Y80.281 E9.5579
G1 X145.163 Y80.924 E9.5819
G1 X144.654 Y81.433 E9.6059
G1 X144.012 Y81.760 E9.6298
G1 X143.302 Y81.873 E9.6538
G1 X142.591 Y81.760 E9.6777
G1 X141.950 Y81.433 E9.7016
G1 X141.440 Y80.924 E9.7256
G1 X141.113 Y80.281 E9.7496
G1 X141.000 Y79.569 E9.7736
G1 X141.113 Y78.856 E9.7976
G1 X141.440 Y78.214 E9.8216
G1 X141.950 Y77.704 E9.8455
G1 X142.591 Y77.377 E9.8695
G1 X143.302 Y77.265 E9.8934
G1 X144.012 Y77.377 E9.9173
G1 X144.654 Y77.704 E9.9413
G1 X145.163 Y78.214 E9.9652
G1 X145.464 Y78.805 E9.9873
G1 X146.051 Y79.166
;segType:Loop
G0 X145.945 Y79.966 F10800
G1 X145.875 Y80.408 E10.0022 F3600
G1 X145.490 Y81.166 E10.0305
G1 X144.890 Y81.765 E10.0587
G1 X144.137 Y82.150 E10.0868
G1 X143.302 Y82.282 E10.1149
G1 X142.467 Y82.150 E10.1430
G1 X141.713 Y81.765 E10.1712
G1 X141.114 Y81.166 E10.1993
G1 X140.728 Y80.408 E10.2276
G1 X140.595 Y79.569 E10.2559
G1 X140.728 Y78.729 E10.2842
G1 X141.114 Y77.972 E10.3124
G1 X141.713 Y77.372 E10.3406
G1 X142.467 Y76.988 E10.3688
G1 X143.302 Y76.856 E10.3969
G1 X144.137 Y76.988 E10.4250
G1 X144.890 Y77.372 E10.4531
G1 X145.490 Y77.972 E10.4813
G1 X145.875 Y78.729 E10.5096
G1 X146.008 Y79.569 E10.5379
G1 X145.975 Y79.776 E10.5448
;segType:HShell
G0 X145.828 Y78.194 F10800
G1 X146.045 Y77.975 E10.5551 F3600
G1 X146.230 Y78.333
G1 X146.011 Y78.554 E10.5655
G1 X146.119 Y78.990
G1 X146.371 Y78.736 E10.5774
G1 X146.453 Y79.198
G1 X146.194 Y79.460 E10.5896
G1 X146.132 Y80.068
G1 X146.500 Y79.696 E10.6071
G1 X146.500 Y80.241
G1 X145.853 Y80.894 E10.6376
G0 X144.640 Y82.119 F10800
G1 X138.105 Y88.720 E10.9466 F3600
G1 X138.105 Y89.265
G1 X146.500 Y80.786 E11.3435
G1 X146.500 Y81.331
G1 X138.105 Y89.810 E11.7404
G1 X138.105 Y90.355
G1 X146.500 Y81.876 E12.1372
G1 X146.500 Y82.421
G1 X138.105 Y90.900 E12.5341
G1 X138.105 Y91.445
G1 X146.500 Y82.966 E12.9310
G1 X146.500 Y83.511
G1 X138.105 Y91.990 E13.3279
G1 X138.105 Y92.535
G1 X146.500 Y84.055 E13.7248
G1 X146.500 Y84.600
G1 X138.105 Y93.080 E14.1216
G1 X138.105 Y93.625
G1 X146.500 Y85.145 E14.5185
G1 X146.500 Y85.690
G1 X138.105 Y94.170 E14.9154
G1 X138.105 Y94.715
G1 X146.500 Y86.235 E15.3123
G1 X146.500 Y86.780
G1 X138.105 Y95.260 E15.7091
G1 X138.105 Y95.805
G1 X146.500 Y87.325 E16.1060
G1 X146.500 Y87.870
G1 X138.105 Y96.350 E16.5029
G1 X138.105 Y96.895
G1 X146.500 Y88.415 E16.8998
G1 X146.500 Y88.960
G1 X138.105 Y97.440 E17.2967
G1 X138.105 Y97.985
G1 X146.500 Y89.505 E17.6935
G1 X146.500 Y90.050
G1 X138.105 Y98.530 E18.0904
G1 X138.105 Y99.075
G1 X146.500 Y90.595 E18.4873
G1 X146.500 Y91.140
G1 X138.105 Y99.620 E18.8842
G1 X138.105 Y100.165
G1 X146.500 Y91.685 E19.2811
G1 X146.500 Y92.230
G1 X138.105 Y100.710 E19.6779
G1 X138.105 Y101.255
G1 X146.500 Y92.775 E20.0748
G1 X146.500 Y93.320
G1 X138.105 Y101.800 E20.4717
G1 X138.105 Y102.345
G1 X146.500 Y93.865 E20.8686
G1 X146.500 Y94.410
G1 X138.105 Y102.890 E21.2655
G1 X138.105 Y103.435
G1 X146.500 Y94.955 E21.6623
G1 X146.500 Y95.500
G1 X138.105 Y103.980 E22.0592
G1 X138.105 Y104.525
G1 X146.500 Y96.045 E22.4561
G1 X146.500 Y96.590
G1 X138.105 Y105.070 E22.8530
G1 X138.105 Y105.615
G1 X146.500 Y97.135 E23.2499
G1 X146.500 Y97.680
G1 X138.105 Y106.160 E23.6467
G1 X138.105 Y106.705
G1 X146.500 Y98.225 E24.0436
G1 X146.500 Y98.770
G1 X138.105 Y107.249 E24.4405
G1 X138.105 Y107.794
G1 X146.500 Y99.315 E24.8374
G1 X146.500 Y99.860
G1 X138.105 Y108.339 E25.2342
G1 X138.105 Y108.884
G1 X146.500 Y100.405 E25.6311
G1 X146.500 Y100.950
G1 X138.105 Y109.429 E26.0280
G1 X138.105 Y109.974
G1 X146.500 Y101.495 E26.4249
G1 X146.500 Y102.040
G1 X138.105 Y110.519 E26.8218
G1 X138.105 Y111.064
G1 X146.500 Y102.584 E27.2186
G1 X146.500 Y103.129
G1 X138.105 Y111.609 E27.6155
G1 X138.105 Y112.154
G1 X146.500 Y103.674 E28.0124
G1 X146.500 Y104.219
G1 X138.105 Y112.699 E28.4093
G1 X138.105 Y113.244
G1 X146.500 Y104.764 E28.8062
G1 X146.500 Y105.309
G1 X138.105 Y113.789 E29.2030
G1 X138.105 Y114.334
G1 X146.500 Y105.854 E29.5999
G1 X146.500 Y106.399
G1 X138.105 Y114.879 E29.9968
G1 X138.105 Y115.424
G1 X146.500 Y106.944 E30.3937
G1 X146.500 Y107.489
G1 X141.727 Y112.311 E30.6193
G0 X140.875 Y113.171 F10800
G1 X138.105 Y115.969 E30.7503 F3600
G0 X138.860 Y117.931 F10800
G1 X140.736 Y116.036 E30.8390 F3600
G1 X140.919 Y116.396
G1 X139.399 Y117.931 E30.9108
G0 X144.071 Y117.115 F10800
G0 X145.317 Y116.209
G0 X146.154 Y114.379
G1 X146.500 Y114.029 E30.9272 F3600
G1 X146.500 Y113.484
G1 X146.079 Y113.909 E30.9471
G1 X145.913 Y113.532
G1 X146.500 Y112.939 E30.9748
G1 X146.500 Y112.394
G1 X145.730 Y113.172 E31.0112
G1 X145.495 Y112.864
G1 X146.500 Y111.849 E31.0587
G1 X146.500 Y111.304
G1 X145.224 Y112.593 E31.1191
G1 X144.935 Y112.340
G1 X146.500 Y110.759 E31.1931
G1 X146.500 Y110.214
G1 X144.576 Y112.157 E31.2840
G1 X144.218 Y111.974
G1 X146.500 Y109.669 E31.3919
G1 X146.500 Y109.124
G1 X143.757 Y111.895 E31.5216
G1 X143.287 Y111.825
G1 X146.500 Y108.579 E31.6735
G1 X146.500 Y108.034
G1 X142.647 Y111.926 E31.8557
G0 X138.105 Y80.001 F10800
G1 X141.692 Y76.378 E32.0252 F3600
G1 X141.152 Y76.378
G1 X138.105 Y79.456 E32.1693
G1 X138.105 Y78.911
G1 X140.613 Y76.378 E32.2879
G1 X140.073 Y76.378
G1 X138.105 Y78.366 E32.3809
G1 X138.105 Y77.821
G1 X139.534 Y76.378 E32.4485
G1 X138.994 Y76.378
G1 X138.105 Y77.276 E32.4905
G1 X138.105 Y76.731
G1 X138.455 Y76.378 E32.5070
G0 X140.567 Y78.604 F10800
G1 X138.105 Y81.091 E32.6234 F3600
G1 X138.105 Y81.636
G1 X140.439 Y79.278 E32.7338
G1 X140.434 Y79.828
G1 X138.105 Y82.181 E32.8439
G1 X138.105 Y82.726
G1 X140.508 Y80.298 E32.9575
G1 X140.651 Y80.699
G1 X138.105 Y83.271 E33.0779
G1 X138.105 Y83.816
G1 X140.834 Y81.059 E33.2069
G1 X141.050 Y81.386
G1 X138.105 Y84.361 E33.3462
G1 X138.105 Y84.906
G1 X141.321 Y81.657 E33.4982
G1 X141.592 Y81.928
G1 X138.105 Y85.451 E33.6631
G1 X138.105 Y85.996
G1 X141.950 Y82.112 E33.8448
G1 X142.308 Y82.295
G1 X138.105 Y86.541 E34.0435
G1 X138.105 Y87.086
G1 X142.745 Y82.398 E34.2629
G1 X143.212 Y82.472
G1 X138.105 Y87.631 E34.5043
G1 X138.105 Y88.176
G1 X143.818 Y82.405 E34.7744
;segType:Support
G0 F4800 E33.7744
G0 X135.400 Y98.200 F10800
G0 F4800 E34.7744
G1 X123.307 Y98.200 E35.1163 F5400
G1 X123.307 Y96.400 E35.1672
G1 X135.400 Y96.400 E35.5091
G0 F4800 E34.5091
G0 X135.400 Y100.000 F10800
G0 F4800 E35.5091
G1 X123.307 Y100.000 E35.8510 F5400
G1 X123.307 Y101.800 E35.9019
G1 X135.400 Y101.800 E36.2438
G1 X135.400 Y103.600 E36.2947
G1 X123.307 Y103.600 E36.6365
G1 X123.307 Y105.400 E36.6874
G1 X135.400 Y105.400 E37.0293
G1 X135.400 Y107.200 E37.0802
G1 X123.307 Y107.200 E37.4221
G1 X123.307 Y109.000 E37.4730
G1 X135.400 Y109.000 E37.8149
G1 X135.400 Y110.800 E37.8658
G1 X123.307 Y110.800 E38.2077
G1 X123.307 Y112.600 E38.2585
G1 X135.400 Y112.600 E38.6004
G1 X135.400 Y114.400 E38.6513
G1 X123.307 Y114.400 E38.9932
G1 X123.307 Y116.200 E39.0441
G1 X135.400 Y116.200 E39.3860
G1 X135.400 Y118.000 E39.4369
G1 X123.307 Y118.000 E39.7788
;segType:HShell
G0 F4800 E38.7788
G0 X121.907 Y114.891 F10800
G0 F4800 E39.7788
G1 X118.897 Y117.931 E39.9210 F3600
G1 X119.437 Y117.931
G1 X121.907 Y115.436 E40.0378
G1 X121.907 Y115.981
G1 X119.976 Y117.931 E40.1291
G1 X120.516 Y117.931
G1 X121.907 Y116.526 E40.1949
G1 X121.907 Y117.071
G1 X121.055 Y117.931 E40.2351
G1 X121.595 Y117.931
G1 X121.907 Y117.616 E40.2499
;segType:Perimeter
G0 X122.187 Y117.896 F10800
G1 X122.450 Y118.537 E40.2729 F2159
G1 X116.721 Y118.537 E40.4635
G1 X115.865 Y118.441 E40.4921
G1 X115.062 Y118.160 E40.5204
G1 X114.342 Y117.707 E40.5487
G1 X113.741 Y117.106 E40.5770
G1 X113.289 Y116.386 E40.6052
G1 X113.008 Y115.585 E40.6335
G1 X112.912 Y114.729 E40.6621
G1 X112.912 Y79.580 E41.8312
G1 X113.008 Y78.724 E41.8598
G1 X113.289 Y77.923 E41.8881
G1 X113.741 Y77.203 E41.9163
G1 X114.342 Y76.602 E41.9446
G1 X115.062 Y76.149 E41.9729
G1 X115.865 Y75.868 E42.0012
G1 X116.721 Y75.772 E42.0298
G1 X122.507 Y75.772 E42.2223
G1 X122.507 Y118.479 E43.6427
G1 X121.872 Y118.214
;segType:Loop
G0 X121.458 Y118.133 F10800
G1 X116.743 Y118.133 E43.7995 F3600
G1 X115.954 Y118.044 E43.8260
G1 X115.235 Y117.793 E43.8513
G1 X114.592 Y117.388 E43.8766
G1 X114.054 Y116.851 E43.9019
G1 X113.651 Y116.209 E43.9271
G1 X113.401 Y115.493 E43.9523
G1 X113.312 Y114.706 E43.9787
G1 X113.312 Y79.603 E45.1462
G1 X113.401 Y78.816 E45.1725
G1 X113.651 Y78.100 E45.1977
G1 X114.054 Y77.458 E45.2230
G1 X114.591 Y76.921 E45.2482
G1 X115.235 Y76.516 E45.2735
G1 X115.954 Y76.265 E45.2988
G1 X116.743 Y76.176 E45.3253
G1 X122.107 Y76.176 E45.5037
G1 X122.107 Y118.133 E46.8992
G1 X121.649 Y118.133 E46.9144
G0 X120.034 Y116.077 F10800
G0 X119.373 Y113.635
;segType:HShell
G1 X121.907 Y111.076 E47.0342 F3600
G1 X121.907 Y111.621
G1 X119.509 Y114.044 E47.1476
G1 X119.583 Y114.514
G1 X121.907 Y112.166 E47.2574
G1 X121.907 Y112.711
G1 X119.566 Y115.076 E47.3681
;segType:Perimeter
G0 X119.459 Y115.143 F10800
G1 X118.872 Y115.504 E47.3910 F2159
G1 X118.571 Y116.095 E47.4131
G1 X118.062 Y116.605 E47.4371
G1 X117.420 Y116.932 E47.4610
G1 X116.710 Y117.044 E47.4849
G1 X115.999 Y116.932 E47.5089
G1 X115.358 Y116.605 E47.5328
G1 X114.848 Y116.095 E47.5568
G1 X114.521 Y115.453 E47.5808
G1 X114.408 Y114.740 E47.6047
G1 X114.521 Y114.028 E47.6287
G1 X114.848 Y113.385 E47.6527
G1 X115.358 Y112.876 E47.6767
G1 X115.999 Y112.549 E47.7006
G1 X116.710 Y112.436 E47.7246
G1 X117.420 Y112.549 E47.7485
G1 X118.062 Y112.876 E47.7724
G1 X118.571 Y113.385 E47.7964
G1 X118.899 Y114.028 E47.8204
G1 X119.011 Y114.740 E47.8444
G1 X118.908 Y115.396 E47.8664
G1 X119.168 Y116.037
;segType:Loop
G0 X118.616 Y116.619 F10800
G1 X118.298 Y116.937 E47.8814 F3600
G1 X117.545 Y117.321 E47.9095
G1 X116.710 Y117.453 E47.9376
G1 X115.875 Y117.321 E47.9657
G1 X115.121 Y116.937 E47.9939
G1 X114.522 Y116.337 E48.0221
G1 X114.136 Y115.580 E48.0503
G1 X114.004 Y114.740 E48.0786
G1 X114.136 Y113.901 E48.1069
G1 X114.522 Y113.143 E48.1351
G1 X115.121 Y112.544 E48.1633
G1 X115.875 Y112.159 E48.1915
G1 X116.710 Y112.027 E48.2196
G1 X117.545 Y112.159 E48.2477
G1 X118.298 Y112.544 E48.2758
G1 X118.898 Y113.143 E48.3040
G1 X119.283 Y113.901 E48.3323
G1 X119.416 Y114.740 E48.3606
G1 X119.283 Y115.580 E48.3889
G1 X118.898 Y116.337 E48.4171
G1 X118.751 Y116.484 E48.4240
G0 X119.080 Y115.513 F10800
G0 X119.202 Y114.740
G0 X119.549 Y79.125
;segType:HShell
G1 X121.907 Y76.743 E48.5355 F3600
G1 X121.729 Y76.378
G1 X119.472 Y78.658 E48.6422
G1 X119.289 Y78.298
G1 X121.190 Y76.378 E48.7321
G1 X120.650 Y76.378
G1 X119.105 Y77.938 E48.8051
;segType:Perimeter
G0 X119.168 Y78.272 F10800
G1 X118.908 Y78.913 E48.8281 F2159
G1 X119.011 Y79.569 E48.8502
G1 X118.899 Y80.281 E48.8742
G1 X118.571 Y80.924 E48.8982
G1 X118.062 Y81.433 E48.9221
G1 X117.420 Y81.760 E48.9461
G1 X116.710 Y81.873 E48.9700
G1 X115.999 Y81.760 E48.9940
G1 X115.358 Y81.433 E49.0179
G1 X114.848 Y80.924 E49.0419
G1 X114.521 Y80.281 E49.0659
G1 X114.408 Y79.569 E49.0898
G1 X114.521 Y78.856 E49.1138
G1 X114.848 Y78.214 E49.1378
G1 X115.358 Y77.704 E49.1618
G1 X115.999 Y77.377 E49.1857
G1 X116.710 Y77.265 E49.2097
G1 X117.420 Y77.377 E49.2336
G1 X118.062 Y77.704 E49.2575
G1 X118.571 Y78.214 E49.2815
G1 X118.872 Y78.805 E49.3036
G1 X119.459 Y79.166
;segType:Loop
G0 X119.353 Y79.966 F10800
G1 X119.283 Y80.408 E49.3184 F3600
G1 X118.898 Y81.166 E49.3467
G1 X118.298 Y81.765 E49.3749
G1 X117.545 Y82.150 E49.4031
G1 X116.710 Y82.282 E49.4312
G1 X115.875 Y82.150 E49.4593
G1 X115.121 Y81.765 E49.4874
G1 X114.522 Y81.166 E49.5156
G1 X114.136 Y80.408 E49.5439
G1 X114.004 Y79.569 E49.5721
G1 X114.136 Y78.729 E49.6004
G1 X114.522 Y77.972 E49.6287
G1 X115.121 Y77.372 E49.6569
G1 X115.875 Y76.988 E49.6850
G1 X116.710 Y76.856 E49.7131
G1 X117.545 Y76.988 E49.7413
G1 X118.298 Y77.372 E49.7694
G1 X118.898 Y77.972 E49.7976
G1 X119.283 Y78.729 E49.8258
G1 X119.416 Y79.569 E49.8541
G1 X119.383 Y79.776 E49.8611
;segType:HShell
G0 X119.613 Y79.605 F10800
G1 X121.907 Y77.288 E49.9696 F3600
G1 X121.907 Y77.833
G1 X119.511 Y80.254 E50.0828
G0 X119.097 Y81.216 F10800
G1 X121.907 Y78.378 E50.2157 F3600
G1 X121.907 Y78.923
G1 X113.512 Y87.403 E50.6126
G1 X113.512 Y87.948
G1 X121.907 Y79.468 E51.0094
G1 X121.907 Y80.013
G1 X113.512 Y88.493 E51.4063
G1 X113.512 Y89.038
G1 X121.907 Y80.558 E51.8032
G1 X121.907 Y81.103
G1 X113.512 Y89.583 E52.2001
G1 X113.512 Y90.128
G1 X121.907 Y81.648 E52.5969
G1 X121.907 Y82.193
G1 X113.512 Y90.673 E52.9938
G1 X113.512 Y91.218
G1 X121.907 Y82.738 E53.3907
G1 X121.907 Y83.283
G1 X113.512 Y91.763 E53.7876
G1 X113.512 Y92.308
G1 X121.907 Y83.828 E54.1845
G1 X121.907 Y84.373
G1 X113.512 Y92.852 E54.5813
G1 X113.512 Y93.397
G1 X121.907 Y84.918 E54.9782
G1 X121.907 Y85.463
G1 X113.512 Y93.942 E55.3751
G1 X113.512 Y94.487
G1 X121.907 Y86.008 E55.7720
G1 X121.907 Y86.553
G1 X113.512 Y95.032 E56.1688
G1 X113.512 Y95.577
G1 X121.907 Y87.098 E56.5657
G1 X121.907 Y87.643
G1 X113.512 Y96.122 E56.9626
G1 X113.512 Y96.667
G1 X121.907 Y88.187 E57.3595
G1 X121.907 Y88.732
G1 X113.512 Y97.212 E57.7564
G1 X113.512 Y97.757
G1 X121.907 Y89.277 E58.1532
G1 X121.907 Y89.822
G1 X113.512 Y98.302 E58.5501
G1 X113.512 Y98.847
G1 X121.907 Y90.367 E58.9470
G1 X121.907 Y90.912
G1 X113.512 Y99.392 E59.3439
G1 X113.512 Y99.937
G1 X121.907 Y91.457 E59.7407
G1 X121.907 Y92.002
G1 X113.512 Y100.482 E60.1376
G1 X113.512 Y101.027
G1 X121.907 Y92.547 E60.5345
G1 X121.907 Y93.092
G1 X113.512 Y101.572 E60.9314
G1 X113.512 Y102.117
G1 X121.907 Y93.637 E61.3282
G1 X121.907 Y94.182
G1 X113.512 Y102.662 E61.7251
G1 X113.512 Y103.207
G1 X121.907 Y94.727 E62.1220
G1 X121.907 Y95.272
G1 X113.512 Y103.752 E62.5189
G1 X113.512 Y104.297
G1 X121.907 Y95.817 E62.9158
G1 X121.907 Y96.362
G1 X113.512 Y104.842 E63.3126
G1 X113.512 Y105.387
G1 X121.907 Y96.907 E63.7095
G1 X121.907 Y97.452
G1 X113.512 Y105.932 E64.1064
G1 X113.512 Y106.477
G1 X121.907 Y97.997 E64.5033
G1 X121.907 Y98.542
G1 X113.512 Y107.022 E64.9001
G1 X113.512 Y107.567
G1 X121.907 Y99.087 E65.2970
G1 X121.907 Y99.632
G1 X113.512 Y108.112 E65.6939
G1 X113.512 Y108.657
G1 X121.907 Y100.177 E66.0908
G1 X121.907 Y100.722
G1 X113.512 Y109.202 E66.4877
G1 X113.512 Y109.747
G1 X121.907 Y101.267 E66.8846
G1 X121.907 Y101.812
G1 X113.512 Y110.292 E67.2814
G1 X113.512 Y110.837
G1 X121.907 Y102.357 E67.6783
G1 X121.907 Y102.902
G1 X113.512 Y111.381 E68.0752
G1 X113.512 Y111.926
G1 X121.907 Y103.447 E68.4721
G1 X121.907 Y103.992
G1 X113.512 Y112.471 E68.8690
G1 X113.512 Y113.016
G1 X121.907 Y104.537 E69.2658
G1 X121.907 Y105.082
G1 X113.512 Y113.561 E69.6627
G1 X113.512 Y114.106
G1 X114.119 Y113.493 E69.6914
G0 X115.447 Y112.151 F10800
G1 X121.907 Y105.627 E69.9968 F3600
G1 X121.907 Y106.172
G1 X116.238 Y111.897 E70.2648
G1 X116.833 Y111.842
G1 X121.907 Y106.716 E70.5047
G1 X121.907 Y107.261
G1 X117.299 Y111.916 E70.7225
G1 X117.729 Y112.027
G1 X121.907 Y107.806 E70.9200
G1 X121.907 Y108.351
G1 X118.087 Y112.210 E71.1006
G1 X118.439 Y112.400
G1 X121.907 Y108.896 E71.2646
G1 X121.907 Y109.441
G1 X118.710 Y112.671 E71.4157
G1 X118.981 Y112.942
G1 X121.907 Y109.986 E71.5540
G1 X121.907 Y110.531
G1 X119.190 Y113.275 E71.6825
G0 X121.907 Y114.346 F10800
G1 X118.358 Y117.931 E71.8503 F3600
G1 X117.818 Y117.931
G1 X121.907 Y113.801 E72.0436
G1 X121.907 Y113.256
G1 X119.405 Y115.783 E72.1619
G0 X117.775 Y117.430 F10800
G1 X117.279 Y117.931 E72.1853 F3600
G1 X116.741 Y117.930
G1 X117.066 Y117.601 E72.2007
G1 X116.503 Y117.625
G1 X116.255 Y117.875 E72.2124
G1 X115.810 Y117.780
G1 X116.036 Y117.551 E72.2231
G1 X115.626 Y117.420
G1 X115.409 Y117.640 E72.2334
G1 X115.061 Y117.446
G1 X115.268 Y117.237 E72.2431
G1 X114.932 Y117.032
G1 X114.729 Y117.237 E72.2527
G1 X114.456 Y116.968
G1 X114.661 Y116.760 E72.2624
G1 X114.390 Y116.489
G1 X114.191 Y116.690 E72.2719
G1 X113.981 Y116.357
G1 X114.196 Y116.140 E72.2820
G1 X114.013 Y115.780
G1 X113.791 Y116.004 E72.2925
G1 X113.650 Y115.601
G1 X113.898 Y115.352 E72.3042
G1 X113.823 Y114.882
G1 X113.563 Y115.145 E72.3165
G1 X113.512 Y114.651
G1 X113.873 Y114.287 E72.3336
G0 X118.361 Y81.960 F10800
G1 X113.512 Y86.858 E72.5628 F3600
G1 X113.512 Y86.313
G1 X117.410 Y82.375 E72.7471
G1 X116.770 Y82.477
G1 X113.512 Y85.768 E72.9011
G1 X113.512 Y85.223
G1 X116.287 Y82.419 E73.0323
G1 X115.821 Y82.346
G1 X113.512 Y84.678 E73.1415
G1 X113.512 Y84.133
G1 X115.461 Y82.165 E73.2336
G1 X115.102 Y81.982
G1 X113.512 Y83.588 E73.3088
G1 X113.512 Y83.043
G1 X114.807 Y81.735 E73.3700
G1 X114.536 Y81.464
G1 X113.512 Y82.498 E73.4184
G1 X113.512 Y81.953
G1 X114.295 Y81.162 E73.4555
G1 X114.112 Y80.802
G1 X113.512 Y81.408 E73.4838
G1 X113.512 Y80.863
G1 X113.938 Y80.433 E73.5040
G1 X113.863 Y79.963
G1 X113.512 Y80.318 E73.5206
G1 X113.512 Y79.773
G1 X113.818 Y79.464 E73.5350
G1 X113.920 Y78.816
G1 X113.561 Y79.179 E73.5520
G1 X113.740 Y78.453
G1 X115.557 Y76.617 E73.6379
G1 X115.943 Y76.773
G1 X116.281 Y76.431 E73.6539
G1 X116.873 Y76.378
G1 X116.583 Y76.671 E73.6677
G1 X117.083 Y76.710
G1 X117.413 Y76.378 E73.6832
G1 X117.952 Y76.378
G1 X117.550 Y76.784 E73.7023
G1 X117.922 Y76.954
G1 X118.492 Y76.378 E73.7292
G1 X119.031 Y76.378
G1 X118.280 Y77.137 E73.7647
G1 X118.585 Y77.374
G1 X119.571 Y76.378 E73.8114
G1 X120.110 Y76.378
G1 X118.856 Y77.645 E73.8707
;segType:Support
G0 F4800 E72.8707
G0 X123.307 Y76.600 F10800
G0 F4800 E73.8707
G1 X135.400 Y76.600 E74.2126 F5400
G1 X135.400 Y78.400 E74.2635
G1 X123.307 Y78.400 E74.6054
G1 X123.307 Y80.200 E74.6562
G1 X135.400 Y80.200 E74.9981
G1 X135.400 Y82.000 E75.0490
G1 X123.307 Y82.000 E75.3909
G1 X123.307 Y83.800 E75.4418
G1 X135.400 Y83.800 E75.7837
G1 X135.400 Y85.600 E75.8346
G1 X123.307 Y85.600 E76.1765
G1 X123.307 Y87.400 E76.2274
G1 X135.400 Y87.400 E76.5692
G1 X135.400 Y89.200 E76.6201
G1 X123.307 Y89.200 E76.9620
G0 F4800 E75.9620
G0 X123.307 Y92.800 F10800
G0 F4800 E76.9620
G1 X135.400 Y92.800 E77.3039 F5400
; ------------------------------------
; Layer #3
; ------------------------------------
G21 ; mm
G90 ; abs
G92 E0 ; reset extr
M106 S255
;segType:Support
G0 F4800 E-1.0000
G0 F300 Z0.800
G0 X135.400 Y92.800 F10800
G0 F4800 E0.0000
G1 X123.307 Y92.800 E0.3419 F5400
G0 F4800 E-0.6581
G0 X123.307 Y96.400 F10800
G0 F4800 E0.3419
G1 X135.400 Y96.400 E0.6838 F5400
G0 F4800 E-0.3162
G0 X135.400 Y100.000 F10800
G0 F4800 E0.6838
G1 X123.307 Y100.000 E1.0257 F5400
G0 F4800 E0.0257
G0 X123.307 Y103.600 F10800
G0 F4800 E1.0257
G1 X135.400 Y103.600 E1.3675 F5400
G1 X135.400 Y105.400 E1.4184
G1 X123.307 Y105.400 E1.7603
G1 X123.307 Y107.200 E1.8112
G1 X135.400 Y107.200 E2.1531
G0 F4800 E1.1531
G0 X135.400 Y114.400 F10800
G0 F4800 E2.1531
G1 X123.307 Y114.400 E2.4950 F5400
G1 X123.307 Y116.200 E2.5459
G1 X135.400 Y116.200 E2.8878
;segType:Loop
G0 F4800 E1.8878
G0 X137.905 Y117.477 F10800
G0 F4800 E2.8878
G1 X137.905 Y76.176 E4.2615 F3600
G1 X143.268 Y76.176 E4.4398
G1 X144.058 Y76.265 E4.4663
G1 X144.777 Y76.516 E4.4916
G1 X145.420 Y76.921 E4.5169
G1 X145.957 Y77.458 E4.5421
G1 X146.361 Y78.100 E4.5674
G1 X146.611 Y78.816 E4.5926
G1 X146.700 Y79.603 E4.6189
G1 X146.700 Y114.706 E5.7865
G1 X146.611 Y115.493 E5.8128
G1 X146.361 Y116.208 E5.8380
G1 X145.957 Y116.851 E5.8633
G1 X145.420 Y117.388 E5.8885
G1 X144.777 Y117.793 E5.9138
G1 X144.058 Y118.044 E5.9391
G1 X143.268 Y118.133 E5.9656
G1 X137.905 Y118.133 E6.1440
G1 X137.905 Y117.670 E6.1594
;segType:Perimeter
G0 X138.139 Y118.214 F10800
G1 X137.505 Y118.479 E6.1822 F2159
G1 X137.505 Y75.772 E7.6027
G1 X143.291 Y75.772 E7.7951
G1 X144.147 Y75.868 E7.8238
G1 X144.950 Y76.149 E7.8521
G1 X145.670 Y76.602 E7.8804
G1 X146.271 Y77.203 E7.9086
G1 X146.723 Y77.923 E7.9369
G1 X147.004 Y78.724 E7.9652
G1 X147.100 Y79.580 E7.9938
G1 X147.100 Y114.729 E9.1628
G1 X147.004 Y115.585 E9.1915
G1 X146.723 Y116.386 E9.2198
G1 X146.271 Y117.106 E9.2480
G1 X145.670 Y117.707 E9.2763
G1 X144.950 Y118.160 E9.3046
G1 X144.147 Y118.441 E9.3329
G1 X143.291 Y118.537 E9.3615
G1 X137.562 Y118.537 E9.5521
G1 X137.825 Y117.896
G0 X143.302 Y117.237 F10800
G0 X144.071 Y117.115
G0 X145.208 Y116.619
;segType:Loop
G1 X144.890 Y116.937 E9.5670 F3600
G1 X144.137 Y117.321 E9.5951
G1 X143.302 Y117.453 E9.6232
G1 X142.467 Y117.321 E9.6513
G1 X141.713 Y116.937 E9.6795
G1 X141.114 Y116.337 E9.7077
G1 X140.728 Y115.580 E9.7359
G1 X140.595 Y114.740 E9.7642
G1 X140.728 Y113.901 E9.7925
G1 X141.114 Y113.143 E9.8208
G1 X141.713 Y112.544 E9.8490
G1 X142.467 Y112.159 E9.8771
G1 X143.302 Y112.027 E9.9052
G1 X144.137 Y112.159 E9.9333
G1 X144.890 Y112.544 E9.9615
G1 X145.490 Y113.143 E9.9897
G1 X145.875 Y113.901 E10.0179
G1 X146.008 Y114.740 E10.0462
G1 X145.875 Y115.580 E10.0745
G1 X145.490 Y116.337 E10.1027
G1 X145.343 Y116.484 E10.1096
;segType:Perimeter
G0 X146.051 Y115.143 F10800
G1 X145.464 Y115.504 E10.1325 F2159
G1 X145.163 Y116.095 E10.1546
G1 X144.654 Y116.605 E10.1786
G1 X144.012 Y116.932 E10.2025
G1 X143.302 Y117.044 E10.2264
G1 X142.591 Y116.932 E10.2504
G1 X141.950 Y116.605 E10.2743
G1 X141.440 Y116.095 E10.2983
G1 X141.113 Y115.453 E10.3223
G1 X141.000 Y114.740 E10.3463
G1 X141.113 Y114.028 E10.3702
G1 X141.440 Y113.385 E10.3942
G1 X141.950 Y112.876 E10.4182
G1 X142.591 Y112.549 E10.4421
G1 X143.302 Y112.436 E10.4661
G1 X144.012 Y112.549 E10.4900
G1 X144.654 Y112.876 E10.5140
G1 X145.163 Y113.385 E10.5379
G1 X145.491 Y114.028 E10.5619
G1 X145.603 Y114.740 E10.5859
G1 X145.500 Y115.396 E10.6080
G1 X145.760 Y116.037
G0 F4800 E9.6080
G0 X146.438 Y114.153 F10800
G0 X145.945 Y79.966
G0 F4800 E10.6080
;segType:Loop
G1 X145.875 Y80.408 E10.6228 F3600
G1 X145.490 Y81.166 E10.6511
G1 X144.890 Y81.765 E10.6793
G1 X144.137 Y82.150 E10.7075
G1 X143.302 Y82.282 E10.7356
G1 X142.467 Y82.150 E10.7637
G1 X141.713 Y81.765 E10.7918
G1 X141.114 Y81.166 E10.8200
G1 X140.728 Y80.408 E10.8483
G1 X140.595 Y79.569 E10.8765
G1 X140.728 Y78.729 E10.9048
G1 X141.114 Y77.972 E10.9331
G1 X141.713 Y77.372 E10.9613
G1 X142.467 Y76.988 E10.9894
G1 X143.302 Y76.856 E11.0175
G1 X144.137 Y76.988 E11.0456
G1 X144.890 Y77.372 E11.0738
G1 X145.490 Y77.972 E11.1020
G1 X145.875 Y78.729 E11.1302
G1 X146.008 Y79.569 E11.1585
G1 X145.975 Y79.776 E11.1655
;segType:Perimeter
G0 X145.760 Y78.272 F10800
G1 X145.500 Y78.913 E11.1885 F2159
G1 X145.603 Y79.569 E11.2106
G1 X145.491 Y80.281 E11.2346
G1 X145.163 Y80.924 E11.2586
G1 X144.654 Y81.433 E11.2826
G1 X144.012 Y81.760 E11.3065
G1 X143.302 Y81.873 E11.3304
G1 X142.591 Y81.760 E11.3544
G1 X141.950 Y81.433 E11.3783
G1 X141.440 Y80.924 E11.4023
G1 X141.113 Y80.281 E11.4263
G1 X141.000 Y79.569 E11.4502
G1 X141.113 Y78.856 E11.4742
G1 X141.440 Y78.214 E11.4982
G1 X141.950 Y77.704 E11.5222
G1 X142.591 Y77.377 E11.5461
G1 X143.302 Y77.265 E11.5701
G1 X144.012 Y77.377 E11.5940
G1 X144.654 Y77.704 E11.6179
G1 X145.163 Y78.214 E11.6419
G1 X145.464 Y78.805 E11.6640
G1 X146.051 Y79.166
;segType:Infill
G0 X145.695 Y81.204 F10800
G1 X146.500 Y81.204 E11.6907 F5400
G0 X146.500 Y88.911 F10800
G1 X138.105 Y88.911 E11.9700 F5400
G0 X138.105 Y96.618 F10800
G1 X146.500 Y96.618 E12.2492 F5400
G0 X146.500 Y104.325 F10800
G1 X138.105 Y104.325 E12.5284 F5400
G0 X138.105 Y112.032 F10800
G1 X142.273 Y112.032 E12.6670 F5400
G0 X141.287 Y113.271 F10800
G0 X140.932 Y113.968
G0 X140.810 Y114.740
G0 X140.932 Y115.513
G0 X141.287 Y116.209
G0 X142.232 Y117.428
G1 X142.232 Y117.931 E12.6838 F5400
G0 X144.765 Y116.761 F10800
G0 X145.672 Y115.513
G0 X146.500 Y112.032
G1 X144.331 Y112.032 E12.7559 F5400
G0 X142.232 Y112.053 F10800
G1 X142.232 Y82.256 E13.7470 F5400
G0 X140.908 Y81.204 F10800
G1 X138.105 Y81.204 E13.8402 F5400
G0 X142.232 Y76.881 F10800
G1 X142.232 Y76.378 E13.8570 F5400
;segType:Support
G0 F4800 E12.8570
G0 X135.400 Y76.600 F10800
G0 F4800 E13.8570
G1 X123.307 Y76.600 E14.1988 F5400
G1 X123.307 Y78.400 E14.2497
G1 X135.400 Y78.400 E14.5916
G1 X135.400 Y80.200 E14.6425
G1 X123.307 Y80.200 E14.9844
G1 X123.307 Y82.000 E15.0353
G1 X135.400 Y82.000 E15.3772
G0 F4800 E14.3772
G0 X135.400 Y85.600 F10800
G0 F4800 E15.3772
G1 X123.307 Y85.600 E15.7191 F5400
G1 X123.307 Y87.400 E15.7699
G1 X135.400 Y87.400 E16.1118
G0 F4800 E15.1118
G0 X135.400 Y91.000 F10800
G0 F4800 E16.1118
G1 X123.307 Y91.000 E16.4537 F5400
G1 X123.307 Y89.200 E16.5046
G1 X135.400 Y89.200 E16.8465
G0 F4800 E15.8465
G0 X135.400 Y83.800 F10800
G0 F4800 E16.8465
G1 X123.307 Y83.800 E17.1884 F5400
G0 F4800 E16.1884
G0 X122.880 Y91.723 F10800
G0 X122.738 Y94.364
G0 X122.311 Y102.287
G0 X122.169 Y104.928
G0 X121.458 Y118.133
G0 F4800 E17.1884
;segType:Loop
G1 X116.743 Y118.133 E17.3452 F3600
G1 X115.954 Y118.044 E17.3716
G1 X115.235 Y117.793 E17.3969
G1 X114.592 Y117.388 E17.4222
G1 X114.054 Y116.851 E17.4475
G1 X113.651 Y116.209 E17.4727
G1 X113.401 Y115.493 E17.4979
G1 X113.312 Y114.706 E17.5243
G1 X113.312 Y79.603 E18.6918
G1 X113.401 Y78.816 E18.7181
G1 X113.651 Y78.100 E18.7434
G1 X114.054 Y77.458 E18.7686
G1 X114.591 Y76.921 E18.7938
G1 X115.235 Y76.516 E18.8191
G1 X115.954 Y76.265 E18.8445
G1 X116.743 Y76.176 E18.8709
G1 X122.107 Y76.176 E19.0493
G1 X122.107 Y118.133 E20.4448
G1 X121.649 Y118.133 E20.4600
;segType:Perimeter
G0 X122.187 Y117.896 F10800
G1 X122.450 Y118.537 E20.4831 F2159
G1 X116.721 Y118.537 E20.6736
G1 X115.865 Y118.441 E20.7023
G1 X115.062 Y118.160 E20.7306
G1 X114.342 Y117.707 E20.7588
G1 X113.741 Y117.106 E20.7871
G1 X113.289 Y116.386 E20.8154
G1 X113.008 Y115.585 E20.8436
G1 X112.912 Y114.729 E20.8723
G1 X112.912 Y79.580 E22.0413
G1 X113.008 Y78.724 E22.0700
G1 X113.289 Y77.923 E22.0982
G1 X113.741 Y77.203 E22.1265
G1 X114.342 Y76.602 E22.1548
G1 X115.062 Y76.149 E22.1830
G1 X115.865 Y75.868 E22.2113
G1 X116.721 Y75.772 E22.2400
G1 X122.507 Y75.772 E22.4324
G1 X122.507 Y118.479 E23.8529
G1 X121.872 Y118.214
;segType:Loop
G0 X118.616 Y116.619 F10800
G1 X118.298 Y116.937 E23.8678 F3600
G1 X117.545 Y117.321 E23.8960
G1 X116.710 Y117.453 E23.9241
G1 X115.875 Y117.321 E23.9522
G1 X115.121 Y116.937 E23.9803
G1 X114.522 Y116.337 E24.0085
G1 X114.136 Y115.580 E24.0368
G1 X114.004 Y114.740 E24.0651
G1 X114.136 Y113.901 E24.0933
G1 X114.522 Y113.143 E24.1216
G1 X115.121 Y112.544 E24.1498
G1 X115.875 Y112.159 E24.1779
G1 X116.710 Y112.027 E24.2060
G1 X117.545 Y112.159 E24.2342
G1 X118.298 Y112.544 E24.2623
G1 X118.898 Y113.143 E24.2905
G1 X119.283 Y113.901 E24.3188
G1 X119.416 Y114.740 E24.3470
G1 X119.283 Y115.580 E24.3753
G1 X118.898 Y116.337 E24.4036
G1 X118.751 Y116.484 E24.4105
;segType:Perimeter
G0 X119.459 Y115.143 F10800
G1 X118.872 Y115.504 E24.4334 F2159
G1 X118.571 Y116.095 E24.4554
G1 X118.062 Y116.605 E24.4794
G1 X117.420 Y116.932 E24.5034
G1 X116.710 Y117.044 E24.5273
G1 X115.999 Y116.932 E24.5512
G1 X115.358 Y116.605 E24.5752
G1 X114.848 Y116.095 E24.5991
G1 X114.521 Y115.453 E24.6231
G1 X114.408 Y114.740 E24.6471
G1 X114.521 Y114.028 E24.6711
G1 X114.848 Y113.385 E24.6951
G1 X115.358 Y112.876 E24.7190
G1 X115.999 Y112.549 E24.7430
G1 X116.710 Y112.436 E24.7669
G1 X117.420 Y112.549 E24.7908
G1 X118.062 Y112.876 E24.8148
G1 X118.571 Y113.385 E24.8387
G1 X118.899 Y114.028 E24.8627
G1 X119.011 Y114.740 E24.8867
G1 X118.908 Y115.396 E24.9088
G1 X119.168 Y116.037
;segType:Infill
G0 X119.342 Y76.378 F10800
G1 X119.342 Y78.402 E24.9761 F5400
;segType:Loop
G0 X119.353 Y79.966 F10800
G1 X119.283 Y80.408 E24.9910 F3600
G1 X118.898 Y81.166 E25.0193
G1 X118.298 Y81.765 E25.0475
G1 X117.545 Y82.150 E25.0756
G1 X116.710 Y82.282 E25.1037
G1 X115.875 Y82.150 E25.1318
G1 X115.121 Y81.765 E25.1600
G1 X114.522 Y81.166 E25.1882
G1 X114.136 Y80.408 E25.2164
G1 X114.004 Y79.569 E25.2447
G1 X114.136 Y78.729 E25.2730
G1 X114.522 Y77.972 E25.3012
G1 X115.121 Y77.372 E25.3294
G1 X115.875 Y76.988 E25.3576
G1 X116.710 Y76.856 E25.3857
G1 X117.545 Y76.988 E25.4138
G1 X118.298 Y77.372 E25.4419
G1 X118.898 Y77.972 E25.4701
G1 X119.283 Y78.729 E25.4984
G1 X119.416 Y79.569 E25.5267
G1 X119.383 Y79.776 E25.5337
;segType:Perimeter
G0 X119.168 Y78.272 F10800
G1 X118.908 Y78.913 E25.5567 F2159
G1 X119.011 Y79.569 E25.5788
G1 X118.899 Y80.281 E25.6028
G1 X118.571 Y80.924 E25.6268
G1 X118.062 Y81.433 E25.6507
G1 X117.420 Y81.760 E25.6747
G1 X116.710 Y81.873 E25.6986
G1 X115.999 Y81.760 E25.7225
G1 X115.358 Y81.433 E25.7465
G1 X114.848 Y80.924 E25.7704
G1 X114.521 Y80.281 E25.7944
G1 X114.408 Y79.569 E25.8184
G1 X114.521 Y78.856 E25.8424
G1 X114.848 Y78.214 E25.8664
G1 X115.358 Y77.704 E25.8903
G1 X115.999 Y77.377 E25.9143
G1 X116.710 Y77.265 E25.9382
G1 X117.420 Y77.377 E25.9622
G1 X118.062 Y77.704 E25.9861
G1 X118.571 Y78.214 E26.0101
G1 X118.872 Y78.805 E26.0321
G1 X119.459 Y79.166
;segType:Infill
G0 X119.103 Y81.204 F10800
G1 X121.907 Y81.204 E26.1254 F5400
G0 X121.907 Y88.911 F10800
G1 X113.512 Y88.911 E26.4046 F5400
G0 X113.512 Y96.618 F10800
G1 X121.907 Y96.618 E26.6838 F5400
G0 X121.907 Y104.325 F10800
G1 X113.512 Y104.325 E26.9630 F5400
G0 X113.512 Y112.032 F10800
G1 X115.681 Y112.032 E27.0352 F5400
G0 X117.739 Y112.032 F10800
G1 X121.907 Y112.032 E27.1738 F5400
G0 X119.342 Y117.931 F10800
G1 X119.342 Y115.907 E27.2411 F5400
G0 X119.342 Y113.574 F10800
G1 X119.342 Y80.735 E28.3334 F5400
G0 X117.479 Y81.944 F10800
G0 X116.710 Y82.065
G0 X115.941 Y81.944
G0 X114.316 Y81.204
G1 X113.512 Y81.204 E28.3601 F5400
;segType:Support
G0 F4800 E27.3601
G0 X123.307 Y118.000 F10800
G0 F4800 E28.3601
G1 X135.400 Y118.000 E28.7020 F5400
G0 F4800 E27.7020
G0 X135.400 Y112.600 F10800
G0 F4800 E28.7020
G1 X123.307 Y112.600 E29.0439 F5400
G1 X123.307 Y110.800 E29.0948
G1 X135.400 Y110.800 E29.4367
G1 X135.400 Y109.000 E29.4876
G1 X123.307 Y109.000 E29.8294
G0 F4800 E28.8294
G0 X123.307 Y101.800 F10800
G0 F4800 E29.8294
G1 X135.400 Y101.800 E30.1713 F5400
G0 F4800 E29.1713
G0 X135.400 Y98.200 F10800
G0 F4800 E30.1713
G1 X123.307 Y98.200 E30.5132 F5400
G0 F4800 E29.5132
G0 X123.307 Y94.600 F10800
G0 F4800 E30.5132
G1 X135.400 Y94.600 E30.8551 F5400
; ------------------------------------
; Layer #4
; ------------------------------------
G21 ; mm
G90 ; abs
G92 E0 ; reset extr
M106 S255
;segType:Support
G0 F4800 E-1.0000
G0 F300 Z1.000
G0 X135.400 Y94.600 F10800
G0 F4800 E0.0000
G1 X123.307 Y94.600 E0.3419 F5400
G0 F4800 E-0.6581
G0 X123.307 Y82.000 F10800
G0 F4800 E0.3419
G1 X135.400 Y82.000 E0.6838 F5400
G1 X135.400 Y83.800 E0.7347
G1 X123.307 Y83.800 E1.0765
G1 X123.307 Y85.600 E1.1274
G1 X135.400 Y85.600 E1.4693
G1 X135.400 Y87.400 E1.5202
G1 X123.307 Y87.400 E1.8621
G1 X123.307 Y89.200 E1.9130
G1 X135.400 Y89.200 E2.2549
G1 X135.400 Y91.000 E2.3058
G1 X123.307 Y91.000 E2.6476
G0 F4800 E1.6476
G0 X123.307 Y96.400 F10800
G0 F4800 E2.6476
G1 X135.400 Y96.400 E2.9895 F5400
G0 F4800 E1.9895
G0 X135.400 Y100.000 F10800
G0 F4800 E2.9895
G1 X123.307 Y100.000 E3.3314 F5400
G1 X123.307 Y101.800 E3.3823
G1 X135.400 Y101.800 E3.7242
G1 X135.400 Y103.600 E3.7751
G1 X123.307 Y103.600 E4.1170
G0 F4800 E3.1170
G0 X123.307 Y109.000 F10800
G0 F4800 E4.1170
G1 X135.400 Y109.000 E4.4589 F5400
G1 X135.400 Y110.800 E4.5097
G1 X123.307 Y110.800 E4.8516
G1 X123.307 Y112.600 E4.9025
G1 X135.400 Y112.600 E5.2444
G0 F4800 E4.2444
G0 X135.400 Y118.000 F10800
G0 F4800 E5.2444
G1 X123.307 Y118.000 E5.5863 F5400
;segType:Loop
G0 F4800 E4.5863
G0 X121.458 Y118.133 F10800
G0 F4800 E5.5863
G1 X116.743 Y118.133 E5.7431 F3600
G1 X115.954 Y118.044 E5.7695
G1 X115.235 Y117.793 E5.7948
G1 X114.592 Y117.388 E5.8201
G1 X114.054 Y116.851 E5.8454
G1 X113.651 Y116.209 E5.8706
G1 X113.401 Y115.493 E5.8958
G1 X113.312 Y114.706 E5.9222
G1 X113.312 Y79.603 E7.0897
G1 X113.401 Y78.816 E7.1161
G1 X113.651 Y78.100 E7.1413
G1 X114.054 Y77.458 E7.1665
G1 X114.591 Y76.921 E7.1918
G1 X115.235 Y76.516 E7.2171
G1 X115.954 Y76.265 E7.2424
G1 X116.743 Y76.176 E7.2688
G1 X122.107 Y76.176 E7.4472
G1 X122.107 Y118.133 E8.8427
G1 X121.649 Y118.133 E8.8580
;segType:Perimeter
G0 X122.187 Y117.896 F10800
G1 X122.450 Y118.537 E8.8810 F2159
G1 X116.721 Y118.537 E9.0715
G1 X115.865 Y118.441 E9.1002
G1 X115.062 Y118.160 E9.1285
G1 X114.342 Y117.707 E9.1568
G1 X113.741 Y117.106 E9.1850
G1 X113.289 Y116.386 E9.2133
G1 X113.008 Y115.585 E9.2416
G1 X112.912 Y114.729 E9.2702
G1 X112.912 Y79.580 E10.4392
G1 X113.008 Y78.724 E10.4679
G1 X113.289 Y77.923 E10.4961
G1 X113.741 Y77.203 E10.5244
G1 X114.342 Y76.602 E10.5527
G1 X115.062 Y76.149 E10.5810
G1 X115.865 Y75.868 E10.6093
G1 X116.721 Y75.772 E10.6379
G1 X122.507 Y75.772 E10.8304
G1 X122.507 Y118.479 E12.2508
G1 X121.872 Y118.214
;segType:Loop
G0 X118.616 Y116.619 F10800
G1 X118.298 Y116.937 E12.2657 F3600
G1 X117.545 Y117.321 E12.2939
G1 X116.710 Y117.453 E12.3220
G1 X115.875 Y117.321 E12.3501
G1 X115.121 Y116.937 E12.3782
G1 X114.522 Y116.337 E12.4064
G1 X114.136 Y115.580 E12.4347
G1 X114.004 Y114.740 E12.4630
G1 X114.136 Y113.901 E12.4913
G1 X114.522 Y113.143 E12.5195
G1 X115.121 Y112.544 E12.5477
G1 X115.875 Y112.159 E12.5759
G1 X116.710 Y112.027 E12.6040
G1 X117.545 Y112.159 E12.6321
G1 X118.298 Y112.544 E12.6602
G1 X118.898 Y113.143 E12.6884
G1 X119.283 Y113.901 E12.7167
G1 X119.416 Y114.740 E12.7450
G1 X119.283 Y115.580 E12.7732
G1 X118.898 Y116.337 E12.8015
G1 X118.751 Y116.484 E12.8084
;segType:Perimeter
G0 X119.459 Y115.143 F10800
G1 X118.872 Y115.504 E12.8313 F2159
G1 X118.571 Y116.095 E12.8534
G1 X118.062 Y116.605 E12.8773
G1 X117.420 Y116.932 E12.9013
G1 X116.710 Y117.044 E12.9252
G1 X115.999 Y116.932 E12.9491
G1 X115.358 Y116.605 E12.9731
G1 X114.848 Y116.095 E12.9970
G1 X114.521 Y115.453 E13.0210
G1 X114.408 Y114.740 E13.0450
G1 X114.521 Y114.028 E13.0690
G1 X114.848 Y113.385 E13.0930
G1 X115.358 Y112.876 E13.1170
G1 X115.999 Y112.549 E13.1409
G1 X116.710 Y112.436 E13.1648
G1 X117.420 Y112.549 E13.1888
G1 X118.062 Y112.876 E13.2127
G1 X118.571 Y113.385 E13.2367
G1 X118.899 Y114.028 E13.2607
G1 X119.011 Y114.740 E13.2846
G1 X118.908 Y115.396 E13.3067
G1 X119.168 Y116.037
;segType:Infill
G0 X119.342 Y76.378 F10800
G1 X119.342 Y78.402 E13.3740 F5400
;segType:Loop
G0 X119.353 Y79.966 F10800
G1 X119.283 Y80.408 E13.3889 F3600
G1 X118.898 Y81.166 E13.4172
G1 X118.298 Y81.765 E13.4454
G1 X117.545 Y82.150 E13.4735
G1 X116.710 Y82.282 E13.5016
G1 X115.875 Y82.150 E13.5298
G1 X115.121 Y81.765 E13.5579
G1 X114.522 Y81.166 E13.5861
G1 X114.136 Y80.408 E13.6144
G1 X114.004 Y79.569 E13.6426
G1 X114.136 Y78.729 E13.6709
G1 X114.522 Y77.972 E13.6992
G1 X115.121 Y77.372 E13.7274
G1 X115.875 Y76.988 E13.7555
G1 X116.710 Y76.856 E13.7836
G1 X117.545 Y76.988 E13.8117
G1 X118.298 Y77.372 E13.8399
G1 X118.898 Y77.972 E13.8681
G1 X119.283 Y78.729 E13.8963
G1 X119.416 Y79.569 E13.9246
G1 X119.383 Y79.776 E13.9316
;segType:Perimeter
G0 X119.168 Y78.272 F10800
G1 X118.908 Y78.913 E13.9546 F2159
G1 X119.011 Y79.569 E13.9767
G1 X118.899 Y80.281 E14.0007
G1 X118.571 Y80.924 E14.0247
G1 X118.062 Y81.433 E14.0486
G1 X117.420 Y81.760 E14.0726
G1 X116.710 Y81.873 E14.0965
G1 X115.999 Y81.760 E14.1205
G1 X115.358 Y81.433 E14.1444
G1 X114.848 Y80.924 E14.1684
G1 X114.521 Y80.281 E14.1923
G1 X114.408 Y79.569 E14.2163
G1 X114.521 Y78.856 E14.2403
G1 X114.848 Y78.214 E14.2643
G1 X115.358 Y77.704 E14.2883
G1 X115.999 Y77.377 E14.3122
G1 X116.710 Y77.265 E14.3361
G1 X117.420 Y77.377 E14.3601
G1 X118.062 Y77.704 E14.3840
G1 X118.571 Y78.214 E14.4080
G1 X118.872 Y78.805 E14.4301
G1 X119.459 Y79.166
;segType:Infill
G0 X119.103 Y81.204 F10800
G1 X121.907 Y81.204 E14.5233 F5400
G0 X121.907 Y88.911 F10800
G1 X113.512 Y88.911 E14.8025 F5400
G0 X113.512 Y96.618 F10800
G1 X121.907 Y96.618 E15.0817 F5400
G0 X121.907 Y104.325 F10800
G1 X113.512 Y104.325 E15.3610 F5400
G0 X113.512 Y112.032 F10800
G1 X115.681 Y112.032 E15.4331 F5400
G0 X117.739 Y112.032 F10800
G1 X121.907 Y112.032 E15.5717 F5400
G0 X119.342 Y117.931 F10800
G1 X119.342 Y115.907 E15.6391 F5400
G0 X119.342 Y113.574 F10800
G1 X119.342 Y80.735 E16.7313 F5400
G0 X117.479 Y81.944 F10800
G0 X116.710 Y82.065
G0 X115.941 Y81.944
G0 X114.316 Y81.204
G1 X113.512 Y81.204 E16.7580 F5400
G0 F4800 E15.7580
G0 X116.710 Y82.451 F10800
G0 X123.307 Y80.200
G0 F4800 E16.7580
;segType:Support
G1 X135.400 Y80.200 E17.0999 F5400
G1 X135.400 Y78.400 E17.1508
G1 X123.307 Y78.400 E17.4927
G1 X123.307 Y76.600 E17.5436
G1 X135.400 Y76.600 E17.8855
;segType:Loop
G0 F4800 E16.8855
G0 X137.905 Y117.477 F10800
G0 F4800 E17.8855
G1 X137.905 Y76.176 E19.2592 F3600
G1 X143.268 Y76.176 E19.4376
G1 X144.058 Y76.265 E19.4640
G1 X144.777 Y76.516 E19.4893
G1 X145.420 Y76.921 E19.5146
G1 X145.957 Y77.458 E19.5399
G1 X146.361 Y78.100 E19.5651
G1 X146.611 Y78.816 E19.5903
G1 X146.700 Y79.603 E19.6167
G1 X146.700 Y114.706 E20.7842
G1 X146.611 Y115.493 E20.8105
G1 X146.361 Y116.208 E20.8357
G1 X145.957 Y116.851 E20.8610
G1 X145.420 Y117.388 E20.8863
G1 X144.777 Y117.793 E20.9115
G1 X144.058 Y118.044 E20.9369
G1 X143.268 Y118.133 E20.9633
G1 X137.905 Y118.133 E21.1417
G1 X137.905 Y117.670 E21.1571
;segType:Perimeter
G0 X138.139 Y118.214 F10800
G1 X137.505 Y118.479 E21.1800 F2159
G1 X137.505 Y75.772 E22.6004
G1 X143.291 Y75.772 E22.7929
G1 X144.147 Y75.868 E22.8215
G1 X144.950 Y76.149 E22.8498
G1 X145.670 Y76.602 E22.8781
G1 X146.271 Y77.203 E22.9064
G1 X146.723 Y77.923 E22.9346
G1 X147.004 Y78.724 E22.9629
G1 X147.100 Y79.580 E22.9915
G1 X147.100 Y114.729 E24.1606
G1 X147.004 Y115.585 E24.1892
G1 X146.723 Y116.386 E24.2175
G1 X146.271 Y117.106 E24.2457
G1 X145.670 Y117.707 E24.2740
G1 X144.950 Y118.160 E24.3023
G1 X144.147 Y118.441 E24.3306
G1 X143.291 Y118.537 E24.3592
G1 X137.562 Y118.537 E24.5498
G1 X137.825 Y117.896
G0 X143.302 Y117.237 F10800
G0 X144.071 Y117.115
G0 X145.208 Y116.619
;segType:Loop
G1 X144.890 Y116.937 E24.5647 F3600
G1 X144.137 Y117.321 E24.5928
G1 X143.302 Y117.453 E24.6209
G1 X142.467 Y117.321 E24.6491
G1 X141.713 Y116.937 E24.6772
G1 X141.114 Y116.337 E24.7054
G1 X140.728 Y115.580 E24.7337
G1 X140.595 Y114.740 E24.7619
G1 X140.728 Y113.901 E24.7902
G1 X141.114 Y113.143 E24.8185
G1 X141.713 Y112.544 E24.8467
G1 X142.467 Y112.159 E24.8748
G1 X143.302 Y112.027 E24.9029
G1 X144.137 Y112.159 E24.9310
G1 X144.890 Y112.544 E24.9592
G1 X145.490 Y113.143 E24.9874
G1 X145.875 Y113.901 E25.0156
G1 X146.008 Y114.740 E25.0439
G1 X145.875 Y115.580 E25.0722
G1 X145.490 Y116.337 E25.1005
G1 X145.343 Y116.484 E25.1074
;segType:Perimeter
G0 X146.051 Y115.143 F10800
G1 X145.464 Y115.504 E25.1303 F2159
G1 X145.163 Y116.095 E25.1523
G1 X144.654 Y116.605 E25.1763
G1 X144.012 Y116.932 E25.2002
G1 X143.302 Y117.044 E25.2242
G1 X142.591 Y116.932 E25.2481
G1 X141.950 Y116.605 E25.2720
G1 X141.440 Y116.095 E25.2960
G1 X141.113 Y115.453 E25.3200
G1 X141.000 Y114.740 E25.3440
G1 X141.113 Y114.028 E25.3680
G1 X141.440 Y113.385 E25.3920
G1 X141.950 Y112.876 E25.4159
G1 X142.591 Y112.549 E25.4399
G1 X143.302 Y112.436 E25.4638
G1 X144.012 Y112.549 E25.4877
G1 X144.654 Y112.876 E25.5117
G1 X145.163 Y113.385 E25.5356
G1 X145.491 Y114.028 E25.5596
G1 X145.603 Y114.740 E25.5836
G1 X145.500 Y115.396 E25.6057
G1 X145.760 Y116.037
G0 F4800 E24.6057
G0 X146.438 Y114.153 F10800
G0 X145.945 Y79.966
G0 F4800 E25.6057
;segType:Loop
G1 X145.875 Y80.408 E25.6206 F3600
G1 X145.490 Y81.166 E25.6488
G1 X144.890 Y81.765 E25.6770
G1 X144.137 Y82.150 E25.7052
G1 X143.302 Y82.282 E25.7333
G1 X142.467 Y82.150 E25.7614
G1 X141.713 Y81.765 E25.7895
G1 X141.114 Y81.166 E25.8177
G1 X140.728 Y80.408 E25.8460
G1 X140.595 Y79.569 E25.8743
G1 X140.728 Y78.729 E25.9025
G1 X141.114 Y77.972 E25.9308
G1 X141.713 Y77.372 E25.9590
G1 X142.467 Y76.988 E25.9871
G1 X143.302 Y76.856 E26.0153
G1 X144.137 Y76.988 E26.0434
G1 X144.890 Y77.372 E26.0715
G1 X145.490 Y77.972 E26.0997
G1 X145.875 Y78.729 E26.1280
G1 X146.008 Y79.569 E26.1562
G1 X145.975 Y79.776 E26.1632
;segType:Perimeter
G0 X145.760 Y78.272 F10800
G1 X145.500 Y78.913 E26.1863 F2159
G1 X145.603 Y79.569 E26.2083
G1 X145.491 Y80.281 E26.2323
G1 X145.163 Y80.924 E26.2563
G1 X144.654 Y81.433 E26.2803
G1 X144.012 Y81.760 E26.3042
G1 X143.302 Y81.873 E26.3282
G1 X142.591 Y81.760 E26.3521
G1 X141.950 Y81.433 E26.3760
G1 X141.440 Y80.924 E26.4000
G1 X141.113 Y80.281 E26.4240
G1 X141.000 Y79.569 E26.4480
G1 X141.113 Y78.856 E26.4720
G1 X141.440 Y78.214 E26.4959
G1 X141.950 Y77.704 E26.5199
G1 X142.591 Y77.377 E26.5439
G1 X143.302 Y77.265 E26.5678
G1 X144.012 Y77.377 E26.5917
G1 X144.654 Y77.704 E26.6157
G1 X145.163 Y78.214 E26.6396
G1 X145.464 Y78.805 E26.6617
G1 X146.051 Y79.166
;segType:Infill
G0 X145.695 Y81.204 F10800
G1 X146.500 Y81.204 E26.6885 F5400
G0 X146.500 Y88.911 F10800
G1 X138.105 Y88.911 E26.9677 F5400
G0 X138.105 Y96.618 F10800
G1 X146.500 Y96.618 E27.2469 F5400
G0 X146.500 Y104.325 F10800
G1 X138.105 Y104.325 E27.5261 F5400
G0 X138.105 Y112.032 F10800
G1 X142.273 Y112.032 E27.6648 F5400
G0 X141.287 Y113.271 F10800
G0 X140.932 Y113.968
G0 X140.810 Y114.740
G0 X140.932 Y115.513
G0 X141.287 Y116.209
G0 X142.232 Y117.428
G1 X142.232 Y117.931 E27.6815 F5400
G0 X144.765 Y116.761 F10800
G0 X145.672 Y115.513
G0 X146.500 Y112.032
G1 X144.331 Y112.032 E27.7536 F5400
G0 X142.232 Y112.053 F10800
G1 X142.232 Y82.256 E28.7447 F5400
G0 X140.908 Y81.204 F10800
G1 X138.105 Y81.204 E28.8379 F5400
G0 X142.232 Y76.881 F10800
G1 X142.232 Y76.378 E28.8547 F5400
G0 F4800 E27.8547
G0 X140.569 Y78.676 F10800
G0 X135.400 Y116.200
G0 F4800 E28.8547
;segType:Support
G1 X123.307 Y116.200 E29.1966 F5400
G1 X123.307 Y114.400 E29.2475
G1 X135.400 Y114.400 E29.5893
G0 F4800 E28.5893
G0 X135.400 Y107.200 F10800
G0 F4800 E29.5893
G1 X123.307 Y107.200 E29.9312 F5400
G1 X123.307 Y105.400 E29.9821
G1 X135.400 Y105.400 E30.3240
G0 F4800 E29.3240
G0 X135.400 Y98.200 F10800
G0 F4800 E30.3240
G1 X123.307 Y98.200 E30.6659 F5400
G0 F4800 E29.6659
G0 X123.307 Y92.800 F10800
G0 F4800 E30.6659
G1 X135.400 Y92.800 E31.0078 F5400
; ------------------------------------
; Layer #5
; ------------------------------------
G21 ; mm
G90 ; abs
G92 E0 ; reset extr
M106 S255
;segType:Support
G0 F4800 E-1.0000
G0 F300 Z1.200
G0 X135.400 Y92.800 F10800
G0 F4800 E0.0000
G1 X123.307 Y92.800 E0.3419 F5400
G0 F4800 E-0.6581
G0 X123.307 Y96.400 F10800
G0 F4800 E0.3419
G1 X135.400 Y96.400 E0.6838 F5400
G0 F4800 E-0.3162
G0 X135.400 Y100.000 F10800
G0 F4800 E0.6838
G1 X123.307 Y100.000 E1.0257 F5400
G0 F4800 E0.0257
G0 X123.307 Y103.600 F10800
G0 F4800 E1.0257
G1 X135.400 Y103.600 E1.3675 F5400
G1 X135.400 Y105.400 E1.4184
G1 X123.307 Y105.400 E1.7603
G1 X123.307 Y107.200 E1.8112
G1 X135.400 Y107.200 E2.1531
G0 F4800 E1.1531
G0 X135.400 Y114.400 F10800
G0 F4800 E2.1531
G1 X123.307 Y114.400 E2.4950 F5400
G1 X123.307 Y116.200 E2.5459
G1 X135.400 Y116.200 E2.8878
;segType:Loop
G0 F4800 E1.8878
G0 X137.905 Y117.477 F10800
G0 F4800 E2.8878
G1 X137.905 Y76.176 E4.2615 F3600
G1 X143.268 Y76.176 E4.4398
G1 X144.058 Y76.265 E4.4663
G1 X144.777 Y76.516 E4.4916
G1 X145.420 Y76.921 E4.5169
G1 X145.957 Y77.458 E4.5421
G1 X146.361 Y78.100 E4.5674
G1 X146.611 Y78.816 E4.5926
G1 X146.700 Y79.603 E4.6189
G1 X146.700 Y114.706 E5.7865
G1 X146.611 Y115.493 E5.8128
G1 X146.361 Y116.208 E5.8380
G1 X145.957 Y116.851 E5.8633
G1 X145.420 Y117.388 E5.8885
G1 X144.777 Y117.793 E5.9138
G1 X144.058 Y118.044 E5.9391
G1 X143.268 Y118.133 E5.9656
G1 X137.905 Y118.133 E6.1440
G1 X137.905 Y117.670 E6.1594
;segType:Perimeter
G0 X138.139 Y118.214 F10800
G1 X137.505 Y118.479 E6.1822 F2159
G1 X137.505 Y75.772 E7.6027
G1 X143.291 Y75.772 E7.7951
G1 X144.147 Y75.868 E7.8238
G1 X144.950 Y76.149 E7.8521
G1 X145.670 Y76.602 E7.8804
G1 X146.271 Y77.203 E7.9086
G1 X146.723 Y77.923 E7.9369
G1 X147.004 Y78.724 E7.9652
G1 X147.100 Y79.580 E7.9938
G1 X147.100 Y114.729 E9.1628
G1 X147.004 Y115.585 E9.1915
G1 X146.723 Y116.386 E9.2198
G1 X146.271 Y117.106 E9.2480
G1 X145.670 Y117.707 E9.2763
G1 X144.950 Y118.160 E9.3046
G1 X144.147 Y118.441 E9.3329
G1 X143.291 Y118.537 E9.3615
G1 X137.562 Y118.537 E9.5521
G1 X137.825 Y117.896
G0 X143.302 Y117.237 F10800
G0 X144.071 Y117.115
G0 X145.208 Y116.619
;segType:Loop
G1 X144.890 Y116.937 E9.5670 F3600
G1 X144.137 Y117.321 E9.5951
G1 X143.302 Y117.453 E9.6232
G1 X142.467 Y117.321 E9.6513
G1 X141.713 Y116.937 E9.6795
G1 X141.114 Y116.337 E9.7077
G1 X140.728 Y115.580 E9.7359
G1 X140.595 Y114.740 E9.7642
G1 X140.728 Y113.901 E9.7925
G1 X141.114 Y113.143 E9.8208
G1 X141.713 Y112.544 E9.8490
G1 X142.467 Y112.159 E9.8771
G1 X143.302 Y112.027 E9.9052
G1 X144.137 Y112.159 E9.9333
G1 X144.890 Y112.544 E9.9615
G1 X145.490 Y113.143 E9.9897
G1 X145.875 Y113.901 E10.0179
G1 X146.008 Y114.740 E10.0462
G1 X145.875 Y115.580 E10.0745
G1 X145.490 Y116.337 E10.1027
G1 X145.343 Y116.484 E10.1096
;segType:Perimeter
G0 X146.051 Y115.143 F10800
G1 X145.464 Y115.504 E10.1325 F2159
G1 X145.163 Y116.095 E10.1546
G1 X144.654 Y116.605 E10.1786
G1 X144.012 Y116.932 E10.2025
G1 X143.302 Y117.044 E10.2264
G1 X142.591 Y116.932 E10.2504
G1 X141.950 Y116.605 E10.2743
G1 X141.440 Y116.095 E10.2983
G1 X141.113 Y115.453 E10.3223
G1 X141.000 Y114.740 E10.3463
G1 X141.113 Y114.028 E10.3702
G1 X141.440 Y113.385 E10.3942
G1 X141.950 Y112.876 E10.4182
G1 X142.591 Y112.549 E10.4421
G1 X143.302 Y112.436 E10.4661
G1 X144.012 Y112.549 E10.4900
G1 X144.654 Y112.876 E10.5140
G1 X145.163 Y113.385 E10.5379
G1 X145.491 Y114.028 E10.5619
G1 X145.603 Y114.740 E10.5859
G1 X145.500 Y115.396 E10.6080
G1 X145.760 Y116.037
G0 F4800 E9.6080
G0 X146.438 Y114.153 F10800
G0 X145.945 Y79.966
G0 F4800 E10.6080
;segType:Loop
G1 X145.875 Y80.408 E10.6228 F3600
G1 X145.490 Y81.166 E10.6511
G1 X144.890 Y81.765 E10.6793
G1 X144.137 Y82.150 E10.7075
G1 X143.302 Y82.282 E10.7356
G1 X142.467 Y82.150 E10.7637
G1 X141.713 Y81.765 E10.7918
G1 X141.114 Y81.166 E10.8200
G1 X140.728 Y80.408 E10.8483
G1 X140.595 Y79.569 E10.8765
G1 X140.728 Y78.729 E10.9048
G1 X141.114 Y77.972 E10.9331
G1 X141.713 Y77.372 E10.9613
G1 X142.467 Y76.988 E10.9894
G1 X143.302 Y76.856 E11.0175
G1 X144.137 Y76.988 E11.0456
G1 X144.890 Y77.372 E11.0738
G1 X145.490 Y77.972 E11.1020
G1 X145.875 Y78.729 E11.1302
G1 X146.008 Y79.569 E11.1585
G1 X145.975 Y79.776 E11.1655
;segType:Perimeter
G0 X145.760 Y78.272 F10800
G1 X145.500 Y78.913 E11.1885 F2159
G1 X145.603 Y79.569 E11.2106
G1 X145.491 Y80.281 E11.2346
G1 X145.163 Y80.924 E11.2586
G1 X144.654 Y81.433 E11.2826
G1 X144.012 Y81.760 E11.3065
G1 X143.302 Y81.873 E11.3304
G1 X142.591 Y81.760 E11.3544
G1 X141.950 Y81.433 E11.3783
G1 X141.440 Y80.924 E11.4023
G1 X141.113 Y80.281 E11.4263
G1 X141.000 Y79.569 E11.4502
G1 X141.113 Y78.856 E11.4742
G1 X141.440 Y78.214 E11.4982
G1 X141.950 Y77.704 E11.5222
G1 X142.591 Y77.377 E11.5461
G1 X143.302 Y77.265 E11.5701
G1 X144.012 Y77.377 E11.5940
G1 X144.654 Y77.704 E11.6179
G1 X145.163 Y78.214 E11.6419
G1 X145.464 Y78.805 E11.6640
G1 X146.051 Y79.166
;segType:Infill
G0 X145.695 Y81.204 F10800
G1 X146.500 Y81.204 E11.6907 F5400
G0 X146.500 Y88.911 F10800
G1 X138.105 Y88.911 E11.9700 F5400
G0 X138.105 Y96.618 F10800
G1 X146.500 Y96.618 E12.2492 F5400
G0 X146.500 Y104.325 F10800
G1 X138.105 Y104.325 E12.5284 F5400
G0 X138.105 Y112.032 F10800
G1 X142.273 Y112.032 E12.6670 F5400
G0 X141.287 Y113.271 F10800
G0 X140.932 Y113.968
G0 X140.810 Y114.740
G0 X140.932 Y115.513
G0 X141.287 Y116.209
G0 X142.232 Y117.428
G1 X142.232 Y117.931 E12.6838 F5400
G0 X144.765 Y116.761 F10800
G0 X145.672 Y115.513
G0 X146.500 Y112.032
G1 X144.331 Y112.032 E12.7559 F5400
G0 X142.232 Y112.053 F10800
G1 X142.232 Y82.256 E13.7470 F5400
G0 X140.908 Y81.204 F10800
G1 X138.105 Y81.204 E13.8402 F5400
G0 X142.232 Y76.881 F10800
G1 X142.232 Y76.378 E13.8570 F5400
;segType:Support
G0 F4800 E12.8570
G0 X135.400 Y76.600 F10800
G0 F4800 E13.8570
G1 X123.307 Y76.600 E14.1988 F5400
G1 X123.307 Y78.400 E14.2497
G1 X135.400 Y78.400 E14.5916
G1 X135.400 Y80.200 E14.6425
G1 X123.307 Y80.200 E14.9844
G1 X123.307 Y82.000 E15.0353
G1 X135.400 Y82.000 E15.3772
G0 F4800 E14.3772
G0 X135.400 Y85.600 F10800
G0 F4800 E15.3772
G1 X123.307 Y85.600 E15.7191 F5400
G1 X123.307 Y87.400 E15.7699
G1 X135.400 Y87.400 E16.1118
G0 F4800 E15.1118
G0 X135.400 Y91.000 F10800
G0 F4800 E16.1118
G1 X123.307 Y91.000 E16.4537 F5400
G1 X123.307 Y89.200 E16.5046
G1 X135.400 Y89.200 E16.8465
G0 F4800 E15.8465
G0 X135.400 Y83.800 F10800
G0 F4800 E16.8465
G1 X123.307 Y83.800 E17.1884 F5400
G0 F4800 E16.1884
G0 X122.880 Y91.723 F10800
G0 X122.738 Y94.364
G0 X122.311 Y102.287
G0 X122.169 Y104.928
G0 X121.458 Y118.133
G0 F4800 E17.1884
;segType:Loop
G1 X116.743 Y118.133 E17.3452 F3600
G1 X115.954 Y118.044 E17.3716
G1 X115.235 Y117.793 E17.3969
G1 X114.592 Y117.388 E17.4222
G1 X114.054 Y116.851 E17.4475
G1 X113.651 Y116.209 E17.4727
G1 X113.401 Y115.493 E17.4979
G1 X113.312 Y114.706 E17.5243
G1 X113.312 Y79.603 E18.6918
G1 X113.401 Y78.816 E18.7181
G1 X113.651 Y78.100 E18.7434
G1 X114.054 Y77.458 E18.7686
G1 X114.591 Y76.921 E18.7938
G1 X115.235 Y76.516 E18.8191
G1 X115.954 Y76.265 E18.8445
G1 X116.743 Y76.176 E18.8709
G1 X122.107 Y76.176 E19.0493
G1 X122.107 Y118.133 E20.4448
G1 X121.649 Y118.133 E20.4600
;segType:Perimeter
G0 X122.187 Y117.896 F10800
G1 X122.450 Y118.537 E20.4831 F2159
G1 X116.721 Y118.537 E20.6736
G1 X115.865 Y118.441 E20.7023
G1 X115.062 Y118.160 E20.7306
