; GCode generated by CraftWare

G28 X0 Y0
G28 Z0

M190 S70 ;set bed temp (wait)
M109 S220 ;set head temp (wait)
; ------------------------------------
; Layer #0
; ------------------------------------
G21 ; mm
G90 ; abs
G92 E0 ; reset extr
M106 S0
;segType:Skirt
G0 F4800 E-1.0000
G0 F300 Z0.200
G0 X102.909 Y133.623 F10800
G0 F4800 E0.0000
G1 X106.293 Y136.992 E0.1588 F600
G1 X106.749 Y137.316 E0.1774
G1 X107.009 Y137.445 E0.1871
G1 X107.269 Y137.575 E0.1968
G1 X107.529 Y137.575 E0.2054
G1 X107.660 Y137.704 E0.2115
G1 X107.920 Y137.704 E0.2202
G1 X108.050 Y137.834 E0.2263
G1 X111.695 Y137.834 E0.3475
G1 X111.825 Y137.704 E0.3536
G1 X112.085 Y137.704 E0.3623
G1 X112.215 Y137.575 E0.3684
G1 X112.476 Y137.575 E0.3770
G1 X113.127 Y137.186 E0.4023
G1 X113.387 Y136.927 E0.4145
G1 X113.712 Y136.733 E0.4271
G1 X116.836 Y133.623 E0.5737
G1 X117.422 Y132.651 E0.6114
G1 X117.682 Y131.874 E0.6387
G1 X117.747 Y131.420 E0.6539
G1 X117.747 Y129.865 E0.7056
G1 X118.203 Y129.800 E0.7210
G1 X141.893 Y129.800 E1.5089
G1 X141.958 Y130.254 E1.5241
G1 X141.958 Y131.809 E1.5759
G1 X142.088 Y131.939 E1.5820
G1 X142.088 Y132.198 E1.5906
G1 X142.219 Y132.327 E1.5967
G1 X142.219 Y132.586 E1.6053
G1 X142.804 Y133.558 E1.6430
G1 X146.188 Y136.927 E1.8019
G1 X147.165 Y137.510 E1.8397
G1 X147.946 Y137.770 E1.8671
G1 X148.401 Y137.834 E1.8824
G1 X151.525 Y137.834 E1.9863
G1 X151.916 Y137.704 E1.9999
G1 X152.176 Y137.704 E2.0086
G1 X153.478 Y136.927 E2.0590
G1 X156.862 Y133.558 E2.2179
G1 X157.447 Y132.586 E2.2556
G1 X157.447 Y132.327 E2.2642
G1 X157.578 Y132.198 E2.2703
G1 X157.578 Y131.939 E2.2789
G1 X157.708 Y131.809 E2.2850
G1 X157.708 Y99.933 E3.3452
G1 X156.406 Y98.638 E3.4063
G1 X156.602 Y98.313 E3.4189
G1 X156.862 Y98.054 E3.4311
G1 X157.447 Y97.083 E3.4689
G1 X157.708 Y96.305 E3.4961
G1 X157.708 Y64.430 E4.5563
G1 X154.844 Y61.579 E4.6907
G1 X154.389 Y61.515 E4.7060
G1 X148.922 Y61.515 E4.8878
G1 X146.058 Y64.365 E5.0222
G1 X145.863 Y64.689 E5.0348
G1 X145.863 Y78.165 E5.4830
G1 X145.798 Y78.619 E5.4982
G1 X114.038 Y78.619 E6.5546
G1 X113.842 Y78.553 E6.5614
G1 X113.842 Y64.559 E7.0269
G1 X110.979 Y61.709 E7.1613
G1 X110.653 Y61.515 E7.1739
G1 X104.926 Y61.515 E7.3644
G1 X102.063 Y64.365 E7.4988
G1 X101.998 Y64.818 E7.5140
G1 X101.998 Y95.917 E8.5483
G1 X102.072 Y96.434 E8.5657
G0 F4800 E7.5657
G0 X104.597 Y95.749 F10800
G0 X107.123 Y95.065
G0 X107.549 Y92.799
G0 X109.584 Y91.563
G0 X113.314 Y89.812
G0 X150.225 Y83.222
G0 F4800 E8.5657
;segType:HShell
G1 X143.790 Y89.627 E8.8677 F600
G1 X143.237 Y89.627
G1 X149.672 Y83.222 E9.1696
;segType:Perimeter
G0 X149.842 Y83.213 F10800
G1 X150.111 Y82.566 E9.1929 F359
G1 X150.111 Y65.629 E9.7563
G1 X153.709 Y65.629 E9.8760
G1 X153.709 Y94.417 E10.8335
G1 X153.685 Y94.848 E10.8478
G1 X153.614 Y95.268 E10.8620
G1 X153.496 Y95.678 E10.8762
G1 X153.342 Y96.052 E10.8896
G1 X153.141 Y96.420 E10.9036
G1 X152.931 Y96.725 E10.9159
G1 X152.744 Y96.953 E10.9257
G1 X152.441 Y97.257 E10.9400
G1 X152.126 Y97.508 E10.9534
G1 X151.782 Y97.728 E10.9669
G1 X151.561 Y97.846 E10.9753
G1 X151.165 Y98.009 E10.9895
G1 X150.777 Y98.122 E11.0030
G1 X150.364 Y98.194 E11.0169
G1 X149.995 Y98.220 E11.0292
G1 X149.700 Y98.216 E11.0390
G1 X149.274 Y98.168 E11.0533
G1 X148.882 Y98.079 E11.0667
G1 X148.495 Y97.947 E11.0802
G1 X148.265 Y97.847 E11.0886
G1 X147.891 Y97.640 E11.1028
G1 X147.561 Y97.406 E11.1163
G1 X147.247 Y97.129 E11.1302
G1 X146.996 Y96.856 E11.1425
G1 X146.816 Y96.623 E11.1523
G1 X146.587 Y96.260 E11.1666
G1 X146.412 Y95.897 E11.1800
G1 X146.274 Y95.513 E11.1936
G1 X146.209 Y95.270 E11.2019
G1 X146.138 Y94.848 E11.2162
G1 X146.113 Y94.417 E11.2305
G1 X146.113 Y90.224 E11.3700
G1 X113.729 Y90.224 E12.4471
G1 X113.729 Y94.417 E12.5865
G1 X113.704 Y94.848 E12.6009
G1 X113.633 Y95.268 E12.6151
G1 X113.515 Y95.678 E12.6292
G1 X113.361 Y96.052 E12.6427
G1 X113.160 Y96.420 E12.6567
G1 X112.950 Y96.725 E12.6690
G1 X112.764 Y96.953 E12.6788
G1 X112.460 Y97.257 E12.6930
G1 X112.146 Y97.508 E12.7064
G1 X111.802 Y97.728 E12.7200
G1 X111.580 Y97.846 E12.7284
G1 X111.185 Y98.009 E12.7426
G1 X110.797 Y98.122 E12.7560
G1 X110.384 Y98.194 E12.7700
G1 X110.015 Y98.220 E12.7823
G1 X109.720 Y98.216 E12.7921
G1 X109.294 Y98.168 E12.8063
G1 X108.901 Y98.079 E12.8197
G1 X108.515 Y97.947 E12.8333
G1 X108.285 Y97.847 E12.8417
G1 X107.911 Y97.640 E12.8559
G1 X107.581 Y97.406 E12.8693
G1 X107.266 Y97.129 E12.8833
G1 X107.016 Y96.856 E12.8956
G1 X106.835 Y96.623 E12.9054
G1 X106.607 Y96.260 E12.9197
G1 X106.431 Y95.897 E12.9331
G1 X106.294 Y95.513 E12.9467
G1 X106.229 Y95.270 E12.9550
G1 X106.157 Y94.848 E12.9692
G1 X106.133 Y94.417 E12.9836
G1 X106.133 Y65.629 E13.9411
G1 X109.731 Y65.629 E14.0608
G1 X109.731 Y82.625 E14.6261
G1 X150.053 Y82.625 E15.9672
G1 X150.703 Y82.356
;segType:Loop
G0 X150.511 Y81.555 F10800
G1 X150.511 Y66.027 E16.4836 F600
G1 X153.310 Y66.027 E16.5767
G1 X153.310 Y94.406 E17.5206
G1 X153.287 Y94.804 E17.5338
G1 X153.223 Y95.180 E17.5465
G1 X153.117 Y95.547 E17.5592
G1 X152.980 Y95.881 E17.5712
G1 X152.799 Y96.212 E17.5838
G1 X152.446 Y96.687 E17.6035
G1 X152.173 Y96.960 E17.6163
G1 X151.892 Y97.185 E17.6283
G1 X151.390 Y97.485 E17.6478
G1 X151.032 Y97.633 E17.6606
G1 X150.686 Y97.733 E17.6726
G1 X150.315 Y97.798 E17.6851
G1 X149.725 Y97.818 E17.7048
G1 X149.342 Y97.775 E17.7176
G1 X148.992 Y97.696 E17.7295
G1 X148.443 Y97.490 E17.7490
G1 X148.105 Y97.303 E17.7619
G1 X147.811 Y97.094 E17.7739
G1 X147.528 Y96.845 E17.7864
G1 X147.144 Y96.395 E17.8061
G1 X146.938 Y96.068 E17.8189
G1 X146.782 Y95.744 E17.8309
G1 X146.600 Y95.185 E17.8504
G1 X146.536 Y94.804 E17.8633
G1 X146.513 Y94.406 E17.8766
G1 X146.513 Y89.826 E18.0289
G1 X113.329 Y89.826 E19.1326
G1 X113.329 Y94.406 E19.2849
G1 X113.306 Y94.804 E19.2982
G1 X113.243 Y95.180 E19.3109
G1 X113.137 Y95.547 E19.3236
G1 X112.999 Y95.881 E19.3356
G1 X112.819 Y96.212 E19.3481
G1 X112.466 Y96.687 E19.3678
G1 X112.193 Y96.960 E19.3807
G1 X111.912 Y97.185 E19.3926
G1 X111.409 Y97.485 E19.4121
G1 X111.052 Y97.633 E19.4250
G1 X110.706 Y97.733 E19.4369
G1 X110.335 Y97.798 E19.4495
G1 X109.745 Y97.818 E19.4691
G1 X109.361 Y97.775 E19.4819
G1 X109.011 Y97.696 E19.4939
G1 X108.462 Y97.490 E19.5134
G1 X108.124 Y97.303 E19.5262
G1 X107.830 Y97.094 E19.5382
G1 X107.548 Y96.845 E19.5507
G1 X107.163 Y96.395 E19.5704
G1 X106.958 Y96.068 E19.5833
G1 X106.801 Y95.744 E19.5952
G1 X106.620 Y95.185 E19.6148
G1 X106.555 Y94.804 E19.6277
G1 X106.533 Y94.406 E19.6409
G1 X106.533 Y66.027 E20.5848
G1 X109.331 Y66.027 E20.6778
G1 X109.331 Y83.023 E21.2431
G1 X150.511 Y83.023 E22.6128
G1 X150.511 Y81.749 E22.6552
G0 X152.392 Y94.675 F10800
G0 X151.933 Y95.881
G0 X151.424 Y96.886
;segType:HShell
G1 X150.820 Y97.487 E22.6835 F600
G1 X150.149 Y97.605
G1 X150.505 Y97.251 E22.7002
;segType:Loop
G0 X148.294 Y96.568 F10800
G1 X148.156 Y96.472 E22.7058 F600
G1 X147.889 Y96.209 E22.7183
G1 X147.585 Y95.791 E22.7355
G1 X147.418 Y95.456 E22.7479
G1 X147.267 Y94.963 E22.7650
G1 X147.217 Y94.592 E22.7775
G1 X147.235 Y94.077 E22.7946
G1 X147.308 Y93.710 E22.8071
G1 X147.492 Y93.228 E22.8242
G1 X147.681 Y92.904 E22.8367
G1 X148.011 Y92.508 E22.8539
G1 X148.294 Y92.263 E22.8663
G1 X148.736 Y91.995 E22.8835
G1 X149.085 Y91.855 E22.8960
G1 X149.589 Y91.745 E22.9132
G1 X149.965 Y91.726 E22.9257
G1 X150.478 Y91.786 E22.9429
G1 X150.839 Y91.890 E22.9554
G1 X151.305 Y92.113 E22.9726
G1 X151.613 Y92.328 E22.9851
G1 X151.980 Y92.690 E23.0022
G1 X152.201 Y92.993 E23.0147
G1 X152.431 Y93.455 E23.0318
G1 X152.541 Y93.813 E23.0443
G1 X152.609 Y94.324 E23.0614
G1 X152.596 Y94.698 E23.0739
G1 X152.495 Y95.204 E23.0910
G1 X152.362 Y95.554 E23.1035
G1 X152.101 Y95.999 E23.1206
G1 X151.862 Y96.287 E23.1331
G1 X151.471 Y96.624 E23.1503
G1 X151.150 Y96.819 E23.1628
G1 X150.670 Y97.011 E23.1800
G1 X150.303 Y97.091 E23.1924
G1 X149.787 Y97.117 E23.2096
G1 X149.414 Y97.074 E23.2221
G1 X148.918 Y96.930 E23.2393
G1 X148.579 Y96.768 E23.2518
G1 X148.453 Y96.680 E23.2569
;segType:Perimeter
G0 X149.851 Y97.232 F10800
G1 X149.437 Y96.666 E23.2802 F359
G1 X149.061 Y96.557 E23.2933
G1 X148.782 Y96.424 E23.3035
G1 X148.414 Y96.165 E23.3185
G1 X148.193 Y95.949 E23.3288
G1 X147.929 Y95.584 E23.3438
G1 X147.791 Y95.308 E23.3540
G1 X147.659 Y94.878 E23.3690
G1 X147.618 Y94.572 E23.3792
G1 X147.633 Y94.123 E23.3942
G1 X147.694 Y93.820 E23.4045
G1 X147.854 Y93.400 E23.4194
G1 X148.010 Y93.133 E23.4297
G1 X148.298 Y92.787 E23.4447
G1 X148.531 Y92.585 E23.4549
G1 X148.916 Y92.352 E23.4699
G1 X149.203 Y92.237 E23.4802
G1 X149.643 Y92.141 E23.4952
G1 X149.952 Y92.125 E23.5054
G1 X150.399 Y92.177 E23.5204
G1 X150.696 Y92.263 E23.5307
G1 X151.102 Y92.458 E23.5457
G1 X151.355 Y92.635 E23.5560
G1 X151.675 Y92.951 E23.5709
G1 X151.857 Y93.200 E23.5812
G1 X152.058 Y93.603 E23.5961
G1 X152.149 Y93.898 E23.6064
G1 X152.208 Y94.344 E23.6214
G1 X152.198 Y94.652 E23.6316
G1 X152.109 Y95.093 E23.6466
G1 X152.000 Y95.382 E23.6569
G1 X151.772 Y95.770 E23.6718
G1 X151.575 Y96.008 E23.6821
G1 X151.234 Y96.301 E23.6971
G1 X150.970 Y96.462 E23.7074
G1 X150.552 Y96.629 E23.7223
G1 X150.250 Y96.695 E23.7326
G1 X149.800 Y96.717 E23.7476
G1 X149.552 Y96.689 E23.7559
G1 X148.950 Y97.052
G0 F4800 E22.7559
G0 X114.963 Y94.411 F10800
G0 X112.398 Y94.143
G0 X112.044 Y93.099
G0 X111.220 Y92.290
G0 X109.978 Y91.931
G0 X108.848 Y92.178
G0 X107.137 Y93.647
G0 F4800 E23.7559
;segType:HShell
G1 X106.733 Y94.049 E23.7749 F600
G1 X106.744 Y94.589
G1 X107.047 Y94.287 E23.7891
G1 X107.066 Y94.819
G1 X106.805 Y95.079 E23.8014
G1 X106.933 Y95.502
G1 X107.170 Y95.265 E23.8125
G1 X107.320 Y95.667
G1 X107.094 Y95.891 E23.8231
G1 X107.300 Y96.237
G1 X107.522 Y96.016 E23.8335
G1 X107.753 Y96.336
G1 X107.549 Y96.539 E23.8431
G1 X107.820 Y96.819
G1 X108.031 Y96.609 E23.8530
G1 X108.353 Y96.840
G1 X108.129 Y97.062 E23.8635
G1 X108.474 Y97.269
G1 X108.704 Y97.040 E23.8742
G1 X109.109 Y97.187
G1 X108.866 Y97.429 E23.8856
G1 X109.292 Y97.555
G1 X109.560 Y97.289 E23.8982
G1 X110.100 Y97.301
G1 X109.782 Y97.618 E23.9131
;segType:Perimeter
G0 X109.870 Y97.232 F10800
G1 X109.456 Y96.666 E23.9364 F359
G1 X109.080 Y96.557 E23.9495
G1 X108.801 Y96.424 E23.9597
G1 X108.433 Y96.165 E23.9747
G1 X108.213 Y95.949 E23.9850
G1 X107.949 Y95.584 E23.9999
G1 X107.810 Y95.308 E24.0102
G1 X107.679 Y94.878 E24.0252
G1 X107.638 Y94.572 E24.0354
G1 X107.653 Y94.123 E24.0504
G1 X107.713 Y93.820 E24.0607
G1 X107.873 Y93.400 E24.0756
G1 X108.029 Y93.133 E24.0859
G1 X108.317 Y92.787 E24.1009
G1 X108.551 Y92.585 E24.1111
G1 X108.936 Y92.352 E24.1261
G1 X109.223 Y92.237 E24.1364
G1 X109.662 Y92.141 E24.1514
G1 X109.971 Y92.125 E24.1616
G1 X110.418 Y92.177 E24.1766
G1 X110.715 Y92.263 E24.1869
G1 X111.121 Y92.458 E24.2019
G1 X111.374 Y92.635 E24.2121
G1 X111.695 Y92.951 E24.2271
G1 X111.877 Y93.200 E24.2374
G1 X112.077 Y93.603 E24.2523
G1 X112.168 Y93.898 E24.2626
G1 X112.227 Y94.344 E24.2776
G1 X112.217 Y94.652 E24.2878
G1 X112.129 Y95.093 E24.3028
G1 X112.019 Y95.382 E24.3131
G1 X111.792 Y95.770 E24.3280
G1 X111.594 Y96.008 E24.3383
G1 X111.253 Y96.301 E24.3533
G1 X110.989 Y96.462 E24.3636
G1 X110.572 Y96.629 E24.3785
G1 X110.270 Y96.695 E24.3888
G1 X109.820 Y96.717 E24.4038
G1 X109.571 Y96.689 E24.4121
G1 X108.969 Y97.052
G0 F4800 E23.4121
G0 X108.313 Y96.568 F10800
G0 F4800 E24.4121
;segType:Loop
G1 X108.176 Y96.472 E24.4177 F600
G1 X107.908 Y96.209 E24.4302
G1 X107.605 Y95.791 E24.4473
G1 X107.437 Y95.456 E24.4598
G1 X107.286 Y94.963 E24.4769
G1 X107.237 Y94.592 E24.4894
G1 X107.254 Y94.077 E24.5065
G1 X107.327 Y93.710 E24.5190
G1 X107.511 Y93.228 E24.5361
G1 X107.700 Y92.904 E24.5486
G1 X108.030 Y92.508 E24.5658
G1 X108.314 Y92.262 E24.5782
G1 X108.756 Y91.995 E24.5954
G1 X109.104 Y91.855 E24.6079
G1 X109.609 Y91.745 E24.6251
G1 X109.984 Y91.726 E24.6376
G1 X110.498 Y91.786 E24.6548
G1 X110.859 Y91.890 E24.6673
G1 X111.324 Y92.113 E24.6844
G1 X111.632 Y92.328 E24.6969
G1 X111.999 Y92.690 E24.7141
G1 X112.220 Y92.993 E24.7266
G1 X112.450 Y93.455 E24.7437
G1 X112.560 Y93.813 E24.7562
G1 X112.628 Y94.324 E24.7733
G1 X112.616 Y94.698 E24.7858
G1 X112.514 Y95.204 E24.8029
G1 X112.381 Y95.554 E24.8154
G1 X112.121 Y95.999 E24.8325
G1 X111.881 Y96.287 E24.8450
G1 X111.490 Y96.624 E24.8622
G1 X111.170 Y96.819 E24.8747
G1 X110.690 Y97.011 E24.8918
G1 X110.323 Y97.091 E24.9043
G1 X109.807 Y97.117 E24.9215
G1 X109.433 Y97.074 E24.9340
G1 X108.937 Y96.930 E24.9512
G1 X108.598 Y96.768 E24.9637
G1 X108.473 Y96.680 E24.9688
;segType:HShell
G0 X110.361 Y97.592 F10800
G1 X110.755 Y97.199 E24.9873 F600
G1 X111.115 Y97.391
G1 X112.888 Y95.627 E25.0705
G0 X113.591 Y90.087 F10800
G0 X146.252 Y90.087
G0 X147.227 Y93.360
G1 X146.713 Y93.871 E25.0946 F600
G1 X146.714 Y94.420
G1 X147.034 Y94.103 E25.1096
G1 X147.025 Y94.662
G1 X146.759 Y94.926 E25.1220
G1 X146.869 Y95.367
G1 X147.109 Y95.128 E25.1333
G1 X147.240 Y95.548
G1 X147.016 Y95.771 E25.1438
G1 X147.211 Y96.127
G1 X147.427 Y95.912 E25.1539
G1 X147.659 Y96.232
G1 X147.447 Y96.443 E25.1638
G1 X147.706 Y96.735
G1 X147.921 Y96.520 E25.1740
G1 X148.228 Y96.766
G1 X148.005 Y96.988 E25.1844
G1 X148.340 Y97.205
G1 X148.563 Y96.982 E25.1949
G1 X148.951 Y97.147
G1 X148.717 Y97.380 E25.2059
G1 X149.126 Y97.522
G1 X149.379 Y97.270 E25.2178
G1 X149.891 Y97.311
G1 X149.597 Y97.604 E25.2316
G0 X152.357 Y95.957 F10800
G1 X152.966 Y95.351 E25.2601 F600
G1 X153.094 Y94.673
G1 X152.733 Y95.032 E25.2771
G1 X152.806 Y94.410
G1 X153.109 Y94.107 E25.2913
G1 X153.109 Y93.557
G1 X152.755 Y93.910 E25.3079
G1 X152.644 Y93.470
G1 X153.109 Y93.007 E25.3298
G1 X153.109 Y92.457
G1 X152.472 Y93.091 E25.3597
G1 X152.267 Y92.745
G1 X153.109 Y91.906 E25.3992
G1 X153.109 Y91.356
G1 X152.015 Y92.445 E25.4506
G1 X151.737 Y92.172
G1 X153.109 Y90.806 E25.5150
G1 X153.109 Y90.255
G1 X151.412 Y91.945 E25.5946
G1 X151.040 Y91.765
G1 X153.109 Y89.705 E25.6917
G1 X153.109 Y89.155
G1 X150.631 Y91.622 E25.8081
G1 X150.153 Y91.547
G1 X153.109 Y88.604 E25.9468
G1 X153.109 Y88.054
G1 X149.603 Y91.545 E26.1114
G1 X148.866 Y91.728
G1 X153.109 Y87.504 E26.3105
G1 X153.109 Y86.954
G1 X146.713 Y93.321 E26.6107
G1 X146.713 Y92.770
G1 X153.109 Y86.403 E26.9109
G1 X153.109 Y85.853
G1 X146.713 Y92.220 E27.2110
G1 X146.713 Y91.670
G1 X153.109 Y85.303 E27.5112
G1 X153.109 Y84.752
G1 X146.713 Y91.120 E27.8114
G1 X146.713 Y90.569
G1 X153.109 Y84.202 E28.1116
G1 X153.109 Y83.652
G1 X146.713 Y90.019 E28.4117
G1 X146.554 Y89.627
G1 X153.109 Y83.102 E28.7194
G1 X153.109 Y82.551
G1 X146.001 Y89.627 E29.0530
G1 X145.449 Y89.627
G1 X153.109 Y82.001 E29.4125
G1 X153.109 Y81.451
G1 X144.896 Y89.627 E29.7980
G1 X144.343 Y89.627
G1 X153.109 Y80.900 E30.2094
G1 X153.109 Y80.350
G1 X150.711 Y82.737 E30.3219
G1 X150.711 Y82.187
G1 X153.109 Y79.800 E30.4345
G1 X153.109 Y79.250
G1 X150.711 Y81.637 E30.5470
G1 X150.711 Y81.087
G1 X153.109 Y78.699 E30.6596
G1 X153.109 Y78.149
G1 X150.711 Y80.536 E30.7721
G1 X150.711 Y79.986
G1 X153.109 Y77.599 E30.8847
G1 X153.109 Y77.048
G1 X150.711 Y79.436 E30.9972
G1 X150.711 Y78.885
G1 X153.109 Y76.498 E31.1097
G1 X153.109 Y75.948
G1 X150.711 Y78.335 E31.2223
G1 X150.711 Y77.785
G1 X153.109 Y75.397 E31.3348
G1 X153.109 Y74.847
G1 X150.711 Y77.234 E31.4474
G1 X150.711 Y76.684
G1 X153.109 Y74.297 E31.5599
G1 X153.109 Y73.747
G1 X150.711 Y76.134 E31.6725
G1 X150.711 Y75.584
G1 X153.109 Y73.196 E31.7850
G1 X153.109 Y72.646
G1 X150.711 Y75.033 E31.8976
G1 X150.711 Y74.483
G1 X153.109 Y72.096 E32.0101
G1 X153.109 Y71.545
G1 X150.711 Y73.933 E32.1226
G1 X150.711 Y73.382
G1 X153.109 Y70.995 E32.2352
G1 X153.109 Y70.445
G1 X150.711 Y72.832 E32.3477
G1 X150.711 Y72.282
G1 X153.109 Y69.895 E32.4603
G1 X153.109 Y69.344
G1 X150.711 Y71.732 E32.5728
G1 X150.711 Y71.181
G1 X153.109 Y68.794 E32.6854
G1 X153.109 Y68.244
G1 X150.711 Y70.631 E32.7979
G1 X150.711 Y70.081
G1 X153.109 Y67.693 E32.9105
G1 X153.109 Y67.143
G1 X150.711 Y69.530 E33.0230
G1 X150.711 Y68.980
G1 X153.109 Y66.593 E33.1356
G1 X152.925 Y66.226
G1 X150.711 Y68.430 E33.2394
G1 X150.711 Y67.879
G1 X152.372 Y66.226 E33.3174
G1 X151.819 Y66.226
G1 X150.711 Y67.329 E33.3694
G1 X150.711 Y66.779
G1 X151.267 Y66.226 E33.3955
G0 X149.119 Y83.222 F10800
G1 X142.685 Y89.627 E33.6974 F600
G1 X142.132 Y89.627
G1 X148.566 Y83.222 E33.9994
G1 X148.013 Y83.222
G1 X141.579 Y89.627 E34.3013
G1 X141.026 Y89.627
G1 X147.461 Y83.222 E34.6033
G1 X146.908 Y83.222
G1 X140.474 Y89.627 E34.9053
G1 X139.921 Y89.627
G1 X146.355 Y83.222 E35.2072
G1 X145.802 Y83.222
G1 X139.368 Y89.627 E35.5092
G1 X138.815 Y89.627
G1 X145.249 Y83.222 E35.8112
G1 X144.697 Y83.222
G1 X138.262 Y89.627 E36.1131
G1 X137.710 Y89.627
G1 X144.144 Y83.222 E36.4151
G1 X143.591 Y83.222
G1 X137.157 Y89.627 E36.7171
G1 X136.604 Y89.627
G1 X143.038 Y83.222 E37.0190
G1 X142.485 Y83.222
G1 X136.051 Y89.627 E37.3210
G1 X135.498 Y89.627
G1 X141.933 Y83.222 E37.6229
G1 X141.380 Y83.222
G1 X134.946 Y89.627 E37.9249
G1 X134.393 Y89.627
G1 X140.827 Y83.222 E38.2269
G1 X140.274 Y83.222
G1 X133.840 Y89.627 E38.5288
G1 X133.287 Y89.627
G1 X139.721 Y83.222 E38.8308
G1 X139.169 Y83.222
G1 X132.734 Y89.627 E39.1328
G1 X132.182 Y89.627
G1 X138.616 Y83.222 E39.4347
G1 X138.063 Y83.222
G1 X131.629 Y89.627 E39.7367
G1 X131.076 Y89.627
G1 X137.510 Y83.222 E40.0387
G1 X136.957 Y83.222
G1 X130.523 Y89.627 E40.3406
G1 X129.970 Y89.627
G1 X136.405 Y83.222 E40.6426
G1 X135.852 Y83.222
G1 X129.418 Y89.627 E40.9446
G1 X128.865 Y89.627
G1 X135.299 Y83.222 E41.2465
G1 X134.746 Y83.222
G1 X128.312 Y89.627 E41.5485
G1 X127.759 Y89.627
G1 X134.193 Y83.222 E41.8504
G1 X133.641 Y83.222
G1 X127.206 Y89.627 E42.1524
G1 X126.654 Y89.627
G1 X133.088 Y83.222 E42.4544
G1 X132.535 Y83.222
G1 X126.101 Y89.627 E42.7563
G1 X125.548 Y89.627
G1 X131.982 Y83.222 E43.0583
G1 X131.430 Y83.222
G1 X124.995 Y89.627 E43.3603
G1 X124.442 Y89.627
G1 X130.877 Y83.222 E43.6622
G1 X130.324 Y83.222
G1 X123.890 Y89.627 E43.9642
G1 X123.337 Y89.627
G1 X129.771 Y83.222 E44.2662
G1 X129.218 Y83.222
G1 X122.784 Y89.627 E44.5681
G1 X122.231 Y89.627
G1 X128.666 Y83.222 E44.8701
G1 X128.113 Y83.222
G1 X121.678 Y89.627 E45.1720
G1 X121.126 Y89.627
G1 X127.560 Y83.222 E45.4740
G1 X127.007 Y83.222
G1 X120.573 Y89.627 E45.7760
G1 X120.020 Y89.627
G1 X126.454 Y83.222 E46.0779
G1 X125.902 Y83.222
G1 X119.467 Y89.627 E46.3799
G1 X118.915 Y89.627
G1 X125.349 Y83.222 E46.6819
G1 X124.796 Y83.222
G1 X118.362 Y89.627 E46.9838
G1 X117.809 Y89.627
G1 X124.243 Y83.222 E47.2858
G1 X123.690 Y83.222
G1 X117.256 Y89.627 E47.5878
G1 X116.703 Y89.627
G1 X123.138 Y83.222 E47.8897
G1 X122.585 Y83.222
G1 X116.151 Y89.627 E48.1917
G1 X115.598 Y89.627
G1 X122.032 Y83.222 E48.4936
G1 X121.479 Y83.222
G1 X115.045 Y89.627 E48.7956
G1 X114.492 Y89.627
G1 X120.926 Y83.222 E49.0976
G1 X120.374 Y83.222
G1 X113.939 Y89.627 E49.3995
G1 X113.387 Y89.627
G1 X119.821 Y83.222 E49.7015
G1 X119.268 Y83.222
G1 X110.789 Y91.662 E50.0994
G1 X110.333 Y91.566
G1 X118.715 Y83.222 E50.4928
G1 X118.162 Y83.222
G1 X109.811 Y91.535 E50.8847
G1 X109.153 Y91.641
G1 X117.610 Y83.222 E51.2816
G1 X117.057 Y83.222
G1 X106.733 Y93.499 E51.7661
G1 X106.733 Y92.949
G1 X116.504 Y83.222 E52.2247
G1 X115.951 Y83.222
G1 X106.733 Y92.399 E52.6573
G1 X106.733 Y91.848
G1 X115.398 Y83.222 E53.0640
G1 X114.846 Y83.222
G1 X106.733 Y91.298 E53.4447
G1 X106.733 Y90.748
G1 X114.293 Y83.222 E53.7995
G1 X113.740 Y83.222
G1 X106.733 Y90.197 E54.1283
G1 X106.733 Y89.647
G1 X113.187 Y83.222 E54.4313
G1 X112.635 Y83.222
G1 X106.733 Y89.097 E54.7082
G1 X106.733 Y88.547
G1 X112.082 Y83.222 E54.9592
G1 X111.529 Y83.222
G1 X106.733 Y87.996 E55.1843
G1 X106.733 Y87.446
G1 X110.976 Y83.222 E55.3834
G1 X110.423 Y83.222
G1 X106.733 Y86.896 E55.5566
G1 X106.733 Y86.345
G1 X109.871 Y83.222 E55.7039
G1 X109.318 Y83.222
G1 X106.733 Y85.795 E55.8252
G1 X106.733 Y85.245
G1 X109.131 Y82.858 E55.9377
G1 X109.131 Y82.307
G1 X106.733 Y84.694 E56.0503
G1 X106.733 Y84.144
G1 X109.131 Y81.757 E56.1628
G1 X109.131 Y81.207
G1 X106.733 Y83.594 E56.2753
G1 X106.733 Y83.044
G1 X109.131 Y80.657 E56.3879
G1 X109.131 Y80.106
G1 X106.733 Y82.493 E56.5004
G1 X106.733 Y81.943
G1 X109.131 Y79.556 E56.6129
G1 X109.131 Y79.006
G1 X106.733 Y81.393 E56.7255
G1 X106.733 Y80.842
G1 X109.131 Y78.455 E56.8380
G1 X109.131 Y77.905
G1 X106.733 Y80.292 E56.9505
G1 X106.733 Y79.742
G1 X109.131 Y77.355 E57.0631
G1 X109.131 Y76.804
G1 X106.733 Y79.192 E57.1756
G1 X106.733 Y78.641
G1 X109.131 Y76.254 E57.2881
G1 X109.131 Y75.704
G1 X106.733 Y78.091 E57.4007
G1 X106.733 Y77.541
G1 X109.131 Y75.154 E57.5132
G1 X109.131 Y74.603
G1 X106.733 Y76.990 E57.6257
G1 X106.733 Y76.440
G1 X109.131 Y74.053 E57.7383
G1 X109.131 Y73.503
G1 X106.733 Y75.890 E57.8508
G1 X106.733 Y75.339
G1 X109.131 Y72.952 E57.9633
G1 X109.131 Y72.402
G1 X106.733 Y74.789 E58.0759
G1 X106.733 Y74.239
G1 X109.131 Y71.852 E58.1884
G1 X109.131 Y71.302
G1 X106.733 Y73.689 E58.3009
G1 X106.733 Y73.138
G1 X109.131 Y70.751 E58.4135
G1 X109.131 Y70.201
G1 X106.733 Y72.588 E58.5260
G1 X106.733 Y72.038
G1 X109.131 Y69.651 E58.6385
G1 X109.131 Y69.100
G1 X106.733 Y71.487 E58.7511
G1 X106.733 Y70.937
G1 X109.131 Y68.550 E58.8636
G1 X109.131 Y68.000
G1 X106.733 Y70.387 E58.9761
G1 X106.733 Y69.837
G1 X109.131 Y67.450 E59.0887
G1 X109.131 Y66.899
G1 X106.733 Y69.286 E59.2012
G1 X106.733 Y68.736
G1 X109.131 Y66.349 E59.3137
G1 X108.701 Y66.226
G1 X106.733 Y68.186 E59.4061
G1 X106.733 Y67.635
G1 X108.149 Y66.226 E59.4725
G1 X107.596 Y66.226
G1 X106.733 Y67.085 E59.5130
G1 X106.733 Y66.535
G1 X107.043 Y66.226 E59.5276
G0 X109.593 Y82.762 F10800
G0 X113.129 Y89.884
G1 X111.181 Y91.823 E59.6190 F600
G1 X111.537 Y92.018
G1 X113.129 Y90.434 E59.6937
G1 X113.129 Y90.984
G1 X111.847 Y92.260 E59.7539
G1 X112.125 Y92.534
G1 X113.129 Y91.535 E59.8010
G1 X113.129 Y92.085
G1 X112.362 Y92.849 E59.8370
G1 X112.551 Y93.210
G1 X113.129 Y92.635 E59.8641
G1 X113.129 Y93.185
G1 X112.706 Y93.606 E59.8840
G1 X112.796 Y94.067
G1 X113.129 Y93.736 E59.8996
G1 X113.129 Y94.286
G1 X112.820 Y94.594 E59.9141
G1 X112.708 Y95.255
G1 X113.092 Y94.873 E59.9321
G0 F4800 E58.9321
G0 X149.945 Y118.719 F10800
G0 F4800 E59.9321
G1 X143.511 Y125.124 E60.2341 F600
G1 X144.063 Y125.124
G1 X150.498 Y118.719 E60.5360
;segType:Perimeter
G0 X149.835 Y118.710 F10800
G1 X150.105 Y118.063 E60.5594 F359
G1 X150.105 Y101.126 E61.1227
G1 X153.703 Y101.126 E61.2424
G1 X153.703 Y129.914 E62.1998
G1 X153.678 Y130.345 E62.2142
G1 X153.607 Y130.765 E62.2284
G1 X153.489 Y131.175 E62.2426
G1 X153.335 Y131.549 E62.2560
G1 X153.134 Y131.917 E62.2700
G1 X152.924 Y132.222 E62.2823
G1 X152.738 Y132.451 E62.2921
G1 X152.434 Y132.754 E62.3063
G1 X152.120 Y133.005 E62.3197
G1 X151.776 Y133.225 E62.3333
G1 X151.554 Y133.343 E62.3417
G1 X151.159 Y133.506 E62.3559
G1 X150.771 Y133.619 E62.3693
G1 X150.358 Y133.691 E62.3833
G1 X149.989 Y133.717 E62.3956
G1 X149.694 Y133.713 E62.4054
G1 X149.268 Y133.665 E62.4196
G1 X148.875 Y133.577 E62.4330
G1 X148.489 Y133.444 E62.4466
G1 X148.259 Y133.344 E62.4550
G1 X147.885 Y133.137 E62.4692
G1 X147.554 Y132.904 E62.4826
G1 X147.240 Y132.626 E62.4966
G1 X146.990 Y132.353 E62.5089
G1 X146.809 Y132.121 E62.5187
G1 X146.581 Y131.757 E62.5330
G1 X146.405 Y131.395 E62.5464
G1 X146.268 Y131.010 E62.5600
G1 X146.203 Y130.767 E62.5683
G1 X146.131 Y130.345 E62.5825
G1 X146.107 Y129.914 E62.5969
G1 X146.107 Y125.722 E62.7364
G1 X113.722 Y125.722 E63.8135
G1 X113.722 Y129.914 E63.9529
G1 X113.698 Y130.345 E63.9673
G1 X113.627 Y130.766 E63.9815
G1 X113.509 Y131.175 E63.9956
G1 X113.354 Y131.549 E64.0091
G1 X113.154 Y131.917 E64.0230
G1 X112.944 Y132.222 E64.0353
G1 X112.757 Y132.451 E64.0452
G1 X112.454 Y132.754 E64.0594
G1 X112.139 Y133.006 E64.0728
G1 X111.795 Y133.225 E64.0864
G1 X111.573 Y133.343 E64.0947
G1 X111.178 Y133.506 E64.1090
G1 X110.790 Y133.619 E64.1224
G1 X110.377 Y133.691 E64.1364
G1 X110.008 Y133.717 E64.1487
G1 X109.713 Y133.713 E64.1585
G1 X109.287 Y133.665 E64.1727
G1 X108.895 Y133.577 E64.1861
G1 X108.509 Y133.444 E64.1997
G1 X108.278 Y133.344 E64.2080
G1 X107.904 Y133.137 E64.2223
G1 X107.574 Y132.904 E64.2357
G1 X107.260 Y132.626 E64.2497
G1 X107.009 Y132.353 E64.2620
G1 X106.828 Y132.120 E64.2718
G1 X106.600 Y131.757 E64.2861
G1 X106.425 Y131.395 E64.2995
G1 X106.287 Y131.010 E64.3130
G1 X106.222 Y130.767 E64.3214
G1 X106.151 Y130.345 E64.3356
G1 X106.126 Y129.914 E64.3500
G1 X106.126 Y101.126 E65.3075
G1 X109.724 Y101.126 E65.4272
G1 X109.724 Y118.122 E65.9924
G1 X150.046 Y118.122 E67.3336
G1 X150.696 Y117.854
;segType:Loop
G0 X150.505 Y117.052 F10800
G1 X150.505 Y101.524 E67.8500 F600
G1 X153.303 Y101.524 E67.9431
G1 X153.303 Y129.903 E68.8870
G1 X153.280 Y130.301 E68.9002
G1 X153.216 Y130.677 E68.9129
G1 X153.111 Y131.044 E68.9256
G1 X152.973 Y131.378 E68.9376
G1 X152.792 Y131.709 E68.9502
G1 X152.440 Y132.184 E68.9698
G1 X152.167 Y132.457 E68.9827
G1 X151.886 Y132.682 E68.9946
G1 X151.383 Y132.982 E69.0141
G1 X151.025 Y133.130 E69.0270
G1 X150.680 Y133.231 E69.0390
G1 X150.309 Y133.296 E69.0515
G1 X149.719 Y133.316 E69.0711
G1 X149.335 Y133.272 E69.0840
G1 X148.985 Y133.193 E69.0959
G1 X148.437 Y132.987 E69.1154
G1 X148.098 Y132.800 E69.1283
G1 X147.804 Y132.592 E69.1402
G1 X147.522 Y132.342 E69.1528
G1 X147.137 Y131.893 E69.1724
G1 X146.931 Y131.565 E69.1853
G1 X146.775 Y131.241 E69.1973
G1 X146.594 Y130.683 E69.2168
G1 X146.529 Y130.301 E69.2297
G1 X146.507 Y129.903 E69.2429
G1 X146.507 Y125.323 E69.3952
G1 X113.322 Y125.323 E70.4990
G1 X113.322 Y129.903 E70.6513
G1 X113.300 Y130.301 E70.6645
G1 X113.236 Y130.677 E70.6772
G1 X113.130 Y131.044 E70.6899
G1 X112.993 Y131.378 E70.7019
G1 X112.812 Y131.709 E70.7145
G1 X112.459 Y132.184 E70.7342
G1 X112.186 Y132.457 E70.7470
G1 X111.905 Y132.682 E70.7590
G1 X111.402 Y132.982 E70.7785
G1 X111.045 Y133.130 E70.7913
G1 X110.699 Y133.231 E70.8033
G1 X110.328 Y133.296 E70.8158
G1 X109.738 Y133.316 E70.8355
G1 X109.355 Y133.272 E70.8483
G1 X109.004 Y133.193 E70.8603
G1 X108.456 Y132.987 E70.8797
G1 X108.118 Y132.800 E70.8926
G1 X107.823 Y132.592 E70.9046
G1 X107.541 Y132.342 E70.9171
G1 X107.157 Y131.892 E70.9368
G1 X106.951 Y131.565 E70.9496
G1 X106.795 Y131.241 E70.9616
G1 X106.614 Y130.683 E70.9811
G1 X106.549 Y130.301 E70.9940
G1 X106.526 Y129.903 E71.0073
G1 X106.526 Y101.524 E71.9512
G1 X109.324 Y101.524 E72.0442
G1 X109.324 Y118.520 E72.6095
G1 X150.505 Y118.520 E73.9792
G1 X150.505 Y117.246 E74.0215
;segType:HShell
G0 X147.084 Y129.271 F10800
G1 X146.707 Y129.647 E74.0392 F600
G1 X146.723 Y130.181
G1 X147.017 Y129.888 E74.0531
G1 X147.051 Y130.404
G1 X146.796 Y130.658 E74.0651
G1 X146.931 Y131.074
G1 X147.167 Y130.839 E74.0761
G1 X147.327 Y131.231
G1 X147.101 Y131.456 E74.0867
G1 X147.315 Y131.793
G1 X147.537 Y131.571 E74.0972
G1 X147.777 Y131.883
G1 X147.569 Y132.090 E74.1070
G1 X147.847 Y132.364
G1 X148.061 Y132.150 E74.1170
G1 X148.385 Y132.378
G1 X148.162 Y132.600 E74.1275
G1 X148.513 Y132.801
G1 X148.746 Y132.569 E74.1384
G1 X149.161 Y132.707
G1 X148.913 Y132.953 E74.1501
G1 X149.348 Y133.071
G1 X149.624 Y132.796 E74.1630
G1 X150.179 Y132.794
G1 X149.860 Y133.112 E74.1780
G1 X150.457 Y133.068
G1 X150.897 Y132.629 E74.1986
;segType:Perimeter
G0 X150.761 Y132.597 F10800
G1 X150.185 Y132.196 E74.2220 F359
G1 X149.794 Y132.214 E74.2350
G1 X149.486 Y132.179 E74.2453
G1 X149.054 Y132.054 E74.2603
G1 X148.775 Y131.921 E74.2706
G1 X148.407 Y131.662 E74.2855
G1 X148.187 Y131.446 E74.2958
G1 X147.922 Y131.081 E74.3108
G1 X147.784 Y130.805 E74.3210
G1 X147.653 Y130.375 E74.3360
G1 X147.612 Y130.069 E74.3463
G1 X147.627 Y129.620 E74.3612
G1 X147.687 Y129.317 E74.3715
G1 X147.847 Y128.897 E74.3864
G1 X148.003 Y128.630 E74.3967
G1 X148.291 Y128.284 E74.4117
G1 X148.525 Y128.082 E74.4220
G1 X148.910 Y127.849 E74.4369
G1 X149.196 Y127.734 E74.4472
G1 X149.636 Y127.638 E74.4622
G1 X149.945 Y127.622 E74.4725
G1 X150.392 Y127.675 E74.4874
G1 X150.689 Y127.760 E74.4977
G1 X151.095 Y127.955 E74.5127
G1 X151.348 Y128.132 E74.5230
G1 X151.669 Y128.448 E74.5379
G1 X151.851 Y128.697 E74.5482
G1 X152.051 Y129.100 E74.5632
G1 X152.142 Y129.395 E74.5734
G1 X152.201 Y129.841 E74.5884
G1 X152.191 Y130.150 E74.5987
G1 X152.102 Y130.590 E74.6136
G1 X151.993 Y130.879 E74.6239
G1 X151.766 Y131.267 E74.6389
G1 X151.568 Y131.505 E74.6491
G1 X151.227 Y131.798 E74.6641
G1 X150.963 Y131.959 E74.6744
G1 X150.545 Y132.126 E74.6893
G1 X150.301 Y132.180 E74.6977
G1 X149.850 Y132.718
G0 F4800 E73.6977
G0 X149.072 Y132.474 F10800
G0 F4800 E74.6977
;segType:Loop
G1 X148.911 Y132.427 E74.7033 F600
G1 X148.572 Y132.266 E74.7157
G1 X148.150 Y131.969 E74.7329
G1 X147.882 Y131.706 E74.7454
G1 X147.579 Y131.288 E74.7626
G1 X147.411 Y130.953 E74.7750
G1 X147.261 Y130.460 E74.7921
G1 X147.211 Y130.089 E74.8046
G1 X147.228 Y129.574 E74.8218
G1 X147.301 Y129.207 E74.8342
G1 X147.485 Y128.725 E74.8514
G1 X147.674 Y128.401 E74.8638
G1 X148.004 Y128.005 E74.8810
G1 X148.288 Y127.760 E74.8935
G1 X148.730 Y127.492 E74.9106
G1 X149.078 Y127.352 E74.9231
G1 X149.583 Y127.242 E74.9403
G1 X149.958 Y127.223 E74.9528
G1 X150.471 Y127.283 E74.9700
G1 X150.832 Y127.387 E74.9825
G1 X151.298 Y127.610 E74.9997
G1 X151.606 Y127.825 E75.0121
G1 X151.973 Y128.188 E75.0293
G1 X152.194 Y128.490 E75.0418
G1 X152.424 Y128.953 E75.0589
G1 X152.534 Y129.310 E75.0714
G1 X152.602 Y129.821 E75.0885
G1 X152.590 Y130.195 E75.1010
G1 X152.488 Y130.701 E75.1181
G1 X152.355 Y131.051 E75.1306
G1 X152.095 Y131.496 E75.1477
G1 X151.855 Y131.784 E75.1602
G1 X151.464 Y132.121 E75.1774
G1 X151.143 Y132.316 E75.1899
G1 X150.664 Y132.508 E75.2070
G1 X150.297 Y132.589 E75.2195
G1 X149.781 Y132.614 E75.2367
G1 X149.407 Y132.571 E75.2492
G1 X149.259 Y132.528 E75.2544
G0 X146.274 Y127.746 F10800
G0 X146.245 Y125.584
G0 X113.584 Y125.584
G0 X108.429 Y127.925
G0 X107.060 Y129.493
;segType:HShell
G1 X106.726 Y129.825 E75.2700 F600
G1 X106.759 Y130.343
G1 X107.031 Y130.072 E75.2828
G1 X107.100 Y130.554
G1 X106.859 Y130.793 E75.2940
G1 X106.999 Y131.205
G1 X107.229 Y130.976 E75.3048
G1 X107.406 Y131.350
G1 X107.188 Y131.567 E75.3151
G1 X107.417 Y131.889
G1 X107.632 Y131.675 E75.3252
G1 X107.887 Y131.971
G1 X107.671 Y132.187 E75.3353
G1 X107.963 Y132.446
G1 X108.186 Y132.224 E75.3458
G1 X108.513 Y132.449
G1 X108.292 Y132.669 E75.3561
G1 X108.662 Y132.851
G1 X108.891 Y132.623 E75.3669
G1 X109.319 Y132.747
G1 X109.063 Y133.002 E75.3789
G1 X109.526 Y133.091
G1 X109.806 Y132.813 E75.3920
G1 X110.396 Y132.775
G1 X110.065 Y133.105 E75.4076
G1 X110.700 Y133.023
G1 X111.216 Y132.510 E75.4318
;segType:Perimeter
G0 X110.781 Y132.597 F10800
G1 X110.204 Y132.196 E75.4551 F359
G1 X109.813 Y132.214 E75.4682
G1 X109.506 Y132.179 E75.4784
G1 X109.074 Y132.054 E75.4934
G1 X108.795 Y131.921 E75.5037
G1 X108.427 Y131.662 E75.5186
G1 X108.206 Y131.446 E75.5289
G1 X107.942 Y131.081 E75.5439
G1 X107.804 Y130.805 E75.5542
G1 X107.672 Y130.375 E75.5691
G1 X107.631 Y130.069 E75.5794
G1 X107.646 Y129.620 E75.5944
G1 X107.707 Y129.317 E75.6046
G1 X107.867 Y128.897 E75.6196
G1 X108.022 Y128.630 E75.6299
G1 X108.310 Y128.284 E75.6448
G1 X108.544 Y128.082 E75.6551
G1 X108.929 Y127.849 E75.6701
G1 X109.216 Y127.734 E75.6804
G1 X109.656 Y127.638 E75.6953
G1 X109.964 Y127.622 E75.7056
G1 X110.412 Y127.675 E75.7206
G1 X110.709 Y127.760 E75.7309
G1 X111.115 Y127.955 E75.7458
G1 X111.368 Y128.132 E75.7561
G1 X111.688 Y128.448 E75.7711
G1 X111.870 Y128.697 E75.7813
G1 X112.071 Y129.100 E75.7963
G1 X112.162 Y129.395 E75.8066
G1 X112.221 Y129.841 E75.8215
G1 X112.211 Y130.149 E75.8318
G1 X112.122 Y130.590 E75.8468
G1 X112.013 Y130.879 E75.8570
G1 X111.785 Y131.267 E75.8720
G1 X111.588 Y131.505 E75.8823
G1 X111.247 Y131.798 E75.8972
G1 X110.983 Y131.959 E75.9075
G1 X110.565 Y132.126 E75.9225
G1 X110.320 Y132.180 E75.9308
G1 X109.870 Y132.718
G0 F4800 E74.9308
G0 X109.091 Y132.474 F10800
G0 F4800 E75.9308
;segType:Loop
G1 X108.930 Y132.427 E75.9364 F600
G1 X108.592 Y132.266 E75.9489
G1 X108.169 Y131.969 E75.9660
G1 X107.901 Y131.706 E75.9785
G1 X107.599 Y131.288 E75.9957
G1 X107.431 Y130.953 E76.0081
G1 X107.280 Y130.460 E76.0253
G1 X107.230 Y130.089 E76.0378
G1 X107.248 Y129.574 E76.0549
G1 X107.321 Y129.207 E76.0674
G1 X107.504 Y128.725 E76.0845
G1 X107.693 Y128.401 E76.0970
G1 X108.024 Y128.005 E76.1141
G1 X108.308 Y127.760 E76.1266
G1 X108.749 Y127.492 E76.1438
G1 X109.098 Y127.352 E76.1563
G1 X109.602 Y127.242 E76.1734
G1 X109.978 Y127.223 E76.1859
G1 X110.491 Y127.283 E76.2031
G1 X110.852 Y127.387 E76.2156
G1 X111.318 Y127.610 E76.2328
G1 X111.625 Y127.825 E76.2453
G1 X111.993 Y128.188 E76.2624
G1 X112.213 Y128.490 E76.2749
G1 X112.444 Y128.952 E76.2921
G1 X112.554 Y129.310 E76.3045
G1 X112.621 Y129.821 E76.3217
G1 X112.610 Y130.195 E76.3341
G1 X112.508 Y130.701 E76.3513
G1 X112.375 Y131.051 E76.3637
G1 X112.114 Y131.496 E76.3809
G1 X111.875 Y131.784 E76.3933
G1 X111.483 Y132.121 E76.4105
G1 X111.163 Y132.316 E76.4230
G1 X110.683 Y132.508 E76.4402
G1 X110.316 Y132.589 E76.4527
G1 X109.800 Y132.614 E76.4699
G1 X109.427 Y132.571 E76.4824
G1 X109.279 Y132.528 E76.4875
G0 X110.384 Y132.188 F10800
G0 X112.536 Y131.745
;segType:HShell
G1 X111.714 Y132.564 E76.5261 F600
G0 X112.502 Y131.229 F10800
G1 X113.017 Y130.717 E76.5502 F600
G1 X112.770 Y130.412
G1 X113.112 Y130.071 E76.5663
G1 X113.122 Y129.511
G1 X112.822 Y129.811 E76.5804
G1 X112.757 Y129.324
G1 X113.122 Y128.961 E76.5975
G1 X113.122 Y128.411
G1 X112.635 Y128.895 E76.6204
G1 X112.454 Y128.526
G1 X113.122 Y127.860 E76.6517
G1 X113.122 Y127.310
G1 X112.240 Y128.188 E76.6931
G1 X111.981 Y127.896
G1 X113.122 Y126.760 E76.7467
G1 X113.122 Y126.210
G1 X111.695 Y127.631 E76.8137
G1 X111.363 Y127.411
G1 X113.122 Y125.659 E76.8962
G0 X109.586 Y118.259 F10800
G0 X107.316 Y101.723
G1 X106.726 Y102.311 E76.9239 F600
G1 X106.726 Y102.861
G1 X107.869 Y101.723 E76.9775
G1 X108.422 Y101.723
G1 X106.726 Y103.411 E77.0571
G1 X106.726 Y103.962
G1 X108.974 Y101.723 E77.1626
G1 X109.124 Y102.125
G1 X106.726 Y104.512 E77.2752
G1 X106.726 Y105.062
G1 X109.124 Y102.675 E77.3877
G1 X109.124 Y103.225
G1 X106.726 Y105.612 E77.5003
G1 X106.726 Y106.163
G1 X109.124 Y103.775 E77.6128
G1 X109.124 Y104.326
G1 X106.726 Y106.713 E77.7254
G1 X106.726 Y107.263
G1 X109.124 Y104.876 E77.8379
G1 X109.124 Y105.426
G1 X106.726 Y107.814 E77.9505
G1 X106.726 Y108.364
G1 X109.124 Y105.977 E78.0630
G1 X109.124 Y106.527
G1 X106.726 Y108.914 E78.1756
G1 X106.726 Y109.464
G1 X109.124 Y107.077 E78.2881
G1 X109.124 Y107.627
G1 X106.726 Y110.015 E78.4007
G1 X106.726 Y110.565
G1 X109.124 Y108.178 E78.5132
G1 X109.124 Y108.728
G1 X106.726 Y111.115 E78.6258
G1 X106.726 Y111.666
G1 X109.124 Y109.278 E78.7383
G1 X109.124 Y109.829
G1 X106.726 Y112.216 E78.8509
G1 X106.726 Y112.766
G1 X109.124 Y110.379 E78.9634
G1 X109.124 Y110.929
G1 X106.726 Y113.317 E79.0760
G1 X106.726 Y113.867
G1 X109.124 Y111.480 E79.1885
G1 X109.124 Y112.030
G1 X106.726 Y114.417 E79.3011
G1 X106.726 Y114.967
G1 X109.124 Y112.580 E79.4136
G1 X109.124 Y113.130
G1 X106.726 Y115.518 E79.5262
G1 X106.726 Y116.068
G1 X109.124 Y113.681 E79.6387
G1 X109.124 Y114.231
G1 X106.726 Y116.618 E79.7513
G1 X106.726 Y117.169
G1 X109.124 Y114.781 E79.8638
G1 X109.124 Y115.332
G1 X106.726 Y117.719 E79.9764
G1 X106.726 Y118.269
G1 X109.124 Y115.882 E80.0889
G1 X109.124 Y116.432
G1 X106.726 Y118.819 E80.2014
G1 X106.726 Y119.370
G1 X109.124 Y116.982 E80.3140
G1 X109.124 Y117.533
G1 X106.726 Y119.920 E80.4265
G1 X106.726 Y120.470
G1 X109.124 Y118.083 E80.5391
G1 X109.124 Y118.633
G1 X106.726 Y121.021 E80.6516
G1 X106.726 Y121.571
G1 X109.591 Y118.719 E80.7861
G1 X110.144 Y118.719
G1 X106.726 Y122.121 E80.9465
G1 X106.726 Y122.672
G1 X110.696 Y118.719 E81.1328
G1 X111.249 Y118.719
G1 X106.726 Y123.222 E81.3451
G1 X106.726 Y123.772
G1 X111.802 Y118.719 E81.5833
G1 X112.355 Y118.719
G1 X106.726 Y124.322 E81.8475
G1 X106.726 Y124.873
G1 X112.908 Y118.719 E82.1376
G1 X113.460 Y118.719
G1 X106.726 Y125.423 E82.4536
G1 X106.726 Y125.973
G1 X114.013 Y118.719 E82.7956
G1 X114.566 Y118.719
G1 X106.726 Y126.524 E83.1635
G1 X106.726 Y127.074
G1 X115.119 Y118.719 E83.5574
G1 X115.672 Y118.719
G1 X106.726 Y127.624 E83.9772
G1 X106.726 Y128.174
G1 X116.224 Y118.719 E84.4230
G1 X116.777 Y118.719
G1 X106.726 Y128.725 E84.8947
G1 X106.726 Y129.275
G1 X107.298 Y128.706 E84.9215
G0 X108.722 Y127.288 F10800
G1 X117.330 Y118.719 E85.3255 F600
G1 X117.883 Y118.719
G1 X109.504 Y127.060 E85.7187
G1 X110.082 Y127.035
G1 X118.436 Y118.719 E86.1108
G1 X118.988 Y118.719
G1 X110.571 Y127.099 E86.5058
G1 X110.990 Y127.232
G1 X119.541 Y118.719 E86.9071
G1 X120.094 Y118.719
G1 X113.660 Y125.124 E87.2091
G1 X114.213 Y125.124
G1 X120.647 Y118.719 E87.5111
G1 X121.200 Y118.719
G1 X114.765 Y125.124 E87.8130
G1 X115.318 Y125.124
G1 X121.752 Y118.719 E88.1150
G1 X122.305 Y118.719
G1 X115.871 Y125.124 E88.4169
G1 X116.424 Y125.124
G1 X122.858 Y118.719 E88.7189
G1 X123.411 Y118.719
G1 X116.976 Y125.124 E89.0209
G1 X117.529 Y125.124
G1 X123.964 Y118.719 E89.3228
G1 X124.516 Y118.719
G1 X118.082 Y125.124 E89.6248
G1 X118.635 Y125.124
G1 X125.069 Y118.719 E89.9268
G1 X125.622 Y118.719
G1 X119.188 Y125.124 E90.2287
G1 X119.740 Y125.124
G1 X126.175 Y118.719 E90.5307
G1 X126.728 Y118.719
G1 X120.293 Y125.124 E90.8327
G1 X120.846 Y125.124
G1 X127.280 Y118.719 E91.1346
G1 X127.833 Y118.719
G1 X121.399 Y125.124 E91.4366
G1 X121.952 Y125.124
G1 X128.386 Y118.719 E91.7385
G1 X128.939 Y118.719
G1 X122.504 Y125.124 E92.0405
G1 X123.057 Y125.124
G1 X129.491 Y118.719 E92.3425
G1 X130.044 Y118.719
G1 X123.610 Y125.124 E92.6444
G1 X124.163 Y125.124
G1 X130.597 Y118.719 E92.9464
G1 X131.150 Y118.719
G1 X124.716 Y125.124 E93.2484
G1 X125.268 Y125.124
G1 X131.703 Y118.719 E93.5503
G1 X132.255 Y118.719
G1 X125.821 Y125.124 E93.8523
G1 X126.374 Y125.124
G1 X132.808 Y118.719 E94.1543
G1 X133.361 Y118.719
G1 X126.927 Y125.124 E94.4562
G1 X127.480 Y125.124
G1 X133.914 Y118.719 E94.7582
G1 X134.467 Y118.719
G1 X128.032 Y125.124 E95.0601
G1 X128.585 Y125.124
G1 X135.019 Y118.719 E95.3621
G1 X135.572 Y118.719
G1 X129.138 Y125.124 E95.6641
G1 X129.691 Y125.124
G1 X136.125 Y118.719 E95.9660
G1 X136.678 Y118.719
G1 X130.244 Y125.124 E96.2680
G1 X130.796 Y125.124
G1 X137.231 Y118.719 E96.5700
G1 X137.783 Y118.719
G1 X131.349 Y125.124 E96.8719
G1 X131.902 Y125.124
G1 X138.336 Y118.719 E97.1739
G1 X138.889 Y118.719
G1 X132.455 Y125.124 E97.4759
G1 X133.008 Y125.124
G1 X139.442 Y118.719 E97.7778
G1 X139.995 Y118.719
G1 X133.560 Y125.124 E98.0798
G1 X134.113 Y125.124
G1 X140.547 Y118.719 E98.3817
G1 X141.100 Y118.719
G1 X134.666 Y125.124 E98.6837
G1 X135.219 Y125.124
G1 X141.653 Y118.719 E98.9857
G1 X142.206 Y118.719
G1 X135.772 Y125.124 E99.2876
G1 X136.324 Y125.124
G1 X142.759 Y118.719 E99.5896
G1 X143.311 Y118.719
G1 X136.877 Y125.124 E99.8916
G1 X137.430 Y125.124
G1 X143.864 Y118.719 E100.1935
G1 X144.417 Y118.719
G1 X137.983 Y125.124 E100.4955
G1 X138.535 Y125.124
G1 X144.970 Y118.719 E100.7975
G1 X145.523 Y118.719
G1 X139.088 Y125.124 E101.0994
G1 X139.641 Y125.124
G1 X146.075 Y118.719 E101.4014
G1 X146.628 Y118.719
G1 X140.194 Y125.124 E101.7033
G1 X140.747 Y125.124
G1 X147.181 Y118.719 E102.0053
G1 X147.734 Y118.719
G1 X141.299 Y125.124 E102.3073
G1 X141.852 Y125.124
G1 X148.286 Y118.719 E102.6092
G1 X148.839 Y118.719
G1 X142.405 Y125.124 E102.9112
G1 X142.958 Y125.124
G1 X149.392 Y118.719 E103.2132
G0 X150.705 Y102.004 F10800
G1 X150.987 Y101.723 E103.2264 F600
G1 X151.540 Y101.723
G1 X150.705 Y102.555 E103.2656
G1 X150.705 Y103.105
G1 X152.092 Y101.723 E103.3307
G1 X152.645 Y101.723
G1 X150.705 Y103.655 E103.4218
G1 X150.705 Y104.205
G1 X153.103 Y101.818 E103.5343
G1 X153.103 Y102.369
G1 X150.705 Y104.756 E103.6468
G1 X150.705 Y105.306
G1 X153.103 Y102.919 E103.7594
G1 X153.103 Y103.469
G1 X150.705 Y105.856 E103.8719
G1 X150.705 Y106.407
G1 X153.103 Y104.020 E103.9844
G1 X153.103 Y104.570
G1 X150.705 Y106.957 E104.0970
G1 X150.705 Y107.507
G1 X153.103 Y105.120 E104.2095
G1 X153.103 Y105.670
G1 X150.705 Y108.057 E104.3220
G1 X150.705 Y108.608
G1 X153.103 Y106.221 E104.4346
G1 X153.103 Y106.771
G1 X150.705 Y109.158 E104.5471
G1 X150.705 Y109.708
G1 X153.103 Y107.321 E104.6596
G1 X153.103 Y107.872
G1 X150.705 Y110.259 E104.7722
G1 X150.705 Y110.809
G1 X153.103 Y108.422 E104.8847
G1 X153.103 Y108.972
G1 X150.705 Y111.359 E104.9972
G1 X150.705 Y111.909
G1 X153.103 Y109.522 E105.1098
G1 X153.103 Y110.073
G1 X150.705 Y112.460 E105.2223
G1 X150.705 Y113.010
G1 X153.103 Y110.623 E105.3348
G1 X153.103 Y111.173
G1 X150.705 Y113.560 E105.4474
G1 X150.705 Y114.111
G1 X153.103 Y111.724 E105.5599
G1 X153.103 Y112.274
G1 X150.705 Y114.661 E105.6724
G1 X150.705 Y115.211
G1 X153.103 Y112.824 E105.7850
G1 X153.103 Y113.375
G1 X150.705 Y115.762 E105.8975
G1 X150.705 Y116.312
G1 X153.103 Y113.925 E106.0100
G1 X153.103 Y114.475
G1 X150.705 Y116.862 E106.1226
G1 X150.705 Y117.412
G1 X153.103 Y115.025 E106.2351
G1 X153.103 Y115.576
G1 X150.705 Y117.963 E106.3476
G1 X150.705 Y118.513
G1 X153.103 Y116.126 E106.4602
G1 X153.103 Y116.676
G1 X144.616 Y125.124 E106.8585
G1 X145.169 Y125.124
G1 X153.103 Y117.227 E107.2308
G1 X153.103 Y117.777
G1 X145.722 Y125.124 E107.5772
G1 X146.275 Y125.124
G1 X153.103 Y118.327 E107.8976
G1 X153.103 Y118.877
G1 X146.707 Y125.244 E108.1978
G1 X146.707 Y125.795
G1 X153.103 Y119.428 E108.4979
G1 X153.103 Y119.978
G1 X146.707 Y126.345 E108.7981
G1 X146.707 Y126.895
G1 X153.103 Y120.528 E109.0983
G1 X153.103 Y121.079
G1 X146.707 Y127.446 E109.3984
G1 X146.707 Y127.996
G1 X153.103 Y121.629 E109.6986
G1 X153.103 Y122.179
G1 X146.707 Y128.546 E109.9987
G1 X146.707 Y129.096
G1 X147.494 Y128.312 E110.0357
G0 X149.610 Y127.445 F10800
G0 X150.759 Y127.578
G0 X151.817 Y128.321
G0 X152.790 Y130.195
G1 X153.103 Y129.883 E110.0504 F600
G1 X153.103 Y129.333
G1 X152.781 Y129.653 E110.0655
G1 X152.703 Y129.180
G1 X153.103 Y128.783 E110.0842
G1 X153.103 Y128.232
G1 X152.558 Y128.774 E110.1097
G1 X152.375 Y128.406
G1 X153.103 Y127.682 E110.1439
G1 X153.103 Y127.132
G1 X152.145 Y128.085 E110.1888
G1 X151.871 Y127.807
G1 X153.103 Y126.582 E110.2466
G1 X153.103 Y126.031
G1 X151.570 Y127.557 E110.3185
G1 X151.222 Y127.353
G1 X153.103 Y125.481 E110.4067
G1 X153.103 Y124.931
G1 X150.841 Y127.182 E110.5129
G1 X150.397 Y127.074
G1 X153.103 Y124.380 E110.6398
G1 X153.103 Y123.830
G1 X149.891 Y127.027 E110.7906
G1 X149.255 Y127.110
G1 X153.103 Y123.280 E110.9711
G1 X153.103 Y122.729
G1 X148.277 Y127.533 E111.1976
G0 X150.431 Y127.484 F10800
G0 X151.474 Y127.983
G0 X152.233 Y129.028
G0 X153.045 Y130.491
G1 X152.622 Y130.912 E111.2175 F600
G1 X152.791 Y131.294
G1 X151.261 Y132.817 E111.2893
; ------------------------------------
; Layer #1
; ------------------------------------
G21 ; mm
G90 ; abs
G92 E0 ; reset extr
M106 S255
G0 F4800 E-1.0000
G0 F300 Z0.400
G0 X152.770 Y130.245 F10800
G0 X153.103 Y120.694
G0 F4800 E0.0000
;segType:HShell
G1 X150.705 Y118.307 E0.1125 F3600
G1 X150.566 Y118.719
G1 X153.103 Y121.244 E0.2316
G1 X153.103 Y121.795
G1 X150.013 Y118.719 E0.3766
;segType:Perimeter
G0 X149.835 Y118.710 F10800
G1 X150.105 Y118.063 E0.3999 F2159
G1 X150.105 Y101.126 E0.9632
G1 X153.703 Y101.126 E1.0829
G1 X153.703 Y129.914 E2.0404
G1 X153.678 Y130.345 E2.0547
G1 X153.607 Y130.765 E2.0689
G1 X153.489 Y131.175 E2.0831
G1 X153.344 Y131.529 E2.0958
G1 X153.148 Y131.894 E2.1096
G1 X152.976 Y132.153 E2.1199
G1 X152.737 Y132.451 E2.1327
G1 X152.434 Y132.754 E2.1469
G1 X152.137 Y132.993 E2.1596
G1 X151.813 Y133.203 E2.1724
G1 X151.553 Y133.343 E2.1822
G1 X151.159 Y133.506 E2.1964
G1 X150.791 Y133.613 E2.2092
G1 X150.385 Y133.688 E2.2229
G1 X150.075 Y133.714 E2.2332
G1 X149.693 Y133.713 E2.2460
G1 X149.268 Y133.665 E2.2602
G1 X148.896 Y133.582 E2.2729
G1 X148.530 Y133.460 E2.2857
G1 X148.258 Y133.344 E2.2955
G1 X147.885 Y133.137 E2.3097
G1 X147.572 Y132.917 E2.3225
G1 X147.260 Y132.645 E2.3362
G1 X147.046 Y132.419 E2.3466
G1 X146.808 Y132.120 E2.3593
G1 X146.581 Y131.757 E2.3735
G1 X146.414 Y131.414 E2.3862
G1 X146.281 Y131.052 E2.3990
G1 X146.202 Y130.767 E2.4089
G1 X146.131 Y130.345 E2.4231
G1 X146.107 Y129.914 E2.4374
G1 X146.107 Y125.722 E2.5769
G1 X113.722 Y125.722 E3.6540
G1 X113.722 Y129.914 E3.7935
G1 X113.698 Y130.345 E3.8078
G1 X113.627 Y130.766 E3.8220
G1 X113.509 Y131.175 E3.8362
G1 X113.363 Y131.529 E3.8489
G1 X113.168 Y131.894 E3.8627
G1 X112.996 Y132.153 E3.8730
G1 X112.756 Y132.451 E3.8857
G1 X112.454 Y132.754 E3.9000
G1 X112.156 Y132.993 E3.9127
G1 X111.833 Y133.203 E3.9255
G1 X111.573 Y133.343 E3.9353
G1 X111.178 Y133.506 E3.9495
G1 X110.811 Y133.613 E3.9622
G1 X110.405 Y133.688 E3.9760
G1 X110.095 Y133.714 E3.9863
G1 X109.713 Y133.713 E3.9990
G1 X109.287 Y133.665 E4.0133
G1 X108.915 Y133.582 E4.0259
G1 X108.549 Y133.460 E4.0388
G1 X108.278 Y133.344 E4.0486
G1 X107.904 Y133.137 E4.0628
G1 X107.591 Y132.917 E4.0755
G1 X107.280 Y132.645 E4.0893
G1 X107.066 Y132.419 E4.0996
G1 X106.828 Y132.120 E4.1124
G1 X106.600 Y131.757 E4.1266
G1 X106.434 Y131.414 E4.1393
G1 X106.301 Y131.051 E4.1521
G1 X106.222 Y130.767 E4.1619
G1 X106.151 Y130.345 E4.1762
G1 X106.126 Y129.914 E4.1905
G1 X106.126 Y101.126 E5.1480
G1 X109.724 Y101.126 E5.2677
G1 X109.724 Y118.122 E5.8330
G1 X150.046 Y118.122 E7.1741
G1 X150.696 Y117.854
;segType:Loop
G0 X150.505 Y117.052 F10800
G1 X150.505 Y101.524 E7.6905 F3600
G1 X153.303 Y101.524 E7.7836
G1 X153.303 Y129.903 E8.7275
G1 X153.280 Y130.301 E8.7407
G1 X153.216 Y130.677 E8.7534
G1 X153.110 Y131.045 E8.7661
G1 X152.981 Y131.360 E8.7775
G1 X152.804 Y131.689 E8.7899
G1 X152.652 Y131.918 E8.7990
G1 X152.438 Y132.186 E8.8104
G1 X152.166 Y132.458 E8.8232
G1 X151.901 Y132.670 E8.8345
G1 X151.381 Y132.983 E8.8547
G1 X151.025 Y133.130 E8.8675
G1 X150.699 Y133.226 E8.8788
G1 X150.332 Y133.293 E8.8912
G1 X150.058 Y133.316 E8.9004
G1 X149.716 Y133.315 E8.9118
G1 X149.334 Y133.272 E8.9245
G1 X149.004 Y133.198 E8.9358
G1 X148.435 Y132.986 E8.9560
G1 X148.098 Y132.799 E8.9688
G1 X147.820 Y132.603 E8.9801
G1 X147.538 Y132.358 E8.9926
G1 X147.349 Y132.159 E9.0017
G1 X147.136 Y131.890 E9.0131
G1 X146.931 Y131.564 E9.0259
G1 X146.783 Y131.259 E9.0372
G1 X146.593 Y130.681 E9.0574
G1 X146.529 Y130.301 E9.0702
G1 X146.507 Y129.903 E9.0835
G1 X146.507 Y125.323 E9.2358
G1 X113.322 Y125.323 E10.3395
G1 X113.322 Y129.903 E10.4918
G1 X113.300 Y130.301 E10.5051
G1 X113.236 Y130.677 E10.5178
G1 X113.130 Y131.045 E10.5305
G1 X113.001 Y131.360 E10.5418
G1 X112.824 Y131.690 E10.5543
G1 X112.672 Y131.918 E10.5634
G1 X112.457 Y132.186 E10.5748
G1 X112.185 Y132.458 E10.5876
G1 X111.921 Y132.670 E10.5989
G1 X111.400 Y132.983 E10.6191
G1 X111.044 Y133.130 E10.6319
G1 X110.718 Y133.226 E10.6432
G1 X110.351 Y133.293 E10.6556
G1 X110.078 Y133.316 E10.6647
G1 X109.736 Y133.315 E10.6761
G1 X109.354 Y133.272 E10.6889
G1 X109.023 Y133.198 E10.7002
G1 X108.454 Y132.986 E10.7204
G1 X108.117 Y132.799 E10.7332
G1 X107.839 Y132.604 E10.7445
G1 X107.558 Y132.358 E10.7569
G1 X107.369 Y132.159 E10.7661
G1 X107.156 Y131.890 E10.7775
G1 X106.951 Y131.564 E10.7903
G1 X106.802 Y131.259 E10.8016
G1 X106.613 Y130.681 E10.8218
G1 X106.549 Y130.301 E10.8346
G1 X106.526 Y129.903 E10.8478
G1 X106.526 Y101.524 E11.7917
G1 X109.324 Y101.524 E11.8848
G1 X109.324 Y118.520 E12.4501
G1 X150.505 Y118.520 E13.8197
G1 X150.505 Y117.246 E13.8621
G0 X147.415 Y130.048 F10800
G0 X147.792 Y131.244
G0 X149.527 Y133.093
;segType:HShell
G1 X149.136 Y132.704 E13.8804 F3600
G1 X149.796 Y132.811
G1 X150.089 Y133.103 E13.8942
G1 X150.583 Y133.044
G1 X150.322 Y132.784 E13.9065
G1 X150.773 Y132.683
G1 X151.012 Y132.920 E13.9177
G1 X151.389 Y132.746
G1 X151.166 Y132.524 E13.9281
;segType:Loop
G0 X149.043 Y132.472 F10800
G1 X148.980 Y132.454 E13.9303 F3600
G1 X148.546 Y132.250 E13.9463
G1 X148.206 Y132.017 E13.9600
G1 X147.862 Y131.683 E13.9759
G1 X147.617 Y131.352 E13.9896
G1 X147.401 Y130.925 E14.0055
G1 X147.276 Y130.533 E14.0192
G1 X147.210 Y130.060 E14.0351
G1 X147.219 Y129.648 E14.0488
G1 X147.310 Y129.178 E14.0647
G1 X147.452 Y128.791 E14.0784
G1 X147.692 Y128.377 E14.0943
G1 X147.952 Y128.057 E14.1081
G1 X148.312 Y127.742 E14.1240
G1 X148.664 Y127.524 E14.1377
G1 X149.107 Y127.344 E14.1537
G1 X149.510 Y127.251 E14.1674
G1 X149.988 Y127.225 E14.1833
G1 X150.399 Y127.268 E14.1971
G1 X150.861 Y127.398 E14.2130
G1 X151.235 Y127.573 E14.2268
G1 X151.628 Y127.845 E14.2427
G1 X151.926 Y128.131 E14.2564
G1 X152.209 Y128.517 E14.2723
G1 X152.397 Y128.883 E14.2860
G1 X152.540 Y129.340 E14.3019
G1 X152.599 Y129.747 E14.3156
G1 X152.586 Y130.225 E14.3315
G1 X152.509 Y130.630 E14.3452
G1 X152.342 Y131.078 E14.3611
G1 X152.138 Y131.436 E14.3749
G1 X151.834 Y131.805 E14.3908
G1 X151.524 Y132.078 E14.4045
G1 X151.116 Y132.329 E14.4204
G1 X150.734 Y132.487 E14.4342
G1 X150.267 Y132.592 E14.4501
G1 X149.854 Y132.617 E14.4639
G1 X149.378 Y132.564 E14.4798
G1 X149.231 Y132.524 E14.4849
;segType:Perimeter
G0 X150.731 Y132.598 F10800
G1 X150.152 Y132.200 E14.5082 F2159
G1 X149.864 Y132.217 E14.5178
G1 X149.454 Y132.172 E14.5315
G1 X149.120 Y132.080 E14.5431
G1 X148.747 Y131.904 E14.5568
G1 X148.461 Y131.708 E14.5683
G1 X148.165 Y131.420 E14.5820
G1 X147.959 Y131.142 E14.5935
G1 X147.772 Y130.774 E14.6073
G1 X147.667 Y130.444 E14.6188
G1 X147.610 Y130.036 E14.6325
G1 X147.618 Y129.690 E14.6440
G1 X147.697 Y129.285 E14.6577
G1 X147.816 Y128.960 E14.6692
G1 X148.022 Y128.603 E14.6830
G1 X148.241 Y128.335 E14.6945
G1 X148.552 Y128.063 E14.7082
G1 X148.846 Y127.880 E14.7197
G1 X149.228 Y127.725 E14.7334
G1 X149.566 Y127.647 E14.7450
G1 X149.978 Y127.624 E14.7587
G1 X150.323 Y127.660 E14.7702
G1 X150.720 Y127.772 E14.7840
G1 X151.034 Y127.919 E14.7955
G1 X151.373 Y128.153 E14.8092
G1 X151.623 Y128.394 E14.8207
G1 X151.868 Y128.726 E14.8344
G1 X152.025 Y129.034 E14.8460
G1 X152.149 Y129.428 E14.8597
G1 X152.198 Y129.770 E14.8712
G1 X152.187 Y130.183 E14.8849
G1 X152.123 Y130.523 E14.8964
G1 X151.978 Y130.909 E14.9101
G1 X151.807 Y131.210 E14.9217
G1 X151.545 Y131.528 E14.9354
G1 X151.285 Y131.758 E14.9469
G1 X150.933 Y131.974 E14.9606
G1 X150.613 Y132.106 E14.9722
G1 X150.267 Y132.184 E14.9839
G1 X149.822 Y132.726
G0 F4800 E13.9839
G0 X113.652 Y132.612 F10800
G0 X111.091 Y132.533
G0 X108.530 Y132.453
G0 F4800 E14.9839
;segType:HShell
G1 X109.088 Y133.008 E15.0101 F3600
G1 X109.749 Y133.116
G1 X109.396 Y132.765 E15.0266
G1 X109.993 Y132.809
G1 X110.282 Y133.096 E15.0402
G1 X110.747 Y133.010
G1 X110.488 Y132.751 E15.0524
G1 X110.922 Y132.633
G1 X111.158 Y132.868 E15.0635
;segType:Loop
G0 X109.062 Y132.472 F10800
G1 X108.999 Y132.454 E15.0656 F3600
G1 X108.566 Y132.250 E15.0816
G1 X108.226 Y132.017 E15.0953
G1 X107.882 Y131.683 E15.1112
G1 X107.637 Y131.352 E15.1249
G1 X107.420 Y130.925 E15.1408
G1 X107.295 Y130.533 E15.1545
G1 X107.229 Y130.059 E15.1704
G1 X107.238 Y129.647 E15.1841
G1 X107.330 Y129.178 E15.2000
G1 X107.472 Y128.792 E15.2137
G1 X107.711 Y128.377 E15.2296
G1 X107.971 Y128.057 E15.2434
G1 X108.332 Y127.743 E15.2593
G1 X108.683 Y127.524 E15.2730
G1 X109.127 Y127.344 E15.2890
G1 X109.529 Y127.251 E15.3027
G1 X110.008 Y127.225 E15.3186
G1 X110.419 Y127.268 E15.3324
G1 X110.880 Y127.398 E15.3483
G1 X111.254 Y127.573 E15.3621
G1 X111.648 Y127.845 E15.3780
G1 X111.945 Y128.131 E15.3917
G1 X112.229 Y128.517 E15.4076
G1 X112.417 Y128.883 E15.4213
G1 X112.560 Y129.340 E15.4372
G1 X112.618 Y129.747 E15.4509
G1 X112.606 Y130.225 E15.4668
G1 X112.529 Y130.630 E15.4805
G1 X112.361 Y131.078 E15.4964
G1 X112.157 Y131.436 E15.5102
G1 X111.853 Y131.806 E15.5261
G1 X111.543 Y132.078 E15.5398
G1 X111.136 Y132.329 E15.5557
G1 X110.754 Y132.487 E15.5695
G1 X110.286 Y132.592 E15.5854
G1 X109.874 Y132.617 E15.5992
G1 X109.398 Y132.564 E15.6151
G1 X109.250 Y132.524 E15.6202
;segType:Perimeter
G0 X110.750 Y132.598 F10800
G1 X110.171 Y132.200 E15.6435 F2159
G1 X109.884 Y132.217 E15.6531
G1 X109.474 Y132.172 E15.6668
G1 X109.140 Y132.080 E15.6784
G1 X108.766 Y131.904 E15.6921
G1 X108.481 Y131.708 E15.7036
G1 X108.185 Y131.420 E15.7173
G1 X107.978 Y131.142 E15.7288
G1 X107.792 Y130.774 E15.7426
G1 X107.687 Y130.444 E15.7541
G1 X107.630 Y130.036 E15.7678
G1 X107.638 Y129.690 E15.7793
G1 X107.716 Y129.285 E15.7930
G1 X107.836 Y128.960 E15.8045
G1 X108.042 Y128.603 E15.8183
G1 X108.261 Y128.334 E15.8298
G1 X108.572 Y128.063 E15.8435
G1 X108.866 Y127.880 E15.8550
G1 X109.248 Y127.725 E15.8688
G1 X109.586 Y127.647 E15.8803
G1 X109.998 Y127.624 E15.8940
G1 X110.343 Y127.660 E15.9055
G1 X110.740 Y127.772 E15.9193
G1 X111.054 Y127.919 E15.9308
G1 X111.393 Y128.153 E15.9445
G1 X111.643 Y128.394 E15.9560
G1 X111.887 Y128.726 E15.9698
G1 X112.045 Y129.034 E15.9813
G1 X112.168 Y129.428 E15.9950
G1 X112.218 Y129.770 E16.0065
G1 X112.207 Y130.183 E16.0202
G1 X112.142 Y130.523 E16.0317
G1 X111.998 Y130.909 E16.0455
G1 X111.826 Y131.210 E16.0570
G1 X111.564 Y131.528 E16.0707
G1 X111.304 Y131.758 E16.0822
G1 X110.953 Y131.974 E16.0959
G1 X110.632 Y132.106 E16.1075
G1 X110.287 Y132.184 E16.1192
G1 X109.842 Y132.726
G0 F4800 E15.1192
G0 X111.520 Y132.678 F10800
G0 F4800 E16.1192
;segType:HShell
G1 X111.302 Y132.461 E16.1295 F3600
G1 X111.644 Y132.251
G1 X111.858 Y132.465 E16.1396
G1 X112.153 Y132.208
G1 X111.940 Y131.995 E16.1496
G1 X112.197 Y131.702
G1 X112.411 Y131.914 E16.1596
G1 X112.645 Y131.597
G1 X112.422 Y131.375 E16.1701
G1 X112.602 Y131.004
G1 X112.835 Y131.236 E16.1810
G1 X112.983 Y130.833
G1 X112.740 Y130.591 E16.1924
G1 X112.809 Y130.109
G1 X113.083 Y130.382 E16.2053
G1 X113.122 Y129.871
G1 X112.791 Y129.541 E16.2208
G1 X112.598 Y128.798
G1 X113.122 Y129.320 E16.2455
G1 X113.122 Y128.770
G1 X106.726 Y122.403 E16.5456
G1 X106.726 Y121.853
G1 X113.122 Y128.220 E16.8458
G1 X113.122 Y127.670
G1 X106.726 Y121.302 E17.1460
G1 X106.726 Y120.752
G1 X113.122 Y127.119 E17.4462
G1 X113.122 Y126.569
G1 X106.726 Y120.202 E17.7463
G1 X106.726 Y119.652
G1 X113.122 Y126.019 E18.0465
G1 X113.122 Y125.468
G1 X106.726 Y119.101 E18.3467
G1 X106.726 Y118.551
G1 X113.329 Y125.124 E18.6566
G1 X113.882 Y125.124
G1 X106.726 Y118.001 E18.9924
G1 X106.726 Y117.450
G1 X114.435 Y125.124 E19.3542
G1 X114.988 Y125.124
G1 X106.726 Y116.900 E19.7419
G1 X106.726 Y116.350
G1 X115.540 Y125.124 E20.1556
G1 X116.093 Y125.124
G1 X109.659 Y118.719 E20.4575
G1 X110.212 Y118.719
G1 X116.646 Y125.124 E20.7595
G1 X117.199 Y125.124
G1 X110.765 Y118.719 E21.0614
G1 X111.317 Y118.719
G1 X117.752 Y125.124 E21.3634
G1 X118.304 Y125.124
G1 X111.870 Y118.719 E21.6654
G1 X112.423 Y118.719
G1 X118.857 Y125.124 E21.9673
G1 X119.410 Y125.124
G1 X112.976 Y118.719 E22.2693
G1 X113.529 Y118.719
G1 X119.963 Y125.124 E22.5713
G1 X120.516 Y125.124
G1 X114.081 Y118.719 E22.8732
G1 X114.634 Y118.719
G1 X121.068 Y125.124 E23.1752
G1 X121.621 Y125.124
G1 X115.187 Y118.719 E23.4772
G1 X115.740 Y118.719
G1 X122.174 Y125.124 E23.7791
G1 X122.727 Y125.124
G1 X116.293 Y118.719 E24.0811
G1 X116.845 Y118.719
G1 X123.280 Y125.124 E24.3830
G1 X123.832 Y125.124
G1 X117.398 Y118.719 E24.6850
G1 X117.951 Y118.719
G1 X124.385 Y125.124 E24.9870
G1 X124.938 Y125.124
G1 X118.504 Y118.719 E25.2889
G1 X119.057 Y118.719
G1 X125.491 Y125.124 E25.5909
G1 X126.044 Y125.124
G1 X119.609 Y118.719 E25.8929
G1 X120.162 Y118.719
G1 X126.596 Y125.124 E26.1948
G1 X127.149 Y125.124
G1 X120.715 Y118.719 E26.4968
G1 X121.268 Y118.719
G1 X127.702 Y125.124 E26.7988
G1 X128.255 Y125.124
G1 X121.820 Y118.719 E27.1007
G1 X122.373 Y118.719
G1 X128.808 Y125.124 E27.4027
G1 X129.360 Y125.124
G1 X122.926 Y118.719 E27.7046
G1 X123.479 Y118.719
G1 X129.913 Y125.124 E28.0066
G1 X130.466 Y125.124
G1 X124.032 Y118.719 E28.3086
G1 X124.584 Y118.719
G1 X131.019 Y125.124 E28.6105
G1 X131.572 Y125.124
G1 X125.137 Y118.719 E28.9125
G1 X125.690 Y118.719
G1 X132.124 Y125.124 E29.2145
G1 X132.677 Y125.124
G1 X126.243 Y118.719 E29.5164
G1 X126.796 Y118.719
G1 X133.230 Y125.124 E29.8184
G1 X133.783 Y125.124
G1 X127.348 Y118.719 E30.1204
G1 X127.901 Y118.719
G1 X134.335 Y125.124 E30.4223
G1 X134.888 Y125.124
G1 X128.454 Y118.719 E30.7243
G1 X129.007 Y118.719
G1 X135.441 Y125.124 E31.0263
G1 X135.994 Y125.124
G1 X129.560 Y118.719 E31.3282
G1 X130.112 Y118.719
G1 X136.547 Y125.124 E31.6302
G1 X137.099 Y125.124
G1 X130.665 Y118.719 E31.9321
G1 X131.218 Y118.719
G1 X137.652 Y125.124 E32.2341
G1 X138.205 Y125.124
G1 X131.771 Y118.719 E32.5361
G1 X132.324 Y118.719
G1 X138.758 Y125.124 E32.8380
G1 X139.311 Y125.124
G1 X132.876 Y118.719 E33.1400
G1 X133.429 Y118.719
G1 X139.863 Y125.124 E33.4420
G1 X140.416 Y125.124
G1 X133.982 Y118.719 E33.7439
G1 X134.535 Y118.719
G1 X140.969 Y125.124 E34.0459
G1 X141.522 Y125.124
G1 X135.088 Y118.719 E34.3479
G1 X135.640 Y118.719
G1 X142.075 Y125.124 E34.6498
G1 X142.627 Y125.124
G1 X136.193 Y118.719 E34.9518
G1 X136.746 Y118.719
G1 X143.180 Y125.124 E35.2537
G1 X143.733 Y125.124
G1 X137.299 Y118.719 E35.5557
G1 X137.852 Y118.719
G1 X144.286 Y125.124 E35.8577
G1 X144.839 Y125.124
G1 X138.404 Y118.719 E36.1596
G1 X138.957 Y118.719
G1 X145.391 Y125.124 E36.4616
G1 X145.944 Y125.124
G1 X139.510 Y118.719 E36.7636
G1 X140.063 Y118.719
G1 X146.497 Y125.124 E37.0655
G0 X150.754 Y127.161 F10800
G1 X142.274 Y118.719 E37.4635 F3600
G1 X141.721 Y118.719
G1 X150.073 Y127.033 E37.8555
G1 X149.537 Y127.050
G1 X141.168 Y118.719 E38.2482
G1 X140.616 Y118.719
G1 X149.080 Y127.146 E38.6455
G1 X148.684 Y127.301
G1 X146.707 Y125.333 E38.7383
G1 X146.707 Y125.883
G1 X148.328 Y127.498 E38.8144
G1 X148.016 Y127.737
G1 X146.707 Y126.434 E38.8758
G1 X146.707 Y126.984
G1 X147.735 Y128.008 E38.9241
G1 X147.495 Y128.319
G1 X146.707 Y127.534 E38.9610
G1 X146.707 Y128.085
G1 X147.293 Y128.668 E38.9886
G1 X147.139 Y129.065
G1 X146.707 Y128.635 E39.0088
G1 X146.707 Y129.185
G1 X147.040 Y129.517 E39.0245
G1 X147.010 Y130.037
G1 X146.707 Y129.735 E39.0387
G1 X146.734 Y130.313
G1 X147.117 Y130.695 E39.0567
G0 X148.783 Y132.903 F10800
G1 X146.926 Y131.054 E39.1439 F3600
G0 X149.052 Y132.262 F10800
G0 X150.238 Y132.389
G0 X151.513 Y132.319
G1 X151.734 Y132.538 E39.1542 F3600
G1 X152.044 Y132.298
G1 X151.825 Y132.079 E39.1645
G1 X152.097 Y131.800
G1 X152.315 Y132.017 E39.1748
G1 X152.549 Y131.700
G1 X152.338 Y131.489 E39.1847
G1 X152.534 Y131.134
G1 X152.757 Y131.356 E39.1951
G1 X152.924 Y130.972
G1 X152.684 Y130.733 E39.2064
G1 X152.780 Y130.278
G1 X153.038 Y130.535 E39.2185
G1 X153.095 Y130.041
G1 X152.799 Y129.747 E39.2324
G1 X152.662 Y129.060
G1 X153.103 Y129.499 E39.2530
G1 X153.103 Y128.949
G1 X142.827 Y118.719 E39.7353
G1 X143.379 Y118.719
G1 X153.103 Y128.398 E40.1916
G1 X153.103 Y127.848
G1 X143.932 Y118.719 E40.6220
G1 X144.485 Y118.719
G1 X153.103 Y127.298 E41.0264
G1 X153.103 Y126.747
G1 X145.038 Y118.719 E41.4049
G1 X145.591 Y118.719
G1 X153.103 Y126.197 E41.7574
G1 X153.103 Y125.647
G1 X146.143 Y118.719 E42.0840
G1 X146.696 Y118.719
G1 X153.103 Y125.097 E42.3847
G1 X153.103 Y124.546
G1 X147.249 Y118.719 E42.6594
G1 X147.802 Y118.719
G1 X153.103 Y123.996 E42.9082
G1 X153.103 Y123.446
G1 X148.355 Y118.719 E43.1310
G1 X148.907 Y118.719
G1 X153.103 Y122.895 E43.3279
G1 X153.103 Y122.345
G1 X149.460 Y118.719 E43.4988
G0 X153.103 Y120.144 F10800
G1 X150.705 Y117.757 E43.6114 F3600
G1 X150.705 Y117.207
G1 X153.103 Y119.594 E43.7239
G1 X153.103 Y119.043
G1 X150.705 Y116.656 E43.8364
G1 X150.705 Y116.106
G1 X153.103 Y118.493 E43.9490
G1 X153.103 Y117.943
G1 X150.705 Y115.556 E44.0615
G1 X150.705 Y115.005
G1 X153.103 Y117.392 E44.1740
G1 X153.103 Y116.842
G1 X150.705 Y114.455 E44.2866
G1 X150.705 Y113.905
G1 X153.103 Y116.292 E44.3991
G1 X153.103 Y115.742
G1 X150.705 Y113.354 E44.5116
G1 X150.705 Y112.804
G1 X153.103 Y115.191 E44.6242
G1 X153.103 Y114.641
G1 X150.705 Y112.254 E44.7367
G1 X150.705 Y111.704
G1 X153.103 Y114.091 E44.8492
G1 X153.103 Y113.540
G1 X150.705 Y111.153 E44.9618
G1 X150.705 Y110.603
G1 X153.103 Y112.990 E45.0743
G1 X153.103 Y112.440
G1 X150.705 Y110.053 E45.1868
G1 X150.705 Y109.502
G1 X153.103 Y111.889 E45.2994
G1 X153.103 Y111.339
G1 X150.705 Y108.952 E45.4119
G1 X150.705 Y108.402
G1 X153.103 Y110.789 E45.5244
G1 X153.103 Y110.239
G1 X150.705 Y107.852 E45.6370
G1 X150.705 Y107.301
G1 X153.103 Y109.688 E45.7495
G1 X153.103 Y109.138
G1 X150.705 Y106.751 E45.8620
G1 X150.705 Y106.201
G1 X153.103 Y108.588 E45.9746
G1 X153.103 Y108.037
G1 X150.705 Y105.650 E46.0871
G1 X150.705 Y105.100
G1 X153.103 Y107.487 E46.1996
G1 X153.103 Y106.937
G1 X150.705 Y104.550 E46.3122
G1 X150.705 Y104.000
G1 X153.103 Y106.387 E46.4247
G1 X153.103 Y105.836
G1 X150.705 Y103.449 E46.5372
G1 X150.705 Y102.899
G1 X153.103 Y105.286 E46.6498
G1 X153.103 Y104.736
G1 X150.705 Y102.349 E46.7623
G1 X150.705 Y101.798
G1 X153.103 Y104.185 E46.8748
G1 X153.103 Y103.635
G1 X151.182 Y101.723 E46.9650
G1 X151.735 Y101.723
G1 X153.103 Y103.085 E47.0291
G1 X153.103 Y102.534
G1 X152.288 Y101.723 E47.0674
G1 X152.841 Y101.723
G1 X153.103 Y101.984 E47.0797
G0 X112.127 Y118.259 F10800
G0 X109.586 Y118.259
G0 X109.124 Y102.228
G1 X108.617 Y101.723 E47.1035 F3600
G1 X108.064 Y101.723
G1 X109.124 Y102.779 E47.1532
G1 X109.124 Y103.329
G1 X107.512 Y101.723 E47.2289
G1 X106.959 Y101.723
G1 X109.124 Y103.879 E47.3305
G1 X109.124 Y104.429
G1 X106.726 Y102.042 E47.4431
G1 X106.726 Y102.592
G1 X109.124 Y104.980 E47.5556
G1 X109.124 Y105.530
G1 X106.726 Y103.143 E47.6681
G1 X106.726 Y103.693
G1 X109.124 Y106.080 E47.7807
G1 X109.124 Y106.631
G1 X106.726 Y104.243 E47.8932
G1 X106.726 Y104.794
G1 X109.124 Y107.181 E48.0058
G1 X109.124 Y107.731
G1 X106.726 Y105.344 E48.1183
G1 X106.726 Y105.894
G1 X109.124 Y108.282 E48.2309
G1 X109.124 Y108.832
G1 X106.726 Y106.445 E48.3434
G1 X106.726 Y106.995
G1 X109.124 Y109.382 E48.4560
G1 X109.124 Y109.932
G1 X106.726 Y107.545 E48.5685
G1 X106.726 Y108.095
G1 X109.124 Y110.483 E48.6811
G1 X109.124 Y111.033
G1 X106.726 Y108.646 E48.7936
G1 X106.726 Y109.196
G1 X109.124 Y111.583 E48.9061
G1 X109.124 Y112.134
G1 X106.726 Y109.746 E49.0187
G1 X106.726 Y110.297
G1 X109.124 Y112.684 E49.1312
G1 X109.124 Y113.234
G1 X106.726 Y110.847 E49.2438
G1 X106.726 Y111.397
G1 X109.124 Y113.784 E49.3563
G1 X109.124 Y114.335
G1 X106.726 Y111.947 E49.4689
G1 X106.726 Y112.498
G1 X109.124 Y114.885 E49.5814
G1 X109.124 Y115.435
G1 X106.726 Y113.048 E49.6940
G1 X106.726 Y113.598
G1 X109.124 Y115.986 E49.8065
G1 X109.124 Y116.536
G1 X106.726 Y114.149 E49.9190
G1 X106.726 Y114.699
G1 X109.124 Y117.086 E50.0316
G1 X109.124 Y117.636
G1 X106.726 Y115.249 E50.1441
G1 X106.726 Y115.800
G1 X109.124 Y118.187 E50.2567
G0 X111.049 Y127.257 F10800
G1 X106.726 Y122.953 E50.4596 F3600
G1 X106.726 Y123.504
G1 X110.293 Y127.055 E50.6270
G1 X109.727 Y127.041
G1 X106.726 Y124.054 E50.7678
G1 X106.726 Y124.604
G1 X109.246 Y127.112 E50.8860
G1 X108.830 Y127.249
G1 X106.726 Y125.154 E50.9848
G1 X106.726 Y125.705
G1 X108.458 Y127.429 E51.0661
G1 X108.131 Y127.653
G1 X106.726 Y126.255 E51.1320
G1 X106.726 Y126.805
G1 X107.836 Y127.910 E51.1841
G1 X107.587 Y128.213
G1 X106.726 Y127.356 E51.2245
G1 X106.726 Y127.906
G1 X107.378 Y128.555 E51.2551
G1 X107.206 Y128.934
G1 X106.726 Y128.456 E51.2776
G1 X106.726 Y129.007
G1 X107.089 Y129.368 E51.2947
G1 X107.033 Y129.863
G1 X106.726 Y129.557 E51.3091
G1 X106.739 Y130.120
G1 X107.083 Y130.463 E51.3253
G1 X106.859 Y130.790
G1 X107.401 Y131.329 E51.3507
G1 X107.455 Y131.934
G1 X107.990 Y132.466 E51.3758
G0 F4800 E50.3758
G0 X110.810 Y132.662 F10800
G0 X112.529 Y131.156
G0 X145.709 Y94.647
G0 X147.559 Y92.769
G0 X153.109 Y87.133
G0 F4800 E51.3758
G1 X149.181 Y83.222 E51.5602 F3600
G1 X149.733 Y83.222
G1 X153.109 Y86.583 E51.7186
G1 X153.109 Y86.033
G1 X150.286 Y83.222 E51.8511
;segType:Perimeter
G0 X149.842 Y83.213 F10800
G1 X150.111 Y82.566 E51.8744 F2159
G1 X150.111 Y65.629 E52.4378
G1 X153.709 Y65.629 E52.5574
G1 X153.709 Y94.417 E53.5149
G1 X153.685 Y94.848 E53.5293
G1 X153.614 Y95.268 E53.5435
G1 X153.496 Y95.678 E53.5577
G1 X153.350 Y96.032 E53.5704
G1 X153.155 Y96.396 E53.5841
G1 X152.983 Y96.656 E53.5945
G1 X152.743 Y96.954 E53.6072
G1 X152.441 Y97.257 E53.6214
G1 X152.143 Y97.496 E53.6341
G1 X151.820 Y97.706 E53.6470
G1 X151.560 Y97.846 E53.6568
G1 X151.165 Y98.009 E53.6710
G1 X150.798 Y98.116 E53.6837
G1 X150.392 Y98.191 E53.6975
G1 X150.082 Y98.217 E53.7078
G1 X149.700 Y98.216 E53.7205
G1 X149.274 Y98.168 E53.7348
G1 X148.903 Y98.084 E53.7474
G1 X148.536 Y97.963 E53.7603
G1 X148.265 Y97.847 E53.7701
G1 X147.891 Y97.640 E53.7843
G1 X147.578 Y97.419 E53.7970
G1 X147.267 Y97.148 E53.8108
G1 X147.052 Y96.922 E53.8211
G1 X146.815 Y96.623 E53.8338
G1 X146.587 Y96.260 E53.8481
G1 X146.421 Y95.917 E53.8608
G1 X146.288 Y95.554 E53.8736
G1 X146.209 Y95.269 E53.8834
G1 X146.138 Y94.848 E53.8976
G1 X146.113 Y94.417 E53.9120
G1 X146.113 Y90.224 E54.0515
G1 X113.729 Y90.224 E55.1286
G1 X113.729 Y94.417 E55.2680
G1 X113.704 Y94.848 E55.2824
G1 X113.633 Y95.268 E55.2966
G1 X113.515 Y95.678 E55.3107
G1 X113.370 Y96.032 E55.3235
G1 X113.174 Y96.396 E55.3372
G1 X113.002 Y96.656 E55.3476
G1 X112.763 Y96.954 E55.3603
G1 X112.460 Y97.257 E55.3745
G1 X112.163 Y97.496 E55.3872
G1 X111.839 Y97.706 E55.4001
G1 X111.579 Y97.846 E55.4099
G1 X111.185 Y98.009 E55.4241
G1 X110.818 Y98.116 E55.4368
G1 X110.411 Y98.191 E55.4505
G1 X110.102 Y98.217 E55.4609
G1 X109.719 Y98.216 E55.4736
G1 X109.294 Y98.168 E55.4878
G1 X108.922 Y98.084 E55.5005
G1 X108.556 Y97.963 E55.5133
G1 X108.284 Y97.847 E55.5232
G1 X107.911 Y97.640 E55.5374
G1 X107.598 Y97.419 E55.5501
G1 X107.286 Y97.148 E55.5638
G1 X107.072 Y96.922 E55.5742
G1 X106.834 Y96.622 E55.5869
G1 X106.607 Y96.260 E55.6011
G1 X106.440 Y95.917 E55.6138
G1 X106.307 Y95.554 E55.6267
G1 X106.229 Y95.269 E55.6365
G1 X106.157 Y94.848 E55.6507
G1 X106.133 Y94.417 E55.6651
G1 X106.133 Y65.629 E56.6226
G1 X109.731 Y65.629 E56.7422
G1 X109.731 Y82.625 E57.3075
G1 X150.053 Y82.625 E58.6486
G1 X150.703 Y82.356
;segType:Loop
G0 X150.511 Y81.555 F10800
G1 X150.511 Y66.027 E59.1651 F3600
G1 X153.310 Y66.027 E59.2582
G1 X153.310 Y94.406 E60.2021
G1 X153.287 Y94.804 E60.2153
G1 X153.223 Y95.180 E60.2280
G1 X153.117 Y95.547 E60.2407
G1 X152.988 Y95.862 E60.2521
G1 X152.811 Y96.192 E60.2645
G1 X152.659 Y96.421 E60.2737
G1 X152.444 Y96.688 E60.2850
G1 X152.173 Y96.961 E60.2978
G1 X151.908 Y97.173 E60.3091
G1 X151.388 Y97.486 E60.3293
G1 X151.032 Y97.633 E60.3421
G1 X150.705 Y97.728 E60.3534
G1 X150.338 Y97.795 E60.3658
G1 X150.065 Y97.819 E60.3750
G1 X149.723 Y97.818 E60.3864
G1 X149.341 Y97.775 E60.3991
G1 X149.010 Y97.701 E60.4104
G1 X148.442 Y97.489 E60.4306
G1 X148.105 Y97.302 E60.4434
G1 X147.826 Y97.106 E60.4547
G1 X147.544 Y96.861 E60.4672
G1 X147.355 Y96.662 E60.4763
G1 X147.143 Y96.393 E60.4877
G1 X146.938 Y96.067 E60.5005
G1 X146.790 Y95.761 E60.5118
G1 X146.600 Y95.183 E60.5320
G1 X146.536 Y94.804 E60.5448
G1 X146.513 Y94.406 E60.5581
G1 X146.513 Y89.826 E60.7104
G1 X113.329 Y89.826 E61.8141
G1 X113.329 Y94.406 E61.9664
G1 X113.306 Y94.804 E61.9797
G1 X113.243 Y95.180 E61.9924
G1 X113.137 Y95.547 E62.0051
G1 X113.007 Y95.862 E62.0164
G1 X112.830 Y96.192 E62.0289
G1 X112.678 Y96.421 E62.0380
G1 X112.464 Y96.689 E62.0494
G1 X112.192 Y96.961 E62.0622
G1 X111.928 Y97.173 E62.0735
G1 X111.407 Y97.486 E62.0937
G1 X111.051 Y97.633 E62.1065
G1 X110.725 Y97.728 E62.1178
G1 X110.358 Y97.795 E62.1302
G1 X110.085 Y97.819 E62.1393
G1 X109.742 Y97.818 E62.1507
G1 X109.361 Y97.775 E62.1635
G1 X109.030 Y97.701 E62.1748
G1 X108.461 Y97.489 E62.1950
G1 X108.124 Y97.302 E62.2078
G1 X107.846 Y97.106 E62.2191
G1 X107.564 Y96.861 E62.2315
G1 X107.375 Y96.662 E62.2406
G1 X107.162 Y96.393 E62.2521
G1 X106.957 Y96.067 E62.2648
G1 X106.809 Y95.761 E62.2761
G1 X106.620 Y95.183 E62.2964
G1 X106.555 Y94.804 E62.3092
G1 X106.533 Y94.406 E62.3224
G1 X106.533 Y66.027 E63.2663
G1 X109.331 Y66.027 E63.3594
G1 X109.331 Y83.023 E63.9247
G1 X150.511 Y83.023 E65.2943
G1 X150.511 Y81.749 E65.3367
;segType:HShell
G0 X147.870 Y92.373 F10800
G1 X146.713 Y91.222 E65.3910 F3600
G1 X146.713 Y91.772
G1 X147.613 Y92.668 E65.4332
G1 X147.397 Y93.003
G1 X146.713 Y92.322 E65.4653
G1 X146.713 Y92.872
G1 X147.217 Y93.374 E65.4889
G1 X147.090 Y93.798
G1 X146.713 Y93.423 E65.5066
G1 X146.713 Y93.973
G1 X147.022 Y94.281 E65.5211
G1 X147.057 Y94.865
G1 X146.721 Y94.531 E65.5369
G1 X146.804 Y95.164
G1 X147.299 Y95.657 E65.5601
G1 X147.199 Y96.107
G1 X148.253 Y97.157 E65.6096
G1 X148.683 Y97.034
G1 X149.187 Y97.536 E65.6332
G1 X150.062 Y97.307
G1 X150.348 Y97.591 E65.6466
G1 X149.820 Y97.616
G1 X149.481 Y97.278 E65.6625
;segType:Perimeter
G0 X149.821 Y97.223 F10800
G1 X149.404 Y96.659 E65.6859 F2159
G1 X149.127 Y96.582 E65.6954
G1 X148.753 Y96.407 E65.7092
G1 X148.468 Y96.211 E65.7207
G1 X148.172 Y95.923 E65.7344
G1 X147.965 Y95.645 E65.7459
G1 X147.779 Y95.277 E65.7596
G1 X147.674 Y94.947 E65.7712
G1 X147.617 Y94.539 E65.7849
G1 X147.625 Y94.193 E65.7964
G1 X147.704 Y93.788 E65.8101
G1 X147.823 Y93.463 E65.8216
G1 X148.029 Y93.106 E65.8354
G1 X148.248 Y92.837 E65.8469
G1 X148.559 Y92.566 E65.8606
G1 X148.853 Y92.383 E65.8721
G1 X149.235 Y92.227 E65.8858
G1 X149.573 Y92.150 E65.8974
G1 X149.985 Y92.127 E65.9111
G1 X150.330 Y92.163 E65.9226
G1 X150.727 Y92.275 E65.9363
G1 X151.041 Y92.422 E65.9479
G1 X151.380 Y92.656 E65.9616
G1 X151.630 Y92.897 E65.9731
G1 X151.874 Y93.229 E65.9868
G1 X152.032 Y93.537 E65.9983
G1 X152.156 Y93.931 E66.0121
G1 X152.205 Y94.273 E66.0236
G1 X152.194 Y94.685 E66.0373
G1 X152.129 Y95.026 E66.0488
G1 X151.985 Y95.412 E66.0625
G1 X151.813 Y95.713 E66.0740
G1 X151.551 Y96.031 E66.0877
G1 X151.291 Y96.260 E66.0993
G1 X150.940 Y96.476 E66.1130
G1 X150.620 Y96.609 E66.1245
G1 X150.217 Y96.699 E66.1382
G1 X149.871 Y96.720 E66.1498
G1 X149.519 Y96.681 E66.1616
G1 X148.921 Y97.050
G0 F4800 E65.1616
G0 X148.267 Y96.557 F10800
G0 F4800 E66.1616
;segType:Loop
G1 X148.213 Y96.519 E66.1637 F3600
G1 X147.869 Y96.186 E66.1797
G1 X147.624 Y95.855 E66.1934
G1 X147.407 Y95.428 E66.2093
G1 X147.282 Y95.035 E66.2230
G1 X147.216 Y94.562 E66.2389
G1 X147.225 Y94.150 E66.2526
G1 X147.317 Y93.681 E66.2685
G1 X147.459 Y93.294 E66.2822
G1 X147.698 Y92.880 E66.2981
G1 X147.958 Y92.560 E66.3118
G1 X148.319 Y92.245 E66.3277
G1 X148.670 Y92.027 E66.3415
G1 X149.114 Y91.847 E66.3574
G1 X149.516 Y91.754 E66.3711
G1 X149.995 Y91.727 E66.3871
G1 X150.406 Y91.771 E66.4008
G1 X150.867 Y91.901 E66.4168
G1 X151.241 Y92.075 E66.4305
G1 X151.635 Y92.348 E66.4464
G1 X151.932 Y92.634 E66.4601
G1 X152.216 Y93.019 E66.4761
G1 X152.404 Y93.386 E66.4898
G1 X152.547 Y93.843 E66.5057
G1 X152.605 Y94.250 E66.5194
G1 X152.593 Y94.728 E66.5353
G1 X152.516 Y95.133 E66.5490
G1 X152.349 Y95.581 E66.5649
G1 X152.144 Y95.939 E66.5786
G1 X151.840 Y96.308 E66.5945
G1 X151.531 Y96.581 E66.6082
G1 X151.123 Y96.832 E66.6241
G1 X150.741 Y96.989 E66.6379
G1 X150.274 Y97.095 E66.6538
G1 X149.861 Y97.120 E66.6676
G1 X149.385 Y97.067 E66.6835
G1 X148.986 Y96.957 E66.6973
G1 X148.553 Y96.753 E66.7132
G1 X148.428 Y96.667 E66.7182
G0 X146.252 Y90.087 F10800
G0 X113.591 Y90.087
G0 X107.985 Y92.289
;segType:HShell
G1 X106.733 Y91.043 E66.7770 F3600
G1 X106.733 Y91.593
G1 X107.713 Y92.569 E66.8230
G1 X107.482 Y92.889
G1 X106.733 Y92.144 E66.8581
G1 X106.733 Y92.694
G1 X107.284 Y93.243 E66.8840
G1 X107.139 Y93.648
G1 X106.733 Y93.244 E66.9030
G1 X106.733 Y93.795
G1 X107.049 Y94.109 E66.9179
G1 X107.047 Y94.658
G1 X106.733 Y94.345 E66.9326
G1 X106.782 Y94.944
G1 X107.193 Y95.353 E66.9519
G1 X107.013 Y95.724
G1 X108.639 Y97.343 E67.0282
G1 X109.014 Y97.166
G1 X109.433 Y97.583 E67.0478
G1 X110.251 Y97.297
G1 X110.519 Y97.564 E67.0604
G1 X110.012 Y97.609
G1 X109.702 Y97.300 E67.0750
;segType:Perimeter
G0 X109.841 Y97.223 F10800
G1 X109.424 Y96.659 E67.0983 F2159
G1 X109.146 Y96.582 E67.1079
G1 X108.773 Y96.407 E67.1216
G1 X108.487 Y96.211 E67.1331
G1 X108.191 Y95.923 E67.1469
G1 X107.985 Y95.645 E67.1584
G1 X107.798 Y95.277 E67.1721
G1 X107.693 Y94.947 E67.1836
G1 X107.636 Y94.539 E67.1974
G1 X107.644 Y94.193 E67.2089
G1 X107.723 Y93.788 E67.2226
G1 X107.842 Y93.463 E67.2341
G1 X108.049 Y93.106 E67.2478
G1 X108.267 Y92.837 E67.2593
G1 X108.578 Y92.566 E67.2731
G1 X108.872 Y92.383 E67.2846
G1 X109.255 Y92.227 E67.2983
G1 X109.593 Y92.150 E67.3098
G1 X110.004 Y92.127 E67.3235
G1 X110.349 Y92.163 E67.3351
G1 X110.746 Y92.275 E67.3488
G1 X111.060 Y92.422 E67.3603
G1 X111.400 Y92.656 E67.3740
G1 X111.649 Y92.897 E67.3856
G1 X111.894 Y93.229 E67.3993
G1 X112.052 Y93.537 E67.4108
G1 X112.175 Y93.931 E67.4245
G1 X112.224 Y94.273 E67.4360
G1 X112.213 Y94.685 E67.4498
G1 X112.149 Y95.026 E67.4613
G1 X112.004 Y95.412 E67.4750
G1 X111.833 Y95.713 E67.4865
G1 X111.571 Y96.031 E67.5002
G1 X111.311 Y96.260 E67.5118
G1 X110.960 Y96.477 E67.5255
G1 X110.639 Y96.609 E67.5370
G1 X110.236 Y96.699 E67.5507
G1 X109.890 Y96.720 E67.5623
G1 X109.538 Y96.681 E67.5740
G1 X108.940 Y97.050
G0 F4800 E66.5740
G0 X108.286 Y96.556 F10800
G0 F4800 E67.5740
;segType:Loop
G1 X108.232 Y96.519 E67.5762 F3600
G1 X107.889 Y96.186 E67.5922
G1 X107.643 Y95.855 E67.6059
G1 X107.427 Y95.428 E67.6218
G1 X107.302 Y95.035 E67.6355
G1 X107.236 Y94.562 E67.6514
G1 X107.245 Y94.150 E67.6651
G1 X107.336 Y93.681 E67.6810
G1 X107.479 Y93.294 E67.6947
G1 X107.718 Y92.880 E67.7106
G1 X107.978 Y92.560 E67.7243
G1 X108.339 Y92.245 E67.7402
G1 X108.690 Y92.027 E67.7540
G1 X109.133 Y91.847 E67.7699
G1 X109.536 Y91.754 E67.7836
G1 X110.014 Y91.727 E67.7996
G1 X110.425 Y91.771 E67.8133
G1 X110.887 Y91.901 E67.8293
G1 X111.261 Y92.075 E67.8430
G1 X111.654 Y92.348 E67.8589
G1 X111.952 Y92.634 E67.8726
G1 X112.236 Y93.019 E67.8886
G1 X112.423 Y93.386 E67.9023
G1 X112.567 Y93.843 E67.9182
G1 X112.625 Y94.250 E67.9318
G1 X112.613 Y94.728 E67.9478
G1 X112.535 Y95.133 E67.9615
G1 X112.368 Y95.581 E67.9774
G1 X112.164 Y95.939 E67.9911
G1 X111.860 Y96.308 E68.0070
G1 X111.550 Y96.581 E68.0207
G1 X111.143 Y96.832 E68.0366
G1 X110.760 Y96.990 E68.0504
G1 X110.293 Y97.095 E68.0663
G1 X109.881 Y97.120 E68.0801
G1 X109.404 Y97.067 E68.0960
G1 X109.006 Y96.957 E68.1098
G1 X108.573 Y96.753 E68.1257
G1 X108.447 Y96.667 E68.1307
;segType:HShell
G0 X110.711 Y97.205 F10800
G1 X110.960 Y97.452 E68.1424 F3600
G1 X111.348 Y97.289
G1 X111.117 Y97.058 E68.1532
G1 X111.473 Y96.863
G1 X111.693 Y97.081 E68.1636
G1 X112.013 Y96.849
G1 X111.794 Y96.632 E68.1738
G1 X112.075 Y96.361
G1 X112.293 Y96.578 E68.1840
G1 X112.530 Y96.264
G1 X112.324 Y96.058 E68.1937
G1 X112.525 Y95.708
G1 X112.745 Y95.928 E68.2041
G1 X112.919 Y95.551
G1 X112.681 Y95.314 E68.2152
G1 X112.789 Y94.871
G1 X113.049 Y95.129 E68.2274
G1 X113.115 Y94.645
G1 X112.822 Y94.353 E68.2411
G1 X112.737 Y93.718
G1 X113.129 Y94.108 E68.2595
G1 X113.129 Y93.558
G1 X112.197 Y92.631 E68.3032
G1 X111.704 Y92.139
G1 X106.733 Y87.191 E68.5365
G1 X106.733 Y86.641
G1 X113.129 Y93.008 E68.8367
G1 X113.129 Y92.457
G1 X106.733 Y86.091 E69.1369
G1 X106.733 Y85.540
G1 X113.129 Y91.907 E69.4370
G1 X113.129 Y91.357
G1 X106.733 Y84.990 E69.7372
G1 X106.733 Y84.440
G1 X113.129 Y90.807 E70.0373
G1 X113.129 Y90.256
G1 X106.733 Y83.889 E70.3375
G1 X106.733 Y83.339
G1 X113.129 Y89.706 E70.6377
G1 X113.602 Y89.627
G1 X106.733 Y82.789 E70.9601
G1 X106.733 Y82.238
G1 X114.155 Y89.627 E71.3084
G1 X114.708 Y89.627
G1 X106.733 Y81.688 E71.6827
G1 X106.733 Y81.138
G1 X115.261 Y89.627 E72.0829
G1 X115.814 Y89.627
G1 X109.379 Y83.222 E72.3848
G1 X109.932 Y83.222
G1 X116.366 Y89.627 E72.6868
G1 X116.919 Y89.627
G1 X110.485 Y83.222 E72.9888
G1 X111.038 Y83.222
G1 X117.472 Y89.627 E73.2907
G1 X118.025 Y89.627
G1 X111.591 Y83.222 E73.5927
G1 X112.143 Y83.222
G1 X118.578 Y89.627 E73.8947
G1 X119.130 Y89.627
G1 X112.696 Y83.222 E74.1966
G1 X113.249 Y83.222
G1 X119.683 Y89.627 E74.4986
G1 X120.236 Y89.627
G1 X113.802 Y83.222 E74.8005
G1 X114.355 Y83.222
G1 X120.789 Y89.627 E75.1025
G1 X121.342 Y89.627
G1 X114.907 Y83.222 E75.4045
G1 X115.460 Y83.222
G1 X121.894 Y89.627 E75.7064
G1 X122.447 Y89.627
G1 X116.013 Y83.222 E76.0084
G1 X116.566 Y83.222
G1 X123.000 Y89.627 E76.3104
G1 X123.553 Y89.627
G1 X117.118 Y83.222 E76.6123
G1 X117.671 Y83.222
G1 X124.106 Y89.627 E76.9143
G1 X124.658 Y89.627
G1 X118.224 Y83.222 E77.2163
G1 X118.777 Y83.222
G1 X125.211 Y89.627 E77.5182
G1 X125.764 Y89.627
G1 X119.330 Y83.222 E77.8202
G1 X119.882 Y83.222
G1 X126.317 Y89.627 E78.1221
G1 X126.870 Y89.627
G1 X120.435 Y83.222 E78.4241
G1 X120.988 Y83.222
G1 X127.422 Y89.627 E78.7261
G1 X127.975 Y89.627
G1 X121.541 Y83.222 E79.0280
G1 X122.094 Y83.222
G1 X128.528 Y89.627 E79.3300
G1 X129.081 Y89.627
G1 X122.646 Y83.222 E79.6320
G1 X123.199 Y83.222
G1 X129.633 Y89.627 E79.9339
G1 X130.186 Y89.627
G1 X123.752 Y83.222 E80.2359
G1 X124.305 Y83.222
G1 X130.739 Y89.627 E80.5379
G1 X131.292 Y89.627
G1 X124.858 Y83.222 E80.8398
G1 X125.410 Y83.222
G1 X131.845 Y89.627 E81.1418
G1 X132.397 Y89.627
G1 X125.963 Y83.222 E81.4438
G1 X126.516 Y83.222
G1 X132.950 Y89.627 E81.7457
G1 X133.503 Y89.627
G1 X127.069 Y83.222 E82.0477
G1 X127.622 Y83.222
G1 X134.056 Y89.627 E82.3496
G1 X134.609 Y89.627
G1 X128.174 Y83.222 E82.6516
G1 X128.727 Y83.222
G1 X135.161 Y89.627 E82.9536
G1 X135.714 Y89.627
G1 X129.280 Y83.222 E83.2555
G1 X129.833 Y83.222
G1 X136.267 Y89.627 E83.5575
G1 X136.820 Y89.627
G1 X130.386 Y83.222 E83.8595
G1 X130.938 Y83.222
G1 X137.373 Y89.627 E84.1614
G1 X137.925 Y89.627
G1 X131.491 Y83.222 E84.4634
G1 X132.044 Y83.222
G1 X138.478 Y89.627 E84.7654
G1 X139.031 Y89.627
G1 X132.597 Y83.222 E85.0673
G1 X133.150 Y83.222
G1 X139.584 Y89.627 E85.3693
G1 X140.137 Y89.627
G1 X133.702 Y83.222 E85.6712
G1 X134.255 Y83.222
G1 X140.689 Y89.627 E85.9732
G1 X141.242 Y89.627
G1 X134.808 Y83.222 E86.2752
G1 X135.361 Y83.222
G1 X141.795 Y89.627 E86.5771
G1 X142.348 Y89.627
G1 X135.913 Y83.222 E86.8791
G1 X136.466 Y83.222
G1 X142.901 Y89.627 E87.1811
G1 X143.453 Y89.627
G1 X137.019 Y83.222 E87.4830
G1 X137.572 Y83.222
G1 X144.006 Y89.627 E87.7850
G1 X144.559 Y89.627
G1 X138.125 Y83.222 E88.0870
G1 X138.677 Y83.222
G1 X145.112 Y89.627 E88.3889
G1 X145.665 Y89.627
G1 X139.230 Y83.222 E88.6909
G1 X139.783 Y83.222
G1 X146.217 Y89.627 E88.9928
G0 X148.164 Y92.116 F10800
G1 X146.713 Y90.671 E89.0609 F3600
G1 X146.713 Y90.121
G1 X148.499 Y91.899 E89.1447
G1 X148.879 Y91.727
G1 X140.336 Y83.222 E89.5457
G1 X140.889 Y83.222
G1 X149.304 Y91.599 E89.9406
G1 X149.796 Y91.539
G1 X141.441 Y83.222 E90.3327
G1 X141.994 Y83.222
G1 X150.378 Y91.568 E90.7262
G0 X152.494 Y93.124 F10800
G1 X153.109 Y93.737 E90.7551 F3600
G1 X153.109 Y94.287
G1 X152.763 Y93.942 E90.7713
G1 X152.798 Y94.527
G1 X153.083 Y94.811 E90.7847
G1 X152.990 Y95.268
G1 X152.741 Y95.021 E90.7964
G1 X152.613 Y95.444
G1 X152.848 Y95.677 E90.8074
G1 X152.664 Y96.044
G1 X152.441 Y95.822 E90.8178
G1 X152.224 Y96.157
G1 X152.441 Y96.373 E90.8281
G1 X152.184 Y96.667
G1 X151.973 Y96.457 E90.8379
G1 X151.680 Y96.716
G1 X151.894 Y96.929 E90.8480
G1 X151.562 Y97.149
G1 X151.343 Y96.931 E90.8583
G1 X150.970 Y97.110
G1 X151.207 Y97.345 E90.8693
G1 X150.802 Y97.493
G1 X150.545 Y97.237 E90.8814
G0 X151.974 Y95.823 F10800
G0 X152.388 Y94.706
G0 X152.213 Y93.464
G0 X151.201 Y91.836
G1 X142.547 Y83.222 E91.2875 F3600
G1 X143.100 Y83.222
G1 X153.109 Y93.186 E91.7572
G1 X153.109 Y92.636
G1 X143.653 Y83.222 E92.2011
G1 X144.205 Y83.222
G1 X153.109 Y92.086 E92.6189
G1 X153.109 Y91.535
G1 X144.758 Y83.222 E93.0109
G1 X145.311 Y83.222
G1 X153.109 Y90.985 E93.3768
G1 X153.109 Y90.435
G1 X145.864 Y83.222 E93.7169
G1 X146.417 Y83.222
G1 X153.109 Y89.885 E94.0310
G1 X153.109 Y89.334
G1 X146.969 Y83.222 E94.3191
G1 X147.522 Y83.222
G1 X153.109 Y88.784 E94.5814
G1 X153.109 Y88.234
G1 X148.075 Y83.222 E94.8176
G1 X148.628 Y83.222
G1 X153.109 Y87.683 E95.0280
G0 X150.711 Y83.095 F10800
G1 X153.109 Y85.482 E95.1405 F3600
G1 X153.109 Y84.932
G1 X150.711 Y82.545 E95.2531
G1 X150.711 Y81.994
G1 X153.109 Y84.382 E95.3656
G1 X153.109 Y83.831
G1 X150.711 Y81.444 E95.4782
G1 X150.711 Y80.894
G1 X153.109 Y83.281 E95.5907
G1 X153.109 Y82.731
G1 X150.711 Y80.343 E95.7033
G1 X150.711 Y79.793
G1 X153.109 Y82.180 E95.8158
G1 X153.109 Y81.630
G1 X150.711 Y79.243 E95.9284
G1 X150.711 Y78.693
G1 X153.109 Y81.080 E96.0409
G1 X153.109 Y80.530
G1 X150.711 Y78.142 E96.1535
G1 X150.711 Y77.592
G1 X153.109 Y79.979 E96.2660
G1 X153.109 Y79.429
G1 X150.711 Y77.042 E96.3786
G1 X150.711 Y76.491
G1 X153.109 Y78.879 E96.4911
G1 X153.109 Y78.328
G1 X150.711 Y75.941 E96.6036
G1 X150.711 Y75.391
G1 X153.109 Y77.778 E96.7162
G1 X153.109 Y77.228
G1 X150.711 Y74.841 E96.8287
G1 X150.711 Y74.290
G1 X153.109 Y76.678 E96.9413
G1 X153.109 Y76.127
G1 X150.711 Y73.740 E97.0538
G1 X150.711 Y73.190
G1 X153.109 Y75.577 E97.1664
G1 X153.109 Y75.027
G1 X150.711 Y72.639 E97.2789
G1 X150.711 Y72.089
G1 X153.109 Y74.476 E97.3915
G1 X153.109 Y73.926
G1 X150.711 Y71.539 E97.5040
G1 X150.711 Y70.989
G1 X153.109 Y73.376 E97.6166
G1 X153.109 Y72.825
G1 X150.711 Y70.438 E97.7291
G1 X150.711 Y69.888
G1 X153.109 Y72.275 E97.8417
G1 X153.109 Y71.725
G1 X150.711 Y69.338 E97.9542
G1 X150.711 Y68.787
G1 X153.109 Y71.175 E98.0668
G1 X153.109 Y70.624
G1 X150.711 Y68.237 E98.1793
G1 X150.711 Y67.687
G1 X153.109 Y70.074 E98.2919
G1 X153.109 Y69.524
G1 X150.711 Y67.136 E98.4044
G1 X150.711 Y66.586
G1 X153.109 Y68.973 E98.5170
G1 X153.109 Y68.423
G1 X150.902 Y66.226 E98.6206
G1 X151.455 Y66.226
G1 X153.109 Y67.873 E98.6982
G1 X153.109 Y67.323
G1 X152.008 Y66.226 E98.7499
G1 X152.561 Y66.226
G1 X153.109 Y66.772 E98.7756
G0 X112.134 Y82.762 F10800
G0 X109.593 Y82.762
G0 X108.890 Y66.226
G1 X109.131 Y66.466 E98.7869 F3600
G1 X109.131 Y67.016
G1 X108.337 Y66.226 E98.8242
G1 X107.784 Y66.226
G1 X109.131 Y67.566 E98.8874
G1 X109.131 Y68.117
G1 X107.232 Y66.226 E98.9765
G1 X106.733 Y66.280
G1 X109.131 Y68.667 E99.0890
G1 X109.131 Y69.217
G1 X106.733 Y66.830 E99.2016
G1 X106.733 Y67.381
G1 X109.131 Y69.768 E99.3141
G1 X109.131 Y70.318
G1 X106.733 Y67.931 E99.4266
G1 X106.733 Y68.481
G1 X109.131 Y70.868 E99.5392
G1 X109.131 Y71.418
G1 X106.733 Y69.031 E99.6517
G1 X106.733 Y69.582
G1 X109.131 Y71.969 E99.7642
G1 X109.131 Y72.519
G1 X106.733 Y70.132 E99.8768
G1 X106.733 Y70.682
G1 X109.131 Y73.069 E99.9893
G1 X109.131 Y73.620
G1 X106.733 Y71.233 E100.1018
G1 X106.733 Y71.783
G1 X109.131 Y74.170 E100.2144
G1 X109.131 Y74.720
G1 X106.733 Y72.333 E100.3269
G1 X106.733 Y72.883
G1 X109.131 Y75.271 E100.4394
G1 X109.131 Y75.821
G1 X106.733 Y73.434 E100.5520
G1 X106.733 Y73.984
G1 X109.131 Y76.371 E100.6645
G1 X109.131 Y76.921
G1 X106.733 Y74.534 E100.7770
G1 X106.733 Y75.085
G1 X109.131 Y77.472 E100.8896
G1 X109.131 Y78.022
G1 X106.733 Y75.635 E101.0021
G1 X106.733 Y76.185
G1 X109.131 Y78.572 E101.1146
G1 X109.131 Y79.123
G1 X106.733 Y76.736 E101.2272
G1 X106.733 Y77.286
G1 X109.131 Y79.673 E101.3397
G1 X109.131 Y80.223
G1 X106.733 Y77.836 E101.4522
G1 X106.733 Y78.386
G1 X109.131 Y80.773 E101.5648
G1 X109.131 Y81.324
G1 X106.733 Y78.937 E101.6773
G1 X106.733 Y79.487
G1 X109.131 Y81.874 E101.7898
G1 X109.131 Y82.424
G1 X106.733 Y80.037 E101.9024
G1 X106.733 Y80.588
G1 X109.131 Y82.975 E102.0149
G0 X110.631 Y91.622 F10800
G1 X106.733 Y87.741 E102.1978 F3600
G1 X106.733 Y88.292
G1 X109.986 Y91.530 E102.3505
G1 X109.469 Y91.565
G1 X106.733 Y88.842 E102.4789
G1 X106.733 Y89.392
G1 X109.026 Y91.675 E102.5865
G1 X108.634 Y91.835
G1 X106.733 Y89.943 E102.6757
G1 X106.733 Y90.493
G1 X108.289 Y92.042 E102.7487
; ------------------------------------
; Layer #2
; ------------------------------------
G21 ; mm
G90 ; abs
G92 E0 ; reset extr
M106 S255
G0 F4800 E-1.0000
G0 F300 Z0.600
G0 X112.615 Y94.850 F10800
G0 X114.779 Y96.254
G0 X149.392 Y118.719
G0 F4800 E0.0000
;segType:HShell
G1 X142.958 Y125.124 E0.3020 F3600
G1 X143.511 Y125.124
G1 X149.945 Y118.719 E0.6039
;segType:Perimeter
G0 X149.835 Y118.710 F10800
G1 X150.105 Y118.063 E0.6272 F2159
G1 X150.105 Y101.126 E1.1906
G1 X153.703 Y101.126 E1.3102
G1 X153.703 Y128.719 E2.2280
G1 X153.697 Y130.118 E2.2745
G1 X153.667 Y130.427 E2.2849
G1 X153.569 Y130.911 E2.3013
G1 X153.458 Y131.256 E2.3133
G1 X153.353 Y131.509 E2.3224
G1 X153.162 Y131.870 E2.3360
G1 X153.010 Y132.107 E2.3454
G1 X152.778 Y132.403 E2.3579
G1 X152.527 Y132.666 E2.3700
G1 X152.322 Y132.849 E2.3791
G1 X151.994 Y133.091 E2.3927
G1 X151.754 Y133.238 E2.4020
G1 X151.417 Y133.404 E2.4145
G1 X151.076 Y133.533 E2.4266
G1 X150.813 Y133.608 E2.4358
G1 X150.413 Y133.684 E2.4493
G1 X150.132 Y133.712 E2.4587
G1 X149.756 Y133.715 E2.4712
G1 X149.394 Y133.683 E2.4833
G1 X149.124 Y133.637 E2.4924
G1 X148.730 Y133.531 E2.5059
G1 X148.465 Y133.435 E2.5153
G1 X148.125 Y133.275 E2.5278
G1 X147.813 Y133.089 E2.5399
G1 X147.589 Y132.930 E2.5490
G1 X147.281 Y132.664 E2.5626
G1 X147.083 Y132.462 E2.5720
G1 X146.847 Y132.170 E2.5845
G1 X146.645 Y131.867 E2.5966
G1 X146.513 Y131.627 E2.6057
G1 X146.350 Y131.253 E2.6193
G1 X146.260 Y130.986 E2.6286
G1 X146.164 Y130.573 E2.6427
G1 X146.109 Y130.000 E2.6619
G1 X146.107 Y125.722 E2.8042
G1 X113.722 Y125.722 E3.8813
G1 X113.722 Y129.914 E4.0207
G1 X113.698 Y130.345 E4.0351
G1 X113.627 Y130.766 E4.0493
G1 X113.433 Y131.372 E4.0705
G1 X113.248 Y131.758 E4.0847
G1 X112.894 Y132.288 E4.1059
G1 X112.456 Y132.752 E4.1271
G1 X112.122 Y133.019 E4.1413
G1 X111.573 Y133.343 E4.1625
G1 X110.977 Y133.570 E4.1837
G1 X110.561 Y133.666 E4.1980
G1 X109.926 Y133.720 E4.2191
G1 X109.290 Y133.666 E4.2404
G1 X108.874 Y133.571 E4.2546
G1 X108.278 Y133.344 E4.2758
G1 X107.729 Y133.020 E4.2970
G1 X107.394 Y132.754 E4.3112
G1 X106.956 Y132.291 E4.3324
G1 X106.602 Y131.760 E4.3536
G1 X106.416 Y131.375 E4.3679
G1 X106.222 Y130.767 E4.3891
G1 X106.151 Y130.345 E4.4033
G1 X106.126 Y129.914 E4.4177
G1 X106.126 Y101.126 E5.3752
G1 X109.724 Y101.126 E5.4948
G1 X109.724 Y118.122 E6.0601
G1 X150.046 Y118.122 E7.4012
G1 X150.696 Y117.854
;segType:Loop
G0 X150.505 Y117.052 F10800
G1 X150.505 Y101.524 E7.9177 F3600
G1 X153.303 Y101.524 E8.0107
G1 X153.303 Y128.718 E8.9152
G1 X153.297 Y130.098 E8.9611
G1 X153.271 Y130.369 E8.9702
G1 X153.182 Y130.811 E8.9851
G1 X152.990 Y131.340 E9.0039
G1 X152.816 Y131.669 E9.0162
G1 X152.683 Y131.877 E9.0244
G1 X152.474 Y132.142 E9.0357
G1 X152.069 Y132.540 E9.0546
G1 X151.770 Y132.761 E9.0669
G1 X151.560 Y132.889 E9.0751
G1 X151.257 Y133.038 E9.0864
G1 X150.720 Y133.220 E9.1052
G1 X150.355 Y133.290 E9.1176
G1 X150.110 Y133.314 E9.1257
G1 X149.772 Y133.317 E9.1370
G1 X149.210 Y133.248 E9.1558
G1 X148.851 Y133.151 E9.1682
G1 X148.620 Y133.068 E9.1764
G1 X148.314 Y132.923 E9.1876
G1 X147.837 Y132.617 E9.2065
G1 X147.555 Y132.374 E9.2188
G1 X147.383 Y132.198 E9.2270
G1 X147.170 Y131.935 E9.2383
G1 X146.873 Y131.452 E9.2572
G1 X146.724 Y131.110 E9.2696
G1 X146.645 Y130.878 E9.2777
G1 X146.560 Y130.509 E9.2903
G1 X146.509 Y129.981 E9.3080
G1 X146.506 Y125.323 E9.4629
G1 X113.322 Y125.323 E10.5666
G1 X113.322 Y129.903 E10.7189
G1 X113.300 Y130.301 E10.7321
G1 X113.237 Y130.672 E10.7446
G1 X113.061 Y131.225 E10.7640
G1 X112.899 Y131.561 E10.7763
G1 X112.580 Y132.040 E10.7955
G1 X112.184 Y132.459 E10.8147
G1 X111.894 Y132.690 E10.8270
G1 X111.398 Y132.983 E10.8462
G1 X110.860 Y133.189 E10.8653
G1 X110.499 Y133.271 E10.8777
G1 X109.926 Y133.320 E10.8968
G1 X109.352 Y133.272 E10.9159
G1 X108.990 Y133.189 E10.9283
G1 X108.453 Y132.984 E10.9474
G1 X107.957 Y132.692 E10.9666
G1 X107.666 Y132.460 E10.9789
G1 X107.270 Y132.042 E10.9981
G1 X106.950 Y131.563 E11.0172
G1 X106.789 Y131.227 E11.0296
G1 X106.612 Y130.673 E11.0489
G1 X106.549 Y130.301 E11.0615
G1 X106.526 Y129.903 E11.0748
G1 X106.526 Y101.524 E12.0187
G1 X109.324 Y101.524 E12.1117
G1 X109.324 Y118.520 E12.6770
G1 X150.505 Y118.520 E14.0467
G1 X150.505 Y117.246 E14.0890
;segType:HShell
G0 X147.512 Y128.295 F10800
G1 X146.709 Y129.094 E14.1267 F3600
G1 X146.709 Y129.644
G1 X147.093 Y129.262 E14.1447
G1 X147.011 Y129.894
G1 X146.729 Y130.175 E14.1580
G1 X146.799 Y130.655
G1 X147.057 Y130.399 E14.1701
G1 X147.163 Y130.844
G1 X146.936 Y131.070 E14.1807
G1 X147.106 Y131.450
G1 X147.332 Y131.226 E14.1913
G1 X147.532 Y131.576
G1 X147.316 Y131.792 E14.2014
G1 X147.564 Y132.095
G1 X147.782 Y131.878 E14.2116
G1 X148.060 Y132.151
G1 X147.851 Y132.360 E14.2215
G1 X148.169 Y132.593
G1 X148.382 Y132.382 E14.2315
G1 X148.751 Y132.564
G1 X148.516 Y132.798 E14.2425
G1 X148.916 Y132.950
G1 X149.156 Y132.712 E14.2537
G1 X149.630 Y132.790
G1 X149.354 Y133.065 E14.2667
G1 X149.854 Y133.117
G1 X150.174 Y132.799 E14.2817
G1 X150.466 Y133.059
G1 X150.882 Y132.644 E14.3013
;segType:Perimeter
G0 X150.695 Y132.604 F10800
G1 X150.117 Y132.204 E14.3246 F2159
G1 X149.887 Y132.218 E14.3323
G1 X149.420 Y132.165 E14.3479
G1 X149.141 Y132.088 E14.3575
G1 X148.716 Y131.886 E14.3732
G1 X148.478 Y131.722 E14.3828
G1 X148.142 Y131.393 E14.3984
G1 X147.970 Y131.162 E14.4080
G1 X147.759 Y130.742 E14.4237
G1 X147.672 Y130.466 E14.4333
G1 X147.609 Y130.001 E14.4489
G1 X147.615 Y129.712 E14.4585
G1 X147.707 Y129.251 E14.4741
G1 X147.807 Y128.980 E14.4837
G1 X148.043 Y128.574 E14.4994
G1 X148.225 Y128.350 E14.5090
G1 X148.581 Y128.043 E14.5246
G1 X148.826 Y127.890 E14.5342
G1 X149.262 Y127.715 E14.5499
G1 X149.544 Y127.650 E14.5595
G1 X150.014 Y127.625 E14.5751
G1 X150.301 Y127.656 E14.5847
G1 X150.753 Y127.785 E14.6004
G1 X151.015 Y127.907 E14.6100
G1 X151.401 Y128.177 E14.6256
G1 X151.608 Y128.377 E14.6352
G1 X151.886 Y128.757 E14.6509
G1 X152.017 Y129.013 E14.6604
G1 X152.156 Y129.463 E14.6761
G1 X152.197 Y129.748 E14.6857
G1 X152.183 Y130.217 E14.7013
G1 X152.129 Y130.501 E14.7109
G1 X151.962 Y130.941 E14.7265
G1 X151.820 Y131.192 E14.7361
G1 X151.520 Y131.553 E14.7518
G1 X151.303 Y131.745 E14.7614
G1 X150.902 Y131.989 E14.7770
G1 X150.635 Y132.100 E14.7866
G1 X150.232 Y132.188 E14.8003
G1 X149.787 Y132.730
G0 F4800 E13.8003
G0 X149.008 Y132.464 F10800
G0 F4800 E14.8003
;segType:Loop
G1 X149.000 Y132.462 E14.8006 F3600
G1 X148.516 Y132.231 E14.8184
G1 X148.222 Y132.030 E14.8303
G1 X147.839 Y131.655 E14.8481
G1 X147.628 Y131.371 E14.8599
G1 X147.388 Y130.892 E14.8777
G1 X147.280 Y130.554 E14.8895
G1 X147.208 Y130.023 E14.9073
G1 X147.216 Y129.669 E14.9191
G1 X147.320 Y129.143 E14.9369
G1 X147.443 Y128.811 E14.9487
G1 X147.712 Y128.347 E14.9665
G1 X147.937 Y128.072 E14.9783
G1 X148.342 Y127.722 E14.9962
G1 X148.643 Y127.534 E15.0080
G1 X149.142 Y127.334 E15.0258
G1 X149.488 Y127.254 E15.0377
G1 X150.025 Y127.226 E15.0555
G1 X150.378 Y127.264 E15.0674
G1 X150.894 Y127.411 E15.0852
G1 X151.216 Y127.561 E15.0970
G1 X151.656 Y127.869 E15.1149
G1 X151.912 Y128.115 E15.1267
G1 X152.228 Y128.548 E15.1445
G1 X152.390 Y128.863 E15.1563
G1 X152.548 Y129.375 E15.1741
G1 X152.598 Y129.726 E15.1859
G1 X152.581 Y130.261 E15.2037
G1 X152.516 Y130.609 E15.2155
G1 X152.326 Y131.111 E15.2333
G1 X152.150 Y131.419 E15.2451
G1 X151.808 Y131.831 E15.2629
G1 X151.542 Y132.066 E15.2747
G1 X151.084 Y132.345 E15.2926
G1 X150.755 Y132.481 E15.3044
G1 X150.231 Y132.596 E15.3223
G1 X149.876 Y132.618 E15.3341
G1 X149.343 Y132.557 E15.3520
G1 X149.196 Y132.516 E15.3570
G0 X146.245 Y125.584 F10800
G0 X113.584 Y125.584
G0 X112.535 Y131.747
;segType:HShell
G1 X111.712 Y132.566 E15.3956 F3600
G1 X111.215 Y132.510
G1 X110.703 Y133.020 E15.4197
;segType:Loop
G0 X109.028 Y132.464 F10800
G1 X109.020 Y132.462 E15.4199 F3600
G1 X108.535 Y132.231 E15.4378
G1 X108.242 Y132.030 E15.4496
G1 X107.859 Y131.655 E15.4675
G1 X107.647 Y131.370 E15.4793
G1 X107.407 Y130.891 E15.4971
G1 X107.299 Y130.554 E15.5089
G1 X107.228 Y130.023 E15.5267
G1 X107.236 Y129.669 E15.5385
G1 X107.340 Y129.143 E15.5563
G1 X107.463 Y128.811 E15.5681
G1 X107.732 Y128.347 E15.5859
G1 X107.956 Y128.072 E15.5977
G1 X108.362 Y127.722 E15.6155
G1 X108.663 Y127.534 E15.6273
G1 X109.161 Y127.334 E15.6452
G1 X109.508 Y127.254 E15.6570
G1 X110.044 Y127.226 E15.6749
G1 X110.397 Y127.264 E15.6867
G1 X110.914 Y127.411 E15.7046
G1 X111.236 Y127.561 E15.7164
G1 X111.675 Y127.869 E15.7342
G1 X111.931 Y128.115 E15.7460
G1 X112.247 Y128.548 E15.7639
G1 X112.409 Y128.863 E15.7757
G1 X112.567 Y129.375 E15.7935
G1 X112.618 Y129.726 E15.8053
G1 X112.601 Y130.261 E15.8231
G1 X112.535 Y130.609 E15.8349
G1 X112.346 Y131.111 E15.8527
G1 X112.170 Y131.419 E15.8645
G1 X111.827 Y131.831 E15.8823
G1 X111.561 Y132.066 E15.8941
G1 X111.103 Y132.345 E15.9119
G1 X110.775 Y132.481 E15.9238
G1 X110.250 Y132.596 E15.9416
G1 X109.896 Y132.618 E15.9535
G1 X109.362 Y132.557 E15.9713
G1 X109.216 Y132.516 E15.9764
;segType:Perimeter
G0 X110.714 Y132.604 F10800
G1 X110.136 Y132.204 E15.9997 F2159
G1 X109.906 Y132.218 E16.0074
G1 X109.439 Y132.165 E16.0230
G1 X109.161 Y132.088 E16.0326
G1 X108.736 Y131.886 E16.0483
G1 X108.498 Y131.722 E16.0579
G1 X108.162 Y131.394 E16.0735
G1 X107.990 Y131.162 E16.0831
G1 X107.779 Y130.741 E16.0988
G1 X107.691 Y130.466 E16.1084
G1 X107.628 Y130.001 E16.1240
G1 X107.635 Y129.712 E16.1336
G1 X107.726 Y129.251 E16.1492
G1 X107.826 Y128.980 E16.1588
G1 X108.062 Y128.574 E16.1745
G1 X108.245 Y128.350 E16.1841
G1 X108.601 Y128.043 E16.1997
G1 X108.846 Y127.890 E16.2093
G1 X109.282 Y127.715 E16.2249
G1 X109.564 Y127.650 E16.2346
G1 X110.033 Y127.625 E16.2502
G1 X110.320 Y127.656 E16.2598
G1 X110.773 Y127.785 E16.2755
G1 X111.035 Y127.907 E16.2851
G1 X111.420 Y128.177 E16.3007
G1 X111.628 Y128.377 E16.3103
G1 X111.905 Y128.757 E16.3259
G1 X112.037 Y129.013 E16.3355
G1 X112.176 Y129.462 E16.3512
G1 X112.217 Y129.748 E16.3608
G1 X112.202 Y130.218 E16.3764
G1 X112.148 Y130.501 E16.3860
G1 X111.982 Y130.941 E16.4016
G1 X111.839 Y131.192 E16.4112
G1 X111.539 Y131.553 E16.4269
G1 X111.322 Y131.745 E16.4365
G1 X110.921 Y131.989 E16.4521
G1 X110.654 Y132.100 E16.4617
G1 X110.252 Y132.188 E16.4754
G1 X109.807 Y132.730
G0 F4800 E15.4754
G0 X110.406 Y132.766 F10800
G0 F4800 E16.4754
;segType:HShell
G1 X110.062 Y133.109 E16.4916 F3600
G1 X109.530 Y133.087
G1 X109.810 Y132.808 E16.5047
G1 X109.316 Y132.751
G1 X109.063 Y133.002 E16.5165
G1 X108.662 Y132.851
G1 X108.892 Y132.622 E16.5273
G1 X108.518 Y132.444
G1 X108.299 Y132.662 E16.5376
G1 X107.966 Y132.444
G1 X108.180 Y132.230 E16.5477
G1 X107.892 Y131.967
G1 X107.677 Y132.181 E16.5578
G1 X107.412 Y131.894
G1 X107.628 Y131.679 E16.5679
G1 X107.411 Y131.345
G1 X107.191 Y131.564 E16.5782
G1 X106.999 Y131.204
G1 X107.227 Y130.978 E16.5889
G1 X107.098 Y130.556
G1 X106.860 Y130.793 E16.6001
G1 X106.759 Y130.343
G1 X107.032 Y130.071 E16.6129
G1 X107.068 Y129.485
G1 X106.726 Y129.825 E16.6290
G1 X106.726 Y129.275
G1 X107.285 Y128.718 E16.6552
G0 X108.710 Y127.300 F10800
G1 X117.330 Y118.719 E17.0598 F3600
G1 X116.777 Y118.719
G1 X106.726 Y128.725 E17.5315
G1 X106.726 Y128.174
G1 X116.224 Y118.719 E17.9772
G1 X115.672 Y118.719
G1 X106.726 Y127.624 E18.3971
G1 X106.726 Y127.074
G1 X115.119 Y118.719 E18.7909
G1 X114.566 Y118.719
G1 X106.726 Y126.524 E19.1589
G1 X106.726 Y125.973
G1 X114.013 Y118.719 E19.5008
G1 X113.460 Y118.719
G1 X106.726 Y125.423 E19.8169
G1 X106.726 Y124.873
G1 X112.908 Y118.719 E20.1070
G1 X112.355 Y118.719
G1 X106.726 Y124.322 E20.3712
G1 X106.726 Y123.772
G1 X111.802 Y118.719 E20.6094
G1 X111.249 Y118.719
G1 X106.726 Y123.222 E20.8216
G1 X106.726 Y122.672
G1 X110.696 Y118.719 E21.0080
G1 X110.144 Y118.719
G1 X106.726 Y122.121 E21.1684
G1 X106.726 Y121.571
G1 X109.591 Y118.719 E21.3028
G1 X109.124 Y118.633
G1 X106.726 Y121.021 E21.4154
G1 X106.726 Y120.470
G1 X109.124 Y118.083 E21.5279
G1 X109.124 Y117.533
G1 X106.726 Y119.920 E21.6404
G1 X106.726 Y119.370
G1 X109.124 Y116.982 E21.7530
G1 X109.124 Y116.432
G1 X106.726 Y118.819 E21.8655
G1 X106.726 Y118.269
G1 X109.124 Y115.882 E21.9781
G1 X109.124 Y115.332
G1 X106.726 Y117.719 E22.0906
G1 X106.726 Y117.169
G1 X109.124 Y114.781 E22.2032
G1 X109.124 Y114.231
G1 X106.726 Y116.618 E22.3157
G1 X106.726 Y116.068
G1 X109.124 Y113.681 E22.4283
G1 X109.124 Y113.130
G1 X106.726 Y115.518 E22.5408
G1 X106.726 Y114.967
G1 X109.124 Y112.580 E22.6534
G1 X109.124 Y112.030
G1 X106.726 Y114.417 E22.7659
G1 X106.726 Y113.867
G1 X109.124 Y111.480 E22.8784
G1 X109.124 Y110.929
G1 X106.726 Y113.317 E22.9910
G1 X106.726 Y112.766
G1 X109.124 Y110.379 E23.1035
G1 X109.124 Y109.829
G1 X106.726 Y112.216 E23.2161
G1 X106.726 Y111.666
G1 X109.124 Y109.278 E23.3286
G1 X109.124 Y108.728
G1 X106.726 Y111.115 E23.4412
G1 X106.726 Y110.565
G1 X109.124 Y108.178 E23.5537
G1 X109.124 Y107.627
G1 X106.726 Y110.015 E23.6663
G1 X106.726 Y109.464
G1 X109.124 Y107.077 E23.7788
G1 X109.124 Y106.527
G1 X106.726 Y108.914 E23.8913
G1 X106.726 Y108.364
G1 X109.124 Y105.977 E24.0039
G1 X109.124 Y105.426
G1 X106.726 Y107.814 E24.1164
G1 X106.726 Y107.263
G1 X109.124 Y104.876 E24.2290
G1 X109.124 Y104.326
G1 X106.726 Y106.713 E24.3415
G1 X106.726 Y106.163
G1 X109.124 Y103.775 E24.4541
G1 X109.124 Y103.225
G1 X106.726 Y105.612 E24.5666
G1 X106.726 Y105.062
G1 X109.124 Y102.675 E24.6792
G1 X109.124 Y102.125
G1 X106.726 Y104.512 E24.7917
G1 X106.726 Y103.962
G1 X108.974 Y101.723 E24.8972
G1 X108.422 Y101.723
G1 X106.726 Y103.411 E24.9768
G1 X106.726 Y102.861
G1 X107.869 Y101.723 E25.0304
G1 X107.316 Y101.723
G1 X106.726 Y102.311 E25.0581
G0 X109.586 Y118.259 F10800
G0 X150.243 Y118.259
G0 X150.987 Y101.723
G1 X150.705 Y102.004 E25.0713 F3600
G1 X150.705 Y102.555
G1 X151.540 Y101.723 E25.1105
G1 X152.092 Y101.723
G1 X150.705 Y103.105 E25.1756
G1 X150.705 Y103.655
G1 X152.645 Y101.723 E25.2667
G1 X153.103 Y101.818
G1 X150.705 Y104.205 E25.3792
G1 X150.705 Y104.756
G1 X153.103 Y102.369 E25.4918
G1 X153.103 Y102.919
G1 X150.705 Y105.306 E25.6043
G1 X150.705 Y105.856
G1 X153.103 Y103.469 E25.7168
G1 X153.103 Y104.020
G1 X150.705 Y106.407 E25.8294
G1 X150.705 Y106.957
G1 X153.103 Y104.570 E25.9419
G1 X153.103 Y105.120
G1 X150.705 Y107.507 E26.0544
G1 X150.705 Y108.057
G1 X153.103 Y105.670 E26.1670
G1 X153.103 Y106.221
G1 X150.705 Y108.608 E26.2795
G1 X150.705 Y109.158
G1 X153.103 Y106.771 E26.3920
G1 X153.103 Y107.321
G1 X150.705 Y109.708 E26.5046
G1 X150.705 Y110.259
G1 X153.103 Y107.872 E26.6171
G1 X153.103 Y108.422
G1 X150.705 Y110.809 E26.7296
G1 X150.705 Y111.359
G1 X153.103 Y108.972 E26.8422
G1 X153.103 Y109.522
G1 X150.705 Y111.909 E26.9547
G1 X150.705 Y112.460
G1 X153.103 Y110.073 E27.0672
G1 X153.103 Y110.623
G1 X150.705 Y113.010 E27.1798
G1 X150.705 Y113.560
G1 X153.103 Y111.173 E27.2923
G1 X153.103 Y111.724
G1 X150.705 Y114.111 E27.4048
G1 X150.705 Y114.661
G1 X153.103 Y112.274 E27.5174
G1 X153.103 Y112.824
G1 X150.705 Y115.211 E27.6299
G1 X150.705 Y115.762
G1 X153.103 Y113.375 E27.7424
G1 X153.103 Y113.925
G1 X150.705 Y116.312 E27.8550
G1 X150.705 Y116.862
G1 X153.103 Y114.475 E27.9675
G1 X153.103 Y115.025
G1 X150.705 Y117.412 E28.0800
G1 X150.705 Y117.963
G1 X153.103 Y115.576 E28.1926
G1 X153.103 Y116.126
G1 X150.705 Y118.513 E28.3051
G1 X150.498 Y118.719
G1 X144.063 Y125.124 E28.6071
G1 X144.616 Y125.124
G1 X153.103 Y116.676 E29.0053
G1 X153.103 Y117.227
G1 X145.169 Y125.124 E29.3777
G1 X145.722 Y125.124
G1 X153.103 Y117.777 E29.7241
G1 X153.103 Y118.327
G1 X146.275 Y125.124 E30.0445
G1 X146.706 Y125.245
G1 X153.103 Y118.877 E30.3447
G1 X153.103 Y119.428
G1 X146.706 Y125.795 E30.6449
G1 X146.707 Y126.345
G1 X153.103 Y119.978 E30.9450
G1 X153.103 Y120.528
G1 X146.707 Y126.895 E31.2452
G1 X146.708 Y127.445
G1 X153.103 Y121.079 E31.5453
G1 X153.103 Y121.629
G1 X146.708 Y127.995 E31.8454
G1 X146.708 Y128.545
G1 X153.103 Y122.179 E32.1455
G1 X153.103 Y122.729
G1 X148.292 Y127.518 E32.3712
G0 X149.264 Y127.101 F10800
G1 X153.103 Y123.280 E32.5514 F3600
G1 X153.103 Y123.830
G1 X149.884 Y127.034 E32.7024
G1 X150.405 Y127.066
G1 X153.103 Y124.380 E32.8290
G1 X153.103 Y124.931
G1 X150.836 Y127.187 E32.9354
G1 X151.228 Y127.347
G1 X153.103 Y125.481 E33.0234
G1 X153.103 Y126.031
G1 X151.565 Y127.562 E33.0956
G1 X151.876 Y127.803
G1 X153.103 Y126.582 E33.1531
G1 X153.103 Y127.132
G1 X152.140 Y128.090 E33.1983
G1 X152.373 Y128.408
G1 X153.103 Y127.682 E33.2325
G1 X153.103 Y128.232
G1 X152.565 Y128.767 E33.2578
G1 X152.698 Y129.185
G1 X153.102 Y128.783 E33.2767
G1 X153.100 Y129.336
G1 X152.788 Y129.646 E33.2913
G1 X152.783 Y130.201
G1 X153.098 Y129.888 E33.3061
G1 X153.041 Y130.494
G1 X152.610 Y130.924 E33.3263
G0 X151.266 Y132.812 F10800
G1 X152.782 Y131.303 E33.3975 F3600
G0 X151.993 Y128.786 F10800
G0 X151.205 Y126.270
G0 X148.839 Y118.719
G1 X142.405 Y125.124 E33.6994 F3600
G1 X141.852 Y125.124
G1 X148.286 Y118.719 E34.0014
G1 X147.734 Y118.719
G1 X141.299 Y125.124 E34.3034
G1 X140.747 Y125.124
G1 X147.181 Y118.719 E34.6053
G1 X146.628 Y118.719
G1 X140.194 Y125.124 E34.9073
G1 X139.641 Y125.124
G1 X146.075 Y118.719 E35.2092
G1 X145.523 Y118.719
G1 X139.088 Y125.124 E35.5112
G1 X138.535 Y125.124
G1 X144.970 Y118.719 E35.8132
G1 X144.417 Y118.719
G1 X137.983 Y125.124 E36.1151
G1 X137.430 Y125.124
G1 X143.864 Y118.719 E36.4171
G1 X143.311 Y118.719
G1 X136.877 Y125.124 E36.7191
G1 X136.324 Y125.124
G1 X142.759 Y118.719 E37.0210
G1 X142.206 Y118.719
G1 X135.772 Y125.124 E37.3230
G1 X135.219 Y125.124
G1 X141.653 Y118.719 E37.6250
G1 X141.100 Y118.719
G1 X134.666 Y125.124 E37.9269
G1 X134.113 Y125.124
G1 X140.547 Y118.719 E38.2289
G1 X139.995 Y118.719
G1 X133.560 Y125.124 E38.5308
G1 X133.008 Y125.124
G1 X139.442 Y118.719 E38.8328
G1 X138.889 Y118.719
G1 X132.455 Y125.124 E39.1348
G1 X131.902 Y125.124
G1 X138.336 Y118.719 E39.4367
G1 X137.783 Y118.719
G1 X131.349 Y125.124 E39.7387
G1 X130.796 Y125.124
G1 X137.231 Y118.719 E40.0407
G1 X136.678 Y118.719
