; GCode generated by CraftWare

G28 X0 Y0
G28 Z0

M190 S70 ;set bed temp (wait)
M109 S220 ;set head temp (wait)
; ------------------------------------
; Layer #0
; ------------------------------------
G21 ; mm
G90 ; abs
G92 E0 ; reset extr
M106 S0
;segType:Skirt
G0 F4800 E-1.0000
G0 F300 Z0.200
G0 X104.870 Y114.747 F10800
G0 F4800 E0.0000
G1 X104.806 Y114.416 E0.0112 F600
G1 X104.806 Y101.204 E0.4506
G1 X104.744 Y100.742 E0.4661
G1 X104.491 Y100.478 E0.4783
G1 X104.428 Y100.279 E0.4852
G1 X107.206 Y97.373 E0.6190
G1 X107.585 Y96.712 E0.6443
G1 X107.711 Y96.316 E0.6581
G1 X107.838 Y96.184 E0.6642
G1 X107.964 Y95.259 E0.6953
G1 X107.964 Y93.938 E0.7392
G1 X108.406 Y93.871 E0.7541
G1 X150.338 Y93.871 E2.1487
G1 X150.401 Y94.334 E2.1643
G1 X150.401 Y95.655 E2.2082
G1 X150.528 Y95.787 E2.2143
G1 X150.528 Y96.052 E2.2231
G1 X150.654 Y96.184 E2.2292
G1 X150.654 Y96.448 E2.2379
G1 X151.033 Y97.108 E2.2633
G1 X151.285 Y97.373 E2.2754
G1 X151.475 Y97.703 E2.2881
G1 X154.253 Y100.609 E2.4218
G1 X154.569 Y100.808 E2.4342
G1 X154.822 Y101.072 E2.4464
G1 X155.011 Y101.138 E2.4531
G1 X155.074 Y101.601 E2.4686
G1 X155.074 Y114.284 E2.8905
G1 X155.011 Y114.747 E2.9060
G1 X104.870 Y114.747 E4.5737
G0 F4800 E3.5737
G0 X93.250 Y100.610 F10800
G0 F4800 E4.5737
G1 X93.187 Y101.072 E4.5892 F600
G1 X93.187 Y132.253 E5.6263
G1 X93.250 Y132.715 E5.6418
G1 X93.377 Y133.111 E5.6556
G1 X93.566 Y133.442 E5.6683
G1 X93.693 Y133.838 E5.6821
G1 X93.945 Y134.102 E5.6943
G1 X94.134 Y134.432 E5.7069
G1 X97.418 Y137.868 E5.8650
G1 X98.050 Y138.264 E5.8898
G1 X98.807 Y138.528 E5.9165
G1 X99.060 Y138.660 E5.9260
G1 X102.849 Y138.660 E6.0520
G1 X102.975 Y138.528 E6.0581
G1 X103.228 Y138.528 E6.0665
G1 X103.354 Y138.396 E6.0726
G1 X103.607 Y138.396 E6.0810
G1 X104.554 Y137.802 E6.1181
G1 X107.838 Y134.367 E6.2762
G1 X108.595 Y133.045 E6.3269
G1 X108.722 Y132.121 E6.3579
G1 X108.722 Y130.799 E6.4019
G1 X109.164 Y130.733 E6.4167
G1 X151.096 Y130.733 E7.8114
G1 X151.159 Y131.196 E7.8269
G1 X151.159 Y132.253 E7.8621
G1 X151.222 Y132.715 E7.8776
G1 X151.348 Y133.111 E7.8914
G1 X151.538 Y133.442 E7.9041
G1 X151.664 Y133.838 E7.9179
G1 X151.917 Y134.102 E7.9301
G1 X152.106 Y134.432 E7.9427
G1 X155.390 Y137.868 E8.1008
G1 X155.663 Y138.039 E8.1115
G0 F4800 E7.1115
G0 X162.440 Y133.364 F10800
G0 X163.343 Y130.815
G0 X163.180 Y101.484
G0 X157.387 Y99.321
G0 X157.503 Y96.609
G0 X155.651 Y95.053
G0 X155.506 Y92.938
G0 X158.312 Y82.647
G0 F4800 E8.1115
;segType:HShell
G1 X152.267 Y88.971 E8.4025 F600
G1 X151.730 Y88.971
G1 X157.776 Y82.647 E8.6935
;segType:Perimeter
G0 X158.179 Y82.619 F10800
G1 X158.441 Y81.960 E8.7171 F359
G1 X158.441 Y65.023 E9.2804
G1 X162.039 Y65.023 E9.4001
G1 X162.039 Y93.800 E10.3572
G1 X162.006 Y94.300 E10.3738
G1 X161.909 Y94.786 E10.3903
G1 X161.750 Y95.254 E10.4068
G1 X161.544 Y95.676 E10.4224
G1 X161.275 Y96.083 E10.4386
G1 X160.996 Y96.412 E10.4530
G1 X160.750 Y96.651 E10.4644
G1 X160.353 Y96.956 E10.4810
G1 X159.947 Y97.191 E10.4966
G1 X159.507 Y97.378 E10.5125
G1 X159.228 Y97.466 E10.5223
G1 X158.737 Y97.563 E10.5389
G1 X158.266 Y97.595 E10.5546
G1 X157.777 Y97.567 E10.5709
G1 X157.351 Y97.489 E10.5853
G1 X157.020 Y97.395 E10.5967
G1 X156.557 Y97.203 E10.6134
G1 X156.150 Y96.969 E10.6290
G1 X155.769 Y96.682 E10.6449
G1 X155.554 Y96.485 E10.6546
G1 X155.225 Y96.110 E10.6712
G1 X154.963 Y95.719 E10.6868
G1 X154.745 Y95.284 E10.7030
G1 X154.600 Y94.878 E10.7173
G1 X154.516 Y94.547 E10.7287
G1 X154.451 Y94.049 E10.7454
G1 X154.444 Y93.829 E10.7527
G1 X154.443 Y89.598 E10.8934
G1 X104.067 Y89.598 E12.5689
G1 X104.067 Y93.800 E12.7087
G1 X104.034 Y94.300 E12.7254
G1 X103.938 Y94.786 E12.7418
G1 X103.778 Y95.254 E12.7583
G1 X103.572 Y95.676 E12.7739
G1 X103.303 Y96.083 E12.7901
G1 X103.024 Y96.412 E12.8045
G1 X102.778 Y96.651 E12.8159
G1 X102.381 Y96.956 E12.8325
G1 X101.975 Y97.191 E12.8481
G1 X101.536 Y97.378 E12.8640
G1 X101.256 Y97.466 E12.8738
G1 X100.766 Y97.563 E12.8904
G1 X100.294 Y97.595 E12.9061
G1 X99.805 Y97.567 E12.9224
G1 X99.379 Y97.489 E12.9368
G1 X99.048 Y97.395 E12.9482
G1 X98.585 Y97.203 E12.9649
G1 X98.178 Y96.969 E12.9805
G1 X97.798 Y96.682 E12.9964
G1 X97.582 Y96.485 E13.0061
G1 X97.254 Y96.110 E13.0227
G1 X96.992 Y95.719 E13.0383
G1 X96.773 Y95.284 E13.0545
G1 X96.628 Y94.878 E13.0688
G1 X96.545 Y94.547 E13.0802
G1 X96.479 Y94.052 E13.0968
G1 X96.471 Y93.405 E13.1183
G1 X96.471 Y65.023 E14.0623
G1 X100.069 Y65.023 E14.1820
G1 X100.069 Y82.019 E14.7473
G1 X158.384 Y82.019 E16.6868
G1 X159.015 Y81.746
;segType:Loop
G0 X158.841 Y80.928 F10800
G1 X158.841 Y65.442 E17.2019 F600
G1 X161.639 Y65.442 E17.2950
G1 X161.639 Y93.785 E18.2377
G1 X161.608 Y94.243 E18.2529
G1 X161.523 Y94.672 E18.2675
G1 X161.382 Y95.088 E18.2821
G1 X161.199 Y95.461 E18.2959
G1 X160.960 Y95.824 E18.3104
G1 X160.710 Y96.119 E18.3232
G1 X160.494 Y96.328 E18.3332
G1 X160.137 Y96.603 E18.3482
G1 X159.774 Y96.813 E18.3622
G1 X159.374 Y96.983 E18.3766
G1 X159.133 Y97.059 E18.3850
G1 X158.687 Y97.147 E18.4001
G1 X158.264 Y97.176 E18.4142
G1 X157.823 Y97.150 E18.4289
G1 X157.438 Y97.080 E18.4419
G1 X157.146 Y96.997 E18.4520
G1 X156.728 Y96.824 E18.4671
G1 X156.364 Y96.615 E18.4811
G1 X156.018 Y96.354 E18.4954
G1 X155.834 Y96.185 E18.5038
G1 X155.538 Y95.847 E18.5187
G1 X155.306 Y95.501 E18.5326
G1 X155.111 Y95.112 E18.5470
G1 X154.982 Y94.751 E18.5598
G1 X154.909 Y94.465 E18.5696
G1 X154.850 Y94.013 E18.5848
G1 X154.844 Y93.822 E18.5911
G1 X154.843 Y89.180 E18.7455
G1 X103.667 Y89.180 E20.4476
G1 X103.667 Y93.785 E20.6008
G1 X103.637 Y94.243 E20.6161
G1 X103.552 Y94.672 E20.6306
G1 X103.410 Y95.088 E20.6452
G1 X103.227 Y95.461 E20.6590
G1 X102.988 Y95.825 E20.6735
G1 X102.738 Y96.119 E20.6864
G1 X102.523 Y96.328 E20.6963
G1 X102.165 Y96.603 E20.7113
G1 X101.802 Y96.813 E20.7253
G1 X101.402 Y96.983 E20.7397
G1 X101.161 Y97.059 E20.7482
G1 X100.715 Y97.147 E20.7633
G1 X100.293 Y97.176 E20.7774
G1 X99.851 Y97.150 E20.7921
G1 X99.466 Y97.080 E20.8051
G1 X99.174 Y96.997 E20.8152
G1 X98.756 Y96.824 E20.8302
G1 X98.392 Y96.615 E20.8442
G1 X98.047 Y96.354 E20.8586
G1 X97.862 Y96.185 E20.8669
G1 X97.566 Y95.847 E20.8819
G1 X97.334 Y95.501 E20.8957
G1 X97.139 Y95.112 E20.9102
G1 X97.010 Y94.751 E20.9229
G1 X96.938 Y94.465 E20.9328
G1 X96.879 Y94.020 E20.9477
G1 X96.871 Y93.402 E20.9682
G1 X96.871 Y65.442 E21.8982
G1 X99.669 Y65.442 E21.9912
G1 X99.669 Y82.438 E22.5565
G1 X158.841 Y82.438 E24.5246
G1 X158.841 Y81.126 E24.5682
;segType:HShell
G0 X161.438 Y88.915 F10800
G1 X159.350 Y91.100 E24.6687 F600
G1 X159.712 Y91.283
G1 X161.438 Y89.476 E24.7519
G1 X161.438 Y90.037
G1 X160.027 Y91.513 E24.8198
G1 X160.322 Y91.766
G1 X161.438 Y90.598 E24.8735
G1 X161.438 Y91.159
G1 X160.574 Y92.064 E24.9151
G1 X160.776 Y92.413
G1 X161.438 Y91.720 E24.9470
G1 X161.438 Y92.282
G1 X160.952 Y92.790 E24.9704
;segType:Perimeter
G0 X160.790 Y92.644 F10800
G1 X160.471 Y93.275 E24.9939 F359
G1 X160.537 Y93.718 E25.0088
G1 X160.524 Y94.066 E25.0204
G1 X160.413 Y94.560 E25.0373
G1 X160.275 Y94.879 E25.0488
G1 X159.994 Y95.298 E25.0656
G1 X159.752 Y95.545 E25.0771
G1 X159.340 Y95.833 E25.0938
G1 X159.026 Y95.975 E25.1053
G1 X158.539 Y96.095 E25.1220
G1 X158.196 Y96.114 E25.1334
G1 X157.699 Y96.049 E25.1500
G1 X157.372 Y95.943 E25.1615
G1 X156.931 Y95.702 E25.1782
G1 X156.663 Y95.485 E25.1897
G1 X156.337 Y95.099 E25.2065
G1 X156.166 Y94.798 E25.2180
G1 X156.001 Y94.320 E25.2348
G1 X155.949 Y93.975 E25.2464
G1 X155.968 Y93.469 E25.2633
G1 X156.044 Y93.129 E25.2748
G1 X156.244 Y92.665 E25.2916
G1 X156.437 Y92.377 E25.3032
G1 X156.790 Y92.017 E25.3199
G1 X157.073 Y91.820 E25.3314
G1 X157.530 Y91.613 E25.3481
G1 X157.864 Y91.531 E25.3595
G1 X158.364 Y91.503 E25.3762
G1 X158.705 Y91.547 E25.3876
G1 X159.182 Y91.702 E25.4043
G1 X159.485 Y91.867 E25.4158
G1 X159.875 Y92.185 E25.4325
G1 X160.099 Y92.449 E25.4440
G1 X160.348 Y92.888 E25.4608
G1 X160.443 Y93.161 E25.4704
G1 X161.013 Y93.553
;segType:Loop
G0 X160.862 Y94.391 F10800
G1 X160.793 Y94.695 E25.4808 F600
G1 X160.625 Y95.087 E25.4950
G1 X160.300 Y95.570 E25.5143
G1 X160.005 Y95.872 E25.5284
G1 X159.532 Y96.202 E25.5476
G1 X159.153 Y96.374 E25.5614
G1 X158.596 Y96.511 E25.5805
G1 X158.182 Y96.534 E25.5943
G1 X157.615 Y96.460 E25.6133
G1 X157.219 Y96.331 E25.6271
G1 X156.714 Y96.056 E25.6463
G1 X156.388 Y95.791 E25.6602
G1 X156.013 Y95.347 E25.6796
G1 X155.803 Y94.978 E25.6937
G1 X155.611 Y94.424 E25.7132
G1 X155.548 Y94.000 E25.7274
G1 X155.570 Y93.412 E25.7470
G1 X155.664 Y92.994 E25.7613
G1 X155.895 Y92.457 E25.7807
G1 X156.131 Y92.104 E25.7948
G1 X156.537 Y91.691 E25.8141
G1 X156.881 Y91.451 E25.8280
G1 X157.404 Y91.214 E25.8471
G1 X157.807 Y91.115 E25.8609
G1 X158.378 Y91.083 E25.8800
G1 X158.790 Y91.136 E25.8938
G1 X159.335 Y91.314 E25.9129
G1 X159.702 Y91.513 E25.9267
G1 X160.150 Y91.879 E25.9460
G1 X160.423 Y92.201 E25.9600
G1 X160.711 Y92.708 E25.9794
G1 X160.851 Y93.112 E25.9936
G1 X160.938 Y93.693 E26.0132
G1 X160.922 Y94.122 E26.0275
G1 X160.905 Y94.198 E26.0300
G0 X158.566 Y96.291 F10800
G0 X157.300 Y96.127
G0 X156.533 Y95.629
G0 X155.994 Y94.883
G0 X154.577 Y89.458
G0 X106.819 Y82.647
;segType:HShell
G1 X97.071 Y92.844 E26.4992 F600
G1 X97.494 Y92.963
G1 X97.071 Y93.405 E26.5196
G1 X97.078 Y93.959
G1 X97.390 Y93.633 E26.5345
G1 X97.401 Y94.182
G1 X97.142 Y94.454 E26.5470
G1 X97.270 Y94.881
G1 X97.501 Y94.639 E26.5582
;segType:Perimeter
G0 X97.551 Y94.472 F10800
G1 X97.980 Y93.916 E26.5815 F359
G1 X97.996 Y93.469 E26.5964
G1 X98.073 Y93.129 E26.6080
G1 X98.273 Y92.665 E26.6248
G1 X98.466 Y92.377 E26.6363
G1 X98.819 Y92.017 E26.6531
G1 X99.101 Y91.820 E26.6645
G1 X99.559 Y91.613 E26.6812
G1 X99.892 Y91.531 E26.6927
G1 X100.393 Y91.503 E26.7094
G1 X100.733 Y91.547 E26.7208
G1 X101.211 Y91.702 E26.7375
G1 X101.513 Y91.867 E26.7489
G1 X101.903 Y92.185 E26.7656
G1 X102.127 Y92.449 E26.7772
G1 X102.377 Y92.888 E26.7940
G1 X102.491 Y93.217 E26.8055
G1 X102.565 Y93.718 E26.8224
G1 X102.552 Y94.066 E26.8340
G1 X102.441 Y94.560 E26.8508
G1 X102.304 Y94.879 E26.8624
G1 X102.022 Y95.298 E26.8792
G1 X101.780 Y95.545 E26.8906
G1 X101.368 Y95.833 E26.9074
G1 X101.055 Y95.975 E26.9188
G1 X100.567 Y96.095 E26.9355
G1 X100.225 Y96.114 E26.9469
G1 X99.728 Y96.049 E26.9636
G1 X99.400 Y95.943 E26.9750
G1 X98.959 Y95.702 E26.9918
G1 X98.691 Y95.485 E27.0032
G1 X98.366 Y95.099 E27.0200
G1 X98.194 Y94.798 E27.0315
G1 X98.029 Y94.320 E27.0484
G1 X97.986 Y94.034 E27.0580
G1 X97.499 Y93.534
;segType:Loop
G0 X97.800 Y92.743 F10800
G1 X97.923 Y92.457 E27.0683 F600
G1 X98.160 Y92.105 E27.0824
G1 X98.566 Y91.691 E27.1017
G1 X98.909 Y91.451 E27.1156
G1 X99.432 Y91.214 E27.1348
G1 X99.836 Y91.115 E27.1486
G1 X100.407 Y91.083 E27.1676
G1 X100.818 Y91.136 E27.1814
G1 X101.363 Y91.314 E27.2005
G1 X101.730 Y91.513 E27.2144
G1 X102.178 Y91.879 E27.2336
G1 X102.451 Y92.201 E27.2476
G1 X102.740 Y92.708 E27.2670
G1 X102.880 Y93.113 E27.2813
G1 X102.966 Y93.694 E27.3008
G1 X102.950 Y94.122 E27.3151
G1 X102.821 Y94.695 E27.3346
G1 X102.653 Y95.087 E27.3488
G1 X102.328 Y95.570 E27.3682
G1 X102.033 Y95.872 E27.3822
G1 X101.560 Y96.202 E27.4014
G1 X101.181 Y96.374 E27.4152
G1 X100.624 Y96.511 E27.4343
G1 X100.211 Y96.534 E27.4481
G1 X99.643 Y96.460 E27.4671
G1 X99.247 Y96.331 E27.4809
G1 X98.742 Y96.056 E27.5001
G1 X98.416 Y95.791 E27.5140
G1 X98.042 Y95.347 E27.5334
G1 X97.831 Y94.978 E27.5475
G1 X97.640 Y94.424 E27.5670
G1 X97.576 Y94.000 E27.5813
G1 X97.598 Y93.413 E27.6008
G1 X97.692 Y92.994 E27.6151
G1 X97.722 Y92.923 E27.6176
;segType:HShell
G0 X97.071 Y92.283 F10800
G1 X106.283 Y82.647 E28.0610 F600
G1 X105.746 Y82.647
G1 X97.071 Y91.722 E28.4786
G1 X97.071 Y91.161
G1 X105.210 Y82.647 E28.8703
G1 X104.674 Y82.647
G1 X97.071 Y90.600 E29.2362
G1 X97.071 Y90.039
G1 X104.137 Y82.647 E29.5763
G1 X103.601 Y82.647
G1 X97.071 Y89.477 E29.8906
G1 X97.071 Y88.916
G1 X103.064 Y82.647 E30.1791
G1 X102.528 Y82.647
G1 X97.071 Y88.355 E30.4418
G1 X97.071 Y87.794
G1 X101.992 Y82.647 E30.6786
G1 X101.455 Y82.647
G1 X97.071 Y87.233 E30.8896
G1 X97.071 Y86.672
G1 X100.919 Y82.647 E31.0748
G1 X100.383 Y82.647
G1 X97.071 Y86.111 E31.2342
G1 X97.071 Y85.550
G1 X99.846 Y82.647 E31.3678
G1 X99.469 Y82.481
G1 X97.071 Y84.989 E31.4832
G1 X97.071 Y84.428
G1 X99.469 Y81.920 E31.5986
G1 X99.469 Y81.358
G1 X97.071 Y83.866 E31.7140
G1 X97.071 Y83.305
G1 X99.469 Y80.797 E31.8294
G1 X99.469 Y80.236
G1 X97.071 Y82.744 E31.9447
G1 X97.071 Y82.183
G1 X99.469 Y79.675 E32.0601
G1 X99.469 Y79.114
G1 X97.071 Y81.622 E32.1755
G1 X97.071 Y81.061
G1 X99.469 Y78.553 E32.2909
G1 X99.469 Y77.992
G1 X97.071 Y80.500 E32.4063
G1 X97.071 Y79.939
G1 X99.469 Y77.431 E32.5217
G1 X99.469 Y76.870
G1 X97.071 Y79.378 E32.6371
G1 X97.071 Y78.816
G1 X99.469 Y76.308 E32.7525
G1 X99.469 Y75.747
G1 X97.071 Y78.255 E32.8679
G1 X97.071 Y77.694
G1 X99.469 Y75.186 E32.9833
G1 X99.469 Y74.625
G1 X97.071 Y77.133 E33.0987
G1 X97.071 Y76.572
G1 X99.469 Y74.064 E33.2141
G1 X99.469 Y73.503
G1 X97.071 Y76.011 E33.3295
G1 X97.071 Y75.450
G1 X99.469 Y72.942 E33.4449
G1 X99.469 Y72.381
G1 X97.071 Y74.889 E33.5603
G1 X97.071 Y74.328
G1 X99.469 Y71.820 E33.6757
G1 X99.469 Y71.259
G1 X97.071 Y73.767 E33.7911
G1 X97.071 Y73.205
G1 X99.469 Y70.697 E33.9065
G1 X99.469 Y70.136
G1 X97.071 Y72.644 E34.0219
G1 X97.071 Y72.083
G1 X99.469 Y69.575 E34.1373
G1 X99.469 Y69.014
G1 X97.071 Y71.522 E34.2527
G1 X97.071 Y70.961
G1 X99.469 Y68.453 E34.3681
G1 X99.469 Y67.892
G1 X97.071 Y70.400 E34.4835
G1 X97.071 Y69.839
G1 X99.469 Y67.331 E34.5989
G1 X99.469 Y66.770
G1 X97.071 Y69.278 E34.7143
G1 X97.071 Y68.717
G1 X99.469 Y66.209 E34.8297
G1 X99.465 Y65.651
G1 X97.071 Y68.156 E34.9449
G1 X97.071 Y67.594
G1 X98.929 Y65.651 E35.0344
G1 X98.393 Y65.651
G1 X97.071 Y67.033 E35.0980
G1 X97.071 Y66.472
G1 X97.856 Y65.651 E35.1358
G1 X97.320 Y65.651
G1 X97.071 Y65.911 E35.1477
G0 X99.935 Y82.159 F10800
G0 X103.992 Y88.971
G1 X110.037 Y82.647 E35.4387 F600
G1 X110.574 Y82.647
G1 X104.529 Y88.971 E35.7297
G1 X105.065 Y88.971
G1 X111.110 Y82.647 E36.0206
G1 X111.647 Y82.647
G1 X105.601 Y88.971 E36.3116
G1 X106.138 Y88.971
G1 X112.183 Y82.647 E36.6026
G1 X112.719 Y82.647
G1 X106.674 Y88.971 E36.8935
G1 X107.211 Y88.971
G1 X113.256 Y82.647 E37.1845
G1 X113.792 Y82.647
G1 X107.747 Y88.971 E37.4755
G1 X108.283 Y88.971
G1 X114.329 Y82.647 E37.7665
G1 X114.865 Y82.647
G1 X108.820 Y88.971 E38.0574
G1 X109.356 Y88.971
G1 X115.401 Y82.647 E38.3484
G1 X115.938 Y82.647
G1 X109.893 Y88.971 E38.6394
G1 X110.429 Y88.971
G1 X116.474 Y82.647 E38.9303
G1 X117.010 Y82.647
G1 X110.965 Y88.971 E39.2213
G1 X111.502 Y88.971
G1 X117.547 Y82.647 E39.5123
G1 X118.083 Y82.647
G1 X112.038 Y88.971 E39.8032
G1 X112.574 Y88.971
G1 X118.620 Y82.647 E40.0942
G1 X119.156 Y82.647
G1 X113.111 Y88.971 E40.3852
G1 X113.647 Y88.971
G1 X119.692 Y82.647 E40.6761
G1 X120.229 Y82.647
G1 X114.184 Y88.971 E40.9671
G1 X114.720 Y88.971
G1 X120.765 Y82.647 E41.2581
G1 X121.302 Y82.647
G1 X115.256 Y88.971 E41.5491
G1 X115.793 Y88.971
G1 X121.838 Y82.647 E41.8400
G1 X122.374 Y82.647
G1 X116.329 Y88.971 E42.1310
G1 X116.866 Y88.971
G1 X122.911 Y82.647 E42.4220
G1 X123.447 Y82.647
G1 X117.402 Y88.971 E42.7129
G1 X117.938 Y88.971
G1 X123.983 Y82.647 E43.0039
G1 X124.520 Y82.647
G1 X118.475 Y88.971 E43.2949
G1 X119.011 Y88.971
G1 X125.056 Y82.647 E43.5858
G1 X125.593 Y82.647
G1 X119.547 Y88.971 E43.8768
G1 X120.084 Y88.971
G1 X126.129 Y82.647 E44.1678
G1 X126.665 Y82.647
G1 X120.620 Y88.971 E44.4588
G1 X121.157 Y88.971
G1 X127.202 Y82.647 E44.7497
G1 X127.738 Y82.647
G1 X121.693 Y88.971 E45.0407
G1 X122.229 Y88.971
G1 X128.274 Y82.647 E45.3317
G1 X128.811 Y82.647
G1 X122.766 Y88.971 E45.6226
G1 X123.302 Y88.971
G1 X129.347 Y82.647 E45.9136
G1 X129.884 Y82.647
G1 X123.838 Y88.971 E46.2046
G1 X124.375 Y88.971
G1 X130.420 Y82.647 E46.4955
G1 X130.956 Y82.647
G1 X124.911 Y88.971 E46.7865
G1 X125.448 Y88.971
G1 X131.493 Y82.647 E47.0775
G1 X132.029 Y82.647
G1 X125.984 Y88.971 E47.3685
G1 X126.520 Y88.971
G1 X132.566 Y82.647 E47.6594
G1 X133.102 Y82.647
G1 X127.057 Y88.971 E47.9504
G1 X127.593 Y88.971
G1 X133.638 Y82.647 E48.2414
G1 X134.175 Y82.647
G1 X128.130 Y88.971 E48.5323
G1 X128.666 Y88.971
G1 X134.711 Y82.647 E48.8233
G1 X135.247 Y82.647
G1 X129.202 Y88.971 E49.1143
G1 X129.739 Y88.971
G1 X135.784 Y82.647 E49.4052
G1 X136.320 Y82.647
G1 X130.275 Y88.971 E49.6962
G1 X130.811 Y88.971
G1 X136.857 Y82.647 E49.9872
G1 X137.393 Y82.647
G1 X131.348 Y88.971 E50.2782
G1 X131.884 Y88.971
G1 X137.929 Y82.647 E50.5691
G1 X138.466 Y82.647
G1 X132.421 Y88.971 E50.8601
G1 X132.957 Y88.971
G1 X139.002 Y82.647 E51.1511
G1 X139.539 Y82.647
G1 X133.493 Y88.971 E51.4420
G1 X134.030 Y88.971
G1 X140.075 Y82.647 E51.7330
G1 X140.611 Y82.647
G1 X134.566 Y88.971 E52.0240
G1 X135.103 Y88.971
G1 X141.148 Y82.647 E52.3149
G1 X141.684 Y82.647
G1 X135.639 Y88.971 E52.6059
G1 X136.175 Y88.971
G1 X142.220 Y82.647 E52.8969
G1 X142.757 Y82.647
G1 X136.712 Y88.971 E53.1879
G1 X137.248 Y88.971
G1 X143.293 Y82.647 E53.4788
G1 X143.830 Y82.647
G1 X137.784 Y88.971 E53.7698
G1 X138.321 Y88.971
G1 X144.366 Y82.647 E54.0608
G1 X144.902 Y82.647
G1 X138.857 Y88.971 E54.3517
G1 X139.394 Y88.971
G1 X145.439 Y82.647 E54.6427
G1 X145.975 Y82.647
G1 X139.930 Y88.971 E54.9337
G1 X140.466 Y88.971
G1 X146.511 Y82.647 E55.2246
G1 X147.048 Y82.647
G1 X141.003 Y88.971 E55.5156
G1 X141.539 Y88.971
G1 X147.584 Y82.647 E55.8066
G1 X148.121 Y82.647
G1 X142.076 Y88.971 E56.0976
G1 X142.612 Y88.971
G1 X148.657 Y82.647 E56.3885
G1 X149.193 Y82.647
G1 X143.148 Y88.971 E56.6795
G1 X143.685 Y88.971
G1 X149.730 Y82.647 E56.9705
G1 X150.266 Y82.647
G1 X144.221 Y88.971 E57.2614
G1 X144.757 Y88.971
G1 X150.803 Y82.647 E57.5524
G1 X151.339 Y82.647
G1 X145.294 Y88.971 E57.8434
G1 X145.830 Y88.971
G1 X151.875 Y82.647 E58.1343
G1 X152.412 Y82.647
G1 X146.367 Y88.971 E58.4253
G1 X146.903 Y88.971
G1 X152.948 Y82.647 E58.7163
G1 X153.484 Y82.647
G1 X147.439 Y88.971 E59.0073
G1 X147.976 Y88.971
G1 X154.021 Y82.647 E59.2982
G1 X154.557 Y82.647
G1 X148.512 Y88.971 E59.5892
G1 X149.048 Y88.971
G1 X155.094 Y82.647 E59.8802
G1 X155.630 Y82.647
G1 X149.585 Y88.971 E60.1711
G1 X150.121 Y88.971
G1 X156.166 Y82.647 E60.4621
G1 X156.703 Y82.647
G1 X150.658 Y88.971 E60.7531
G1 X151.194 Y88.971
G1 X157.239 Y82.647 E61.0440
G0 X159.041 Y82.445 F10800
G1 X161.438 Y79.937 E61.1594 F600
G1 X161.438 Y79.376
G1 X159.041 Y81.884 E61.2748
G1 X159.041 Y81.323
G1 X161.438 Y78.815 E61.3902
G1 X161.438 Y78.254
G1 X159.041 Y80.762 E61.5056
G1 X159.041 Y80.201
G1 X161.438 Y77.693 E61.6210
G1 X161.438 Y77.132
G1 X159.041 Y79.640 E61.7364
G1 X159.041 Y79.079
G1 X161.438 Y76.571 E61.8518
G1 X161.438 Y76.010
G1 X159.041 Y78.518 E61.9672
G1 X159.041 Y77.956
G1 X161.438 Y75.449 E62.0826
G1 X161.438 Y74.887
G1 X159.041 Y77.395 E62.1980
G1 X159.041 Y76.834
G1 X161.438 Y74.326 E62.3134
G1 X161.438 Y73.765
G1 X159.041 Y76.273 E62.4288
G1 X159.041 Y75.712
G1 X161.438 Y73.204 E62.5442
G1 X161.438 Y72.643
G1 X159.041 Y75.151 E62.6596
G1 X159.041 Y74.590
G1 X161.438 Y72.082 E62.7750
G1 X161.438 Y71.521
G1 X159.041 Y74.029 E62.8904
G1 X159.041 Y73.468
G1 X161.438 Y70.960 E63.0058
G1 X161.438 Y70.399
G1 X159.041 Y72.907 E63.1212
G1 X159.041 Y72.345
G1 X161.438 Y69.837 E63.2366
G1 X161.438 Y69.276
G1 X159.041 Y71.784 E63.3520
G1 X159.041 Y71.223
G1 X161.438 Y68.715 E63.4674
G1 X161.438 Y68.154
G1 X159.041 Y70.662 E63.5828
G1 X159.041 Y70.101
G1 X161.438 Y67.593 E63.6982
G1 X161.438 Y67.032
G1 X159.041 Y69.540 E63.8136
G1 X159.041 Y68.979
G1 X161.438 Y66.471 E63.9290
G1 X161.438 Y65.910
G1 X159.041 Y68.418 E64.0444
G1 X159.041 Y67.857
G1 X161.149 Y65.651 E64.1459
G1 X160.613 Y65.651
G1 X159.041 Y67.296 E64.2216
G1 X159.041 Y66.734
G1 X160.077 Y65.651 E64.2714
G1 X159.540 Y65.651
G1 X159.041 Y66.173 E64.2954
G0 X158.848 Y82.647 F10800
G1 X152.803 Y88.971 E64.5864 F600
G1 X153.340 Y88.971
G1 X161.438 Y80.498 E64.9762
G1 X161.438 Y81.060
G1 X153.876 Y88.971 E65.3402
G1 X154.412 Y88.971
G1 X161.438 Y81.621 E65.6784
G1 X161.438 Y82.182
G1 X154.949 Y88.971 E65.9908
G1 X155.043 Y89.433
G1 X161.438 Y82.743 E66.2987
G1 X161.438 Y83.304
G1 X155.043 Y89.994 E66.6065
G1 X155.043 Y90.555
G1 X161.438 Y83.865 E66.9143
G1 X161.438 Y84.426
G1 X155.043 Y91.116 E67.2222
G1 X155.043 Y91.677
G1 X161.438 Y84.987 E67.5300
G1 X161.438 Y85.548
G1 X155.043 Y92.238 E67.8378
G1 X155.044 Y92.799
G1 X161.438 Y86.109 E68.1456
G1 X161.438 Y86.671
G1 X157.244 Y91.059 E68.3475
G1 X157.933 Y90.898
G1 X161.438 Y87.232 E68.5162
G1 X161.438 Y87.793
G1 X158.482 Y90.886 E68.6585
G1 X158.941 Y90.966
G1 X161.438 Y88.354 E68.7788
G0 X161.071 Y93.227 F10800
G1 X161.438 Y92.843 E68.7965 F600
G1 X161.438 Y93.404
G1 X161.137 Y93.719 E68.8110
G1 X161.078 Y94.342
G1 X161.425 Y93.979 E68.8277
G1 X161.318 Y94.652
G1 X160.792 Y95.203 E68.8530
G0 X159.723 Y96.320 F10800
G1 X159.266 Y96.798 E68.8750 F600
G1 X158.862 Y96.660
G1 X158.590 Y96.944 E68.8881
G1 X158.045 Y96.954
G1 X158.250 Y96.739 E68.8979
G1 X157.761 Y96.690
G1 X157.568 Y96.891 E68.9072
G1 X157.146 Y96.772
G1 X157.325 Y96.585 E68.9158
G1 X156.947 Y96.419
G1 X156.767 Y96.608 E68.9245
G1 X156.426 Y96.403
G1 X156.596 Y96.225 E68.9327
G1 X156.294 Y95.980
G1 X156.116 Y96.166 E68.9413
G1 X155.845 Y95.888
G1 X156.035 Y95.689 E68.9504
G1 X155.797 Y95.377
G1 X155.603 Y95.580 E68.9598
G1 X155.398 Y95.234
G1 X155.604 Y95.018 E68.9697
G1 X155.462 Y94.606
G1 X155.230 Y94.848 E68.9808
G1 X155.105 Y94.418
G1 X155.367 Y94.144 E68.9934
G1 X155.363 Y93.587
G1 X155.053 Y93.911 E69.0084
G1 X155.044 Y93.360
G1 X155.486 Y92.897 E69.0297
G0 X154.577 Y89.458 F10800
G0 X107.356 Y82.647
G1 X99.347 Y91.024 E69.4151 F600
G0 X101.616 Y91.700 F10800
G0 X102.280 Y92.332
G0 X102.674 Y93.168
G0 X102.720 Y95.352
G1 X103.323 Y94.721 E69.4441 F600
G1 X103.451 Y94.026
G1 X103.093 Y94.400 E69.4613
G1 X103.163 Y93.765
G1 X103.467 Y93.448 E69.4759
G1 X103.467 Y92.887
G1 X103.105 Y93.266 E69.4934
G1 X102.992 Y92.823
G1 X103.467 Y92.326 E69.5162
G1 X103.467 Y91.765
G1 X102.820 Y92.441 E69.5474
G1 X102.621 Y92.089
G1 X103.467 Y91.204 E69.5881
G1 X103.467 Y90.642
G1 X102.370 Y91.790 E69.6409
G1 X102.079 Y91.533
G1 X103.467 Y90.081 E69.7077
G1 X103.467 Y89.520
G1 X101.768 Y91.298 E69.7895
G1 X101.411 Y91.110
G1 X109.501 Y82.647 E70.1789
G1 X108.965 Y82.647
G1 X101.002 Y90.977 E70.5622
G1 X100.548 Y90.891
G1 X108.428 Y82.647 E70.9415
G1 X107.892 Y82.647
G1 X100.006 Y90.896 E71.3210
G0 X102.033 Y92.040 F10800
G0 X102.674 Y93.168
G0 X102.740 Y94.092
G0 X102.469 Y94.977
G0 X101.358 Y96.776
G1 X101.879 Y96.231 E71.3461 F600
G0 X100.945 Y96.647 F10800
G1 X100.664 Y96.941 E71.3597 F600
G1 X100.113 Y96.956
G1 X100.323 Y96.737 E71.3698
G1 X99.827 Y96.694
G1 X99.633 Y96.898 E71.3791
G1 X99.205 Y96.785
G1 X99.385 Y96.595 E71.3878
G1 X99.003 Y96.434
G1 X98.822 Y96.623 E71.3965
G1 X98.479 Y96.422
G1 X98.651 Y96.242 E71.4048
G1 X98.346 Y95.999
G1 X98.167 Y96.187 E71.4134
G1 X97.894 Y95.911
G1 X98.084 Y95.713 E71.4226
G1 X97.842 Y95.405
G1 X97.649 Y95.606 E71.4318
G1 X97.441 Y95.263
G1 X97.643 Y95.051 E71.4416
G0 F4800 E70.4416
G0 X99.608 Y96.631 F10800
G0 X158.993 Y119.529
G0 F4800 E71.4416
G1 X152.947 Y125.853 E71.7326 F600
G1 X153.484 Y125.853
G1 X159.529 Y119.529 E72.0235
;segType:Perimeter
G0 X158.919 Y119.501 F10800
G1 X159.180 Y118.841 E72.0472 F359
G1 X159.180 Y101.905 E72.6105
G1 X162.778 Y101.905 E72.7301
G1 X162.778 Y130.288 E73.6741
G1 X162.775 Y130.781 E73.6905
G1 X162.712 Y131.379 E73.7106
G1 X162.584 Y131.880 E73.7277
G1 X162.407 Y132.319 E73.7435
G1 X162.273 Y132.578 E73.7532
G1 X161.996 Y132.992 E73.7698
G1 X161.686 Y133.347 E73.7854
G1 X161.321 Y133.671 E73.8017
G1 X160.965 Y133.917 E73.8160
G1 X160.665 Y134.085 E73.8275
G1 X160.202 Y134.277 E73.8441
G1 X159.748 Y134.399 E73.8598
G1 X159.275 Y134.465 E73.8757
G1 X158.983 Y134.478 E73.8854
G1 X158.483 Y134.445 E73.9021
G1 X158.020 Y134.354 E73.9178
G1 X157.555 Y134.200 E73.9341
G1 X157.164 Y134.015 E73.9484
G1 X156.869 Y133.839 E73.9599
G1 X156.472 Y133.534 E73.9765
G1 X156.140 Y133.203 E73.9921
G1 X155.847 Y132.828 E74.0079
G1 X155.691 Y132.582 E74.0176
G1 X155.471 Y132.135 E74.0342
G1 X155.319 Y131.691 E74.0498
G1 X155.221 Y131.215 E74.0660
G1 X155.182 Y130.681 E74.0838
G1 X155.182 Y126.480 E74.2235
G1 X104.807 Y126.480 E75.8990
G1 X104.807 Y130.682 E76.0387
G1 X104.773 Y131.182 E76.0554
G1 X104.677 Y131.667 E76.0719
G1 X104.518 Y132.136 E76.0883
G1 X104.311 Y132.558 E76.1039
G1 X104.043 Y132.965 E76.1202
G1 X103.764 Y133.294 E76.1345
G1 X103.518 Y133.533 E76.1459
G1 X103.121 Y133.838 E76.1626
G1 X102.715 Y134.073 E76.1782
G1 X102.275 Y134.260 E76.1940
G1 X101.996 Y134.348 E76.2038
G1 X101.505 Y134.445 E76.2204
G1 X101.034 Y134.477 E76.2361
G1 X100.545 Y134.448 E76.2524
G1 X100.119 Y134.371 E76.2668
G1 X99.788 Y134.277 E76.2783
G1 X99.325 Y134.085 E76.2950
G1 X98.918 Y133.851 E76.3106
G1 X98.537 Y133.564 E76.3264
G1 X98.322 Y133.367 E76.3361
G1 X97.993 Y132.992 E76.3527
G1 X97.731 Y132.601 E76.3684
G1 X97.513 Y132.165 E76.3846
G1 X97.368 Y131.760 E76.3989
G1 X97.284 Y131.429 E76.4103
G1 X97.219 Y130.933 E76.4269
G1 X97.211 Y130.287 E76.4484
G1 X97.211 Y101.905 E77.3924
G1 X100.808 Y101.905 E77.5120
G1 X100.808 Y118.901 E78.0773
G1 X159.123 Y118.901 E80.0169
G1 X159.754 Y118.628
;segType:Loop
G0 X159.581 Y117.810 F10800
G1 X159.581 Y102.324 E80.5319 F600
G1 X162.378 Y102.324 E80.6250
G1 X162.378 Y130.286 E81.5550
G1 X162.375 Y130.757 E81.5707
G1 X162.318 Y131.302 E81.5889
G1 X162.205 Y131.744 E81.6041
G1 X162.046 Y132.138 E81.6182
G1 X161.932 Y132.357 E81.6265
G1 X161.683 Y132.730 E81.6414
G1 X161.408 Y133.045 E81.6553
G1 X161.080 Y133.336 E81.6698
G1 X160.760 Y133.557 E81.6828
G1 X160.497 Y133.704 E81.6928
G1 X160.078 Y133.878 E81.7079
G1 X159.672 Y133.987 E81.7219
G1 X159.240 Y134.048 E81.7364
G1 X158.987 Y134.059 E81.7448
G1 X158.533 Y134.029 E81.7599
G1 X158.117 Y133.948 E81.7740
G1 X157.699 Y133.808 E81.7887
G1 X157.346 Y133.641 E81.8017
G1 X157.088 Y133.487 E81.8117
G1 X156.730 Y133.212 E81.8267
G1 X156.434 Y132.918 E81.8406
G1 X156.169 Y132.579 E81.8549
G1 X156.036 Y132.370 E81.8631
G1 X155.838 Y131.968 E81.8780
G1 X155.704 Y131.576 E81.8918
G1 X155.618 Y131.155 E81.9061
G1 X155.582 Y130.665 E81.9224
G1 X155.582 Y126.062 E82.0755
G1 X104.407 Y126.062 E83.7776
G1 X104.407 Y130.667 E83.9308
G1 X104.376 Y131.125 E83.9461
G1 X104.291 Y131.554 E83.9606
G1 X104.150 Y131.970 E83.9752
G1 X103.967 Y132.343 E83.9890
G1 X103.727 Y132.707 E84.0035
G1 X103.478 Y133.001 E84.0164
G1 X103.262 Y133.210 E84.0263
G1 X102.904 Y133.485 E84.0413
G1 X102.542 Y133.695 E84.0553
G1 X102.142 Y133.865 E84.0697
G1 X101.901 Y133.941 E84.0782
G1 X101.455 Y134.029 E84.0933
G1 X101.032 Y134.058 E84.1074
G1 X100.590 Y134.032 E84.1221
G1 X100.206 Y133.962 E84.1351
G1 X99.914 Y133.879 E84.1452
G1 X99.495 Y133.706 E84.1602
G1 X99.132 Y133.496 E84.1742
G1 X98.786 Y133.236 E84.1886
G1 X98.602 Y133.067 E84.1969
G1 X98.306 Y132.729 E84.2118
G1 X98.074 Y132.383 E84.2257
G1 X97.879 Y131.994 E84.2402
G1 X97.750 Y131.633 E84.2529
G1 X97.677 Y131.347 E84.2627
G1 X97.619 Y130.902 E84.2777
G1 X97.611 Y130.284 E84.2982
G1 X97.611 Y102.324 E85.2282
G1 X100.408 Y102.324 E85.3212
G1 X100.408 Y119.319 E85.8865
G1 X159.581 Y119.319 E87.8546
G1 X159.581 Y118.008 E87.8982
G0 X161.187 Y129.476 F10800
G0 X161.584 Y131.967
;segType:HShell
G1 X162.071 Y131.458 E87.9216 F600
G1 X161.836 Y131.143
G1 X162.170 Y130.793 E87.9377
G1 X162.178 Y130.224
G1 X161.875 Y130.541 E87.9523
G1 X161.803 Y130.056
G1 X162.178 Y129.663 E87.9704
G1 X162.178 Y129.102
G1 X161.676 Y129.627 E87.9946
;segType:Loop
G0 X161.601 Y131.273 F10800
G1 X161.533 Y131.577 E88.0050 F600
G1 X161.364 Y131.969 E88.0192
G1 X161.039 Y132.452 E88.0385
G1 X160.745 Y132.754 E88.0525
G1 X160.271 Y133.084 E88.0717
G1 X159.892 Y133.256 E88.0856
G1 X159.335 Y133.392 E88.1047
G1 X158.922 Y133.415 E88.1184
G1 X158.354 Y133.342 E88.1375
G1 X157.959 Y133.213 E88.1513
G1 X157.453 Y132.938 E88.1704
G1 X157.128 Y132.673 E88.1844
G1 X156.753 Y132.229 E88.2037
G1 X156.542 Y131.860 E88.2179
G1 X156.351 Y131.306 E88.2374
G1 X156.288 Y130.882 E88.2516
G1 X156.309 Y130.295 E88.2712
G1 X156.403 Y129.876 E88.2854
G1 X156.635 Y129.339 E88.3049
G1 X156.871 Y128.986 E88.3190
G1 X157.277 Y128.573 E88.3383
G1 X157.620 Y128.333 E88.3522
G1 X158.144 Y128.096 E88.3713
G1 X158.547 Y127.997 E88.3851
G1 X159.118 Y127.965 E88.4041
G1 X159.529 Y128.018 E88.4179
G1 X160.075 Y128.196 E88.4370
G1 X160.441 Y128.395 E88.4509
G1 X160.889 Y128.760 E88.4701
G1 X161.163 Y129.083 E88.4842
G1 X161.451 Y129.590 E88.5036
G1 X161.591 Y129.994 E88.5178
G1 X161.677 Y130.575 E88.5373
G1 X161.662 Y131.004 E88.5516
G1 X161.645 Y131.080 E88.5542
;segType:Perimeter
G0 X161.529 Y129.526 F10800
G1 X161.210 Y130.157 E88.5777 F359
G1 X161.276 Y130.600 E88.5926
G1 X161.264 Y130.948 E88.6042
G1 X161.152 Y131.442 E88.6210
G1 X161.015 Y131.761 E88.6326
G1 X160.733 Y132.180 E88.6494
G1 X160.492 Y132.427 E88.6609
G1 X160.079 Y132.715 E88.6776
G1 X159.766 Y132.857 E88.6891
G1 X159.279 Y132.976 E88.7058
G1 X158.936 Y132.996 E88.7172
G1 X158.439 Y132.931 E88.7338
G1 X158.112 Y132.825 E88.7453
G1 X157.670 Y132.584 E88.7620
G1 X157.403 Y132.367 E88.7735
G1 X157.077 Y131.981 E88.7903
G1 X156.905 Y131.680 E88.8018
G1 X156.740 Y131.202 E88.8186
G1 X156.689 Y130.857 E88.8302
G1 X156.707 Y130.351 E88.8470
G1 X156.784 Y130.011 E88.8586
G1 X156.984 Y129.547 E88.8754
G1 X157.177 Y129.259 E88.8870
G1 X157.530 Y128.899 E88.9037
G1 X157.812 Y128.702 E88.9152
G1 X158.270 Y128.495 E88.9319
G1 X158.603 Y128.413 E88.9433
G1 X159.104 Y128.385 E88.9600
G1 X159.445 Y128.429 E88.9714
G1 X159.922 Y128.584 E88.9881
G1 X160.224 Y128.749 E88.9996
G1 X160.614 Y129.067 E89.0163
G1 X160.838 Y129.331 E89.0278
G1 X161.088 Y129.770 E89.0446
G1 X161.182 Y130.042 E89.0542
G1 X161.752 Y130.435
G0 X161.426 Y130.314 F10800
G0 X160.992 Y129.214
G0 X159.994 Y128.401
G0 X155.316 Y126.340
G0 X107.500 Y119.529
;segType:HShell
G1 X97.811 Y129.664 E89.5206 F600
G1 X98.268 Y129.748
G1 X97.811 Y130.225 E89.5426
G1 X98.132 Y130.451
G1 X97.817 Y130.780 E89.5577
G1 X97.871 Y131.285
G1 X98.133 Y131.011 E89.5703
G1 X98.225 Y131.475
G1 X97.993 Y131.718 E89.5815
;segType:Perimeter
G0 X98.290 Y131.353 F10800
G1 X98.719 Y130.798 E89.6048 F359
G1 X98.736 Y130.351 E89.6197
G1 X98.812 Y130.011 E89.6313
G1 X99.012 Y129.547 E89.6481
G1 X99.205 Y129.259 E89.6596
G1 X99.558 Y128.899 E89.6764
G1 X99.841 Y128.702 E89.6878
G1 X100.298 Y128.495 E89.7045
G1 X100.632 Y128.413 E89.7160
G1 X101.133 Y128.385 E89.7326
G1 X101.473 Y128.429 E89.7441
G1 X101.950 Y128.584 E89.7607
G1 X102.253 Y128.749 E89.7722
G1 X102.643 Y129.067 E89.7889
G1 X102.867 Y129.331 E89.8005
G1 X103.116 Y129.770 E89.8173
G1 X103.230 Y130.099 E89.8288
G1 X103.304 Y130.600 E89.8457
G1 X103.292 Y130.948 E89.8572
G1 X103.180 Y131.442 E89.8741
G1 X103.043 Y131.761 E89.8856
G1 X102.762 Y132.180 E89.9024
G1 X102.520 Y132.427 E89.9139
G1 X102.108 Y132.715 E89.9307
G1 X101.794 Y132.857 E89.9421
G1 X101.307 Y132.976 E89.9588
G1 X100.964 Y132.996 E89.9702
G1 X100.467 Y132.931 E89.9869
G1 X100.140 Y132.825 E89.9983
G1 X99.699 Y132.584 E90.0150
G1 X99.431 Y132.367 E90.0265
G1 X99.106 Y131.981 E90.0433
G1 X98.933 Y131.680 E90.0548
G1 X98.768 Y131.202 E90.0717
G1 X98.726 Y130.916 E90.0813
G1 X98.238 Y130.416
;segType:Loop
G0 X98.540 Y129.624 F10800
G1 X98.663 Y129.339 E90.0916 F600
G1 X98.899 Y128.987 E90.1057
G1 X99.305 Y128.573 E90.1250
G1 X99.648 Y128.333 E90.1389
G1 X100.172 Y128.096 E90.1580
G1 X100.575 Y127.997 E90.1719
G1 X101.147 Y127.965 E90.1909
G1 X101.558 Y128.018 E90.2047
G1 X102.103 Y128.196 E90.2238
G1 X102.470 Y128.395 E90.2376
G1 X102.918 Y128.760 E90.2569
G1 X103.191 Y129.083 E90.2709
G1 X103.479 Y129.590 E90.2903
G1 X103.619 Y129.994 E90.3045
G1 X103.705 Y130.575 E90.3241
G1 X103.690 Y131.004 E90.3384
G1 X103.561 Y131.577 E90.3579
G1 X103.393 Y131.969 E90.3721
G1 X103.068 Y132.452 E90.3914
G1 X102.773 Y132.754 E90.4055
G1 X102.300 Y133.084 E90.4247
G1 X101.920 Y133.256 E90.4385
G1 X101.363 Y133.392 E90.4576
G1 X100.950 Y133.415 E90.4714
G1 X100.383 Y133.342 E90.4904
G1 X99.987 Y133.214 E90.5042
G1 X99.482 Y132.938 E90.5234
G1 X99.156 Y132.673 E90.5373
G1 X98.781 Y132.229 E90.5566
G1 X98.570 Y131.860 E90.5708
G1 X98.379 Y131.306 E90.5903
G1 X98.316 Y130.881 E90.6045
G1 X98.338 Y130.295 E90.6241
G1 X98.431 Y129.876 E90.6383
G1 X98.462 Y129.805 E90.6409
;segType:HShell
G0 X98.160 Y132.105 F10800
G1 X98.367 Y131.888 E90.6509 F600
G1 X98.559 Y132.248
G1 X98.364 Y132.452 E90.6603
G1 X98.605 Y132.761
G1 X98.796 Y132.562 E90.6694
G1 X99.053 Y132.854
G1 X98.875 Y133.040 E90.6780
G1 X99.184 Y133.278
G1 X99.354 Y133.099 E90.6862
G1 X99.704 Y133.295
G1 X99.524 Y133.483 E90.6948
G1 X99.902 Y133.649
G1 X100.080 Y133.463 E90.7034
G1 X100.514 Y133.570
G1 X100.322 Y133.771 E90.7127
G1 X100.797 Y133.835
G1 X101.000 Y133.622 E90.7224
G1 X101.608 Y133.547
G1 X101.341 Y133.827 E90.7353
G1 X102.010 Y133.688
G1 X102.442 Y133.237 E90.7561
G0 X104.095 Y131.507 F10800
G1 X103.578 Y132.048 E90.7809 F600
G1 X103.851 Y131.201
G1 X104.194 Y130.842 E90.7975
G1 X104.207 Y130.268
G1 X103.905 Y130.583 E90.8120
G1 X103.836 Y130.094
G1 X104.207 Y129.707 E90.8298
G1 X104.207 Y129.146
G1 X103.716 Y129.659 E90.8534
G1 X103.538 Y129.284
G1 X104.207 Y128.585 E90.8856
G1 X104.207 Y128.024
G1 X103.334 Y128.936 E90.9276
G1 X103.082 Y128.639
G1 X104.207 Y127.463 E90.9817
G1 X104.207 Y126.902
G1 X102.786 Y128.388 E91.0501
G1 X102.468 Y128.159
G1 X104.207 Y126.340 E91.1337
G0 X106.963 Y119.529 F10800
G1 X97.811 Y129.103 E91.5743 F600
G1 X97.811 Y128.542
G1 X106.427 Y119.529 E91.9890
G1 X105.891 Y119.529
G1 X97.811 Y127.981 E92.3779
G1 X97.811 Y127.420
G1 X105.354 Y119.529 E92.7410
G1 X104.818 Y119.529
G1 X97.811 Y126.859 E93.0783
G1 X97.811 Y126.298
G1 X104.282 Y119.529 E93.3897
G1 X103.745 Y119.529
G1 X97.811 Y125.737 E93.6754
G1 X97.811 Y125.175
G1 X103.209 Y119.529 E93.9352
G1 X102.672 Y119.529
G1 X97.811 Y124.614 E94.1692
G1 X97.811 Y124.053
G1 X102.136 Y119.529 E94.3774
G1 X101.600 Y119.529
G1 X97.811 Y123.492 E94.5597
G1 X97.811 Y122.931
G1 X101.063 Y119.529 E94.7163
G1 X100.527 Y119.529
G1 X97.811 Y122.370 E94.8470
G1 X97.811 Y121.809
G1 X100.208 Y119.301 E94.9624
G1 X100.208 Y118.740
G1 X97.811 Y121.248 E95.0778
G1 X97.811 Y120.687
G1 X100.208 Y118.179 E95.1932
G1 X100.208 Y117.618
G1 X97.811 Y120.126 E95.3086
G1 X97.811 Y119.564
G1 X100.208 Y117.056 E95.4240
G1 X100.208 Y116.495
G1 X97.811 Y119.003 E95.5394
G1 X97.811 Y118.442
G1 X100.208 Y115.934 E95.6548
G1 X100.208 Y115.373
G1 X97.811 Y117.881 E95.7702
G1 X97.811 Y117.320
G1 X100.208 Y114.812 E95.8856
G1 X100.208 Y114.251
G1 X97.811 Y116.759 E96.0009
G1 X97.811 Y116.198
G1 X100.208 Y113.690 E96.1163
G1 X100.208 Y113.129
G1 X97.811 Y115.637 E96.2317
G1 X97.811 Y115.076
G1 X100.208 Y112.568 E96.3471
G1 X100.208 Y112.007
G1 X97.811 Y114.515 E96.4625
G1 X97.811 Y113.953
G1 X100.208 Y111.445 E96.5779
G1 X100.208 Y110.884
G1 X97.811 Y113.392 E96.6933
G1 X97.811 Y112.831
G1 X100.208 Y110.323 E96.8087
G1 X100.208 Y109.762
G1 X97.811 Y112.270 E96.9241
G1 X97.811 Y111.709
G1 X100.208 Y109.201 E97.0395
G1 X100.208 Y108.640
G1 X97.811 Y111.148 E97.1549
G1 X97.811 Y110.587
G1 X100.208 Y108.079 E97.2703
G1 X100.208 Y107.518
G1 X97.811 Y110.026 E97.3857
G1 X97.811 Y109.465
G1 X100.208 Y106.957 E97.5011
G1 X100.208 Y106.396
G1 X97.811 Y108.903 E97.6165
G1 X97.811 Y108.342
G1 X100.208 Y105.834 E97.7319
G1 X100.208 Y105.273
G1 X97.811 Y107.781 E97.8473
G1 X97.811 Y107.220
G1 X100.208 Y104.712 E97.9627
G1 X100.208 Y104.151
G1 X97.811 Y106.659 E98.0781
G1 X97.811 Y106.098
G1 X100.208 Y103.590 E98.1934
G1 X100.208 Y103.029
G1 X97.811 Y105.537 E98.3088
G1 X97.811 Y104.976
G1 X100.146 Y102.533 E98.4212
G1 X99.610 Y102.533
G1 X97.811 Y104.415 E98.5078
G1 X97.811 Y103.854
G1 X99.073 Y102.533 E98.5686
G1 X98.537 Y102.533
G1 X97.811 Y103.292 E98.6035
G1 X97.811 Y102.731
G1 X98.001 Y102.533 E98.6127
G0 X100.674 Y119.041 F10800
G0 X159.314 Y119.041
G0 X160.221 Y102.533
G1 X159.781 Y102.994 E98.6339 F600
G1 X159.781 Y103.555
G1 X160.757 Y102.533 E98.6809
G1 X161.294 Y102.533
G1 X159.781 Y104.116 E98.7537
G1 X159.781 Y104.677
G1 X161.830 Y102.533 E98.8524
G1 X162.178 Y102.730
G1 X159.781 Y105.238 E98.9678
G1 X159.781 Y105.799
G1 X162.178 Y103.291 E99.0832
G1 X162.178 Y103.852
G1 X159.781 Y106.360 E99.1986
G1 X159.781 Y106.921
G1 X162.178 Y104.413 E99.3140
G1 X162.178 Y104.974
G1 X159.781 Y107.482 E99.4294
G1 X159.781 Y108.043
G1 X162.178 Y105.535 E99.5448
G1 X162.178 Y106.097
G1 X159.781 Y108.605 E99.6602
G1 X159.781 Y109.166
G1 X162.178 Y106.658 E99.7756
G1 X162.178 Y107.219
G1 X159.781 Y109.727 E99.8910
G1 X159.781 Y110.288
G1 X162.178 Y107.780 E100.0064
G1 X162.178 Y108.341
G1 X159.781 Y110.849 E100.1218
G1 X159.781 Y111.410
G1 X162.178 Y108.902 E100.2372
G1 X162.178 Y109.463
G1 X159.781 Y111.971 E100.3526
G1 X159.781 Y112.532
G1 X162.178 Y110.024 E100.4680
G1 X162.178 Y110.585
G1 X159.781 Y113.093 E100.5834
G1 X159.781 Y113.655
G1 X162.178 Y111.146 E100.6988
G1 X162.178 Y111.708
G1 X159.781 Y114.216 E100.8142
G1 X159.781 Y114.777
G1 X162.178 Y112.269 E100.9296
G1 X162.178 Y112.830
G1 X159.781 Y115.338 E101.0450
G1 X159.781 Y115.899
G1 X162.178 Y113.391 E101.1604
G1 X162.178 Y113.952
G1 X159.781 Y116.460 E101.2758
G1 X159.781 Y117.021
G1 X162.178 Y114.513 E101.3912
G1 X162.178 Y115.074
G1 X159.781 Y117.582 E101.5066
G1 X159.781 Y118.143
G1 X162.178 Y115.635 E101.6220
G1 X162.178 Y116.196
G1 X159.781 Y118.704 E101.7374
G1 X159.781 Y119.266
G1 X162.178 Y116.757 E101.8528
G1 X162.178 Y117.319
G1 X154.020 Y125.853 E102.2455
G1 X154.557 Y125.853
G1 X162.178 Y117.880 E102.6123
G1 X162.178 Y118.441
G1 X155.093 Y125.853 E102.9534
G1 X155.629 Y125.853
G1 X162.178 Y119.002 E103.2686
G1 X162.178 Y119.563
G1 X155.782 Y126.254 E103.5764
G1 X155.782 Y126.815
G1 X162.178 Y120.124 E103.8843
G1 X162.178 Y120.685
G1 X155.782 Y127.376 E104.1922
G1 X155.782 Y127.937
G1 X162.178 Y121.246 E104.5000
G1 X162.178 Y121.807
G1 X155.782 Y128.498 E104.8079
G1 X155.782 Y129.059
G1 X162.178 Y122.368 E105.1157
G1 X162.178 Y122.930
G1 X155.782 Y129.620 E105.4236
G1 X155.782 Y130.181
G1 X156.274 Y129.667 E105.4472
G1 X156.105 Y130.405
G1 X155.788 Y130.736 E105.4625
G1 X155.840 Y131.243
G1 X156.099 Y130.972 E105.4749
G1 X156.186 Y131.443
G1 X155.954 Y131.685 E105.4861
G1 X156.116 Y132.076
G1 X156.328 Y131.855 E105.4963
G1 X156.515 Y132.221
G1 X156.315 Y132.430 E105.5059
G1 X156.554 Y132.741
G1 X156.747 Y132.539 E105.5152
G1 X157.001 Y132.835
G1 X156.825 Y133.018 E105.5236
G1 X157.130 Y133.260
G1 X157.302 Y133.080 E105.5319
G1 X157.648 Y133.280
G1 X157.467 Y133.469 E105.5406
G1 X157.843 Y133.637
G1 X158.019 Y133.452 E105.5491
G1 X158.448 Y133.565
G1 X158.259 Y133.763 E105.5582
G1 X158.729 Y133.832
G1 X158.927 Y133.625 E105.5678
G1 X159.524 Y133.561
G1 X159.264 Y133.834 E105.5804
G1 X159.925 Y133.703
G1 X160.320 Y133.290 E105.5993
G1 X161.045 Y133.093
G1 X161.548 Y132.567 E105.6235
G0 X161.494 Y129.256 F10800
G1 X162.178 Y128.541 E105.6565 F600
G1 X162.178 Y127.979
G1 X161.286 Y128.913 E105.6994
G1 X161.034 Y128.616
G1 X162.178 Y127.418 E105.7545
G1 X162.178 Y126.857
G1 X160.734 Y128.368 E105.8241
G1 X160.412 Y128.143
G1 X162.178 Y126.296 E105.9091
G1 X162.178 Y125.735
G1 X160.045 Y127.967 E106.0117
G1 X159.636 Y127.834
G1 X162.178 Y125.174 E106.1341
G1 X162.178 Y124.613
G1 X159.169 Y127.761 E106.2790
G1 X158.611 Y127.784
G1 X162.178 Y124.052 E106.4507
G1 X162.178 Y123.491
G1 X157.880 Y127.987 E106.6576
G0 X158.456 Y119.529 F10800
G1 X152.411 Y125.853 E106.9486 F600
G1 X151.875 Y125.853
G1 X157.920 Y119.529 E107.2395
G1 X157.383 Y119.529
G1 X151.338 Y125.853 E107.5305
G1 X150.802 Y125.853
G1 X156.847 Y119.529 E107.8215
G1 X156.311 Y119.529
G1 X150.266 Y125.853 E108.1124
G1 X149.729 Y125.853
G1 X155.774 Y119.529 E108.4034
G1 X155.238 Y119.529
G1 X149.193 Y125.853 E108.6944
G1 X148.656 Y125.853
G1 X154.702 Y119.529 E108.9854
G1 X154.165 Y119.529
G1 X148.120 Y125.853 E109.2763
G1 X147.584 Y125.853
G1 X153.629 Y119.529 E109.5673
G1 X153.092 Y119.529
G1 X147.047 Y125.853 E109.8583
G1 X146.511 Y125.853
G1 X152.556 Y119.529 E110.1492
G1 X152.020 Y119.529
G1 X145.974 Y125.853 E110.4402
G1 X145.438 Y125.853
G1 X151.483 Y119.529 E110.7312
G1 X150.947 Y119.529
G1 X144.902 Y125.853 E111.0221
G1 X144.365 Y125.853
G1 X150.410 Y119.529 E111.3131
G1 X149.874 Y119.529
G1 X143.829 Y125.853 E111.6041
G1 X143.293 Y125.853
G1 X149.338 Y119.529 E111.8950
G1 X148.801 Y119.529
G1 X142.756 Y125.853 E112.1860
G1 X142.220 Y125.853
G1 X148.265 Y119.529 E112.4770
G1 X147.729 Y119.529
G1 X141.683 Y125.853 E112.7680
G1 X141.147 Y125.853
G1 X147.192 Y119.529 E113.0589
G1 X146.656 Y119.529
G1 X140.611 Y125.853 E113.3499
G1 X140.074 Y125.853
G1 X146.119 Y119.529 E113.6409
G1 X145.583 Y119.529
G1 X139.538 Y125.853 E113.9318
G1 X139.001 Y125.853
G1 X145.047 Y119.529 E114.2228
G1 X144.510 Y119.529
G1 X138.465 Y125.853 E114.5138
G1 X137.929 Y125.853
G1 X143.974 Y119.529 E114.8047
G1 X143.437 Y119.529
G1 X137.392 Y125.853 E115.0957
G1 X136.856 Y125.853
G1 X142.901 Y119.529 E115.3867
G1 X142.365 Y119.529
G1 X136.320 Y125.853 E115.6777
G1 X135.783 Y125.853
G1 X141.828 Y119.529 E115.9686
G1 X141.292 Y119.529
G1 X135.247 Y125.853 E116.2596
G1 X134.710 Y125.853
G1 X140.756 Y119.529 E116.5506
G1 X140.219 Y119.529
G1 X134.174 Y125.853 E116.8415
G1 X133.638 Y125.853
G1 X139.683 Y119.529 E117.1325
G1 X139.146 Y119.529
G1 X133.101 Y125.853 E117.4235
G1 X132.565 Y125.853
G1 X138.610 Y119.529 E117.7144
G1 X138.074 Y119.529
G1 X132.029 Y125.853 E118.0054
G1 X131.492 Y125.853
G1 X137.537 Y119.529 E118.2964
G1 X137.001 Y119.529
G1 X130.956 Y125.853 E118.5874
G1 X130.419 Y125.853
G1 X136.464 Y119.529 E118.8783
G1 X135.928 Y119.529
G1 X129.883 Y125.853 E119.1693
G1 X129.347 Y125.853
G1 X135.392 Y119.529 E119.4603
G1 X134.855 Y119.529
G1 X128.810 Y125.853 E119.7512
G1 X128.274 Y125.853
G1 X134.319 Y119.529 E120.0422
G1 X133.783 Y119.529
G1 X127.737 Y125.853 E120.3332
G1 X127.201 Y125.853
G1 X133.246 Y119.529 E120.6241
G1 X132.710 Y119.529
G1 X126.665 Y125.853 E120.9151
G1 X126.128 Y125.853
G1 X132.173 Y119.529 E121.2061
G1 X131.637 Y119.529
G1 X125.592 Y125.853 E121.4971
G1 X125.056 Y125.853
G1 X131.101 Y119.529 E121.7880
G1 X130.564 Y119.529
G1 X124.519 Y125.853 E122.0790
G1 X123.983 Y125.853
G1 X130.028 Y119.529 E122.3700
G1 X129.492 Y119.529
G1 X123.446 Y125.853 E122.6609
G1 X122.910 Y125.853
G1 X128.955 Y119.529 E122.9519
G1 X128.419 Y119.529
G1 X122.374 Y125.853 E123.2429
G1 X121.837 Y125.853
G1 X127.882 Y119.529 E123.5338
G1 X127.346 Y119.529
G1 X121.301 Y125.853 E123.8248
G1 X120.764 Y125.853
G1 X126.810 Y119.529 E124.1158
G1 X126.273 Y119.529
G1 X120.228 Y125.853 E124.4068
G1 X119.692 Y125.853
G1 X125.737 Y119.529 E124.6977
G1 X125.200 Y119.529
G1 X119.155 Y125.853 E124.9887
G1 X118.619 Y125.853
G1 X124.664 Y119.529 E125.2797
G1 X124.128 Y119.529
G1 X118.083 Y125.853 E125.5706
G1 X117.546 Y125.853
G1 X123.591 Y119.529 E125.8616
G1 X123.055 Y119.529
G1 X117.010 Y125.853 E126.1526
G1 X116.473 Y125.853
G1 X122.519 Y119.529 E126.4435
G1 X121.982 Y119.529
G1 X115.937 Y125.853 E126.7345
G1 X115.401 Y125.853
G1 X121.446 Y119.529 E127.0255
G1 X120.909 Y119.529
G1 X114.864 Y125.853 E127.3165
G1 X114.328 Y125.853
G1 X120.373 Y119.529 E127.6074
G1 X119.837 Y119.529
G1 X113.791 Y125.853 E127.8984
G1 X113.255 Y125.853
G1 X119.300 Y119.529 E128.1894
G1 X118.764 Y119.529
G1 X112.719 Y125.853 E128.4803
G1 X112.182 Y125.853
G1 X118.227 Y119.529 E128.7713
G1 X117.691 Y119.529
G1 X111.646 Y125.853 E129.0623
G1 X111.110 Y125.853
G1 X117.155 Y119.529 E129.3532
G1 X116.618 Y119.529
G1 X110.573 Y125.853 E129.6442
G1 X110.037 Y125.853
G1 X116.082 Y119.529 E129.9352
G1 X115.546 Y119.529
G1 X109.500 Y125.853 E130.2262
G1 X108.964 Y125.853
G1 X115.009 Y119.529 E130.5171
G1 X114.473 Y119.529
G1 X108.428 Y125.853 E130.8081
G1 X107.891 Y125.853
G1 X113.936 Y119.529 E131.0991
G1 X113.400 Y119.529
G1 X107.355 Y125.853 E131.3900
G1 X106.819 Y125.853
G1 X112.864 Y119.529 E131.6810
G1 X112.327 Y119.529
G1 X106.282 Y125.853 E131.9720
G1 X105.746 Y125.853
G1 X111.791 Y119.529 E132.2629
G1 X111.254 Y119.529
G1 X105.209 Y125.853 E132.5539
G1 X104.673 Y125.853
G1 X110.718 Y119.529 E132.8449
G1 X110.182 Y119.529
G1 X102.105 Y127.977 E133.2336
G1 X101.696 Y127.844
G1 X109.645 Y119.529 E133.6162
G1 X109.109 Y119.529
G1 X101.235 Y127.766 E133.9953
G1 X100.684 Y127.781
G1 X108.573 Y119.529 E134.3750
G1 X108.036 Y119.529
G1 X99.983 Y127.953 E134.7626
; ------------------------------------
; Layer #1
; ------------------------------------
G21 ; mm
G90 ; abs
G92 E0 ; reset extr
M106 S255
G0 F4800 E-1.0000
G0 F300 Z0.400
G0 X104.404 Y126.060 F10800
G0 X162.178 Y123.757
G0 F4800 E0.0000
;segType:HShell
G1 X158.136 Y119.529 E0.1946 F3600
G1 X158.672 Y119.529
G1 X162.178 Y123.196 E0.3633
G1 X162.178 Y122.635
G1 X159.209 Y119.529 E0.5062
;segType:Perimeter
G0 X158.919 Y119.501 F10800
G1 X159.180 Y118.841 E0.5299 F2159
G1 X159.180 Y101.905 E1.0932
G1 X162.778 Y101.905 E1.2128
G1 X162.778 Y129.888 E2.1435
G1 X162.765 Y130.986 E2.1801
G1 X162.721 Y131.326 E2.1915
G1 X162.591 Y131.857 E2.2096
G1 X162.428 Y132.273 E2.2245
G1 X162.272 Y132.579 E2.2359
G1 X161.995 Y132.992 E2.2525
G1 X161.703 Y133.328 E2.2673
G1 X161.346 Y133.651 E2.2833
G1 X161.051 Y133.863 E2.2954
G1 X160.664 Y134.085 E2.3102
G1 X160.202 Y134.277 E2.3268
G1 X159.773 Y134.393 E2.3416
G1 X159.326 Y134.460 E2.3567
G1 X158.982 Y134.478 E2.3681
G1 X158.483 Y134.445 E2.3848
G1 X158.044 Y134.360 E2.3996
G1 X157.585 Y134.211 E2.4157
G1 X157.254 Y134.062 E2.4278
G1 X156.869 Y133.838 E2.4426
G1 X156.472 Y133.534 E2.4592
G1 X156.157 Y133.221 E2.4740
G1 X155.877 Y132.869 E2.4889
G1 X155.690 Y132.581 E2.5003
G1 X155.471 Y132.135 E2.5169
G1 X155.326 Y131.715 E2.5316
G1 X155.227 Y131.248 E2.5475
G1 X155.182 Y130.680 E2.5665
G1 X155.182 Y126.480 E2.7062
G1 X104.807 Y126.480 E4.3817
G1 X104.807 Y130.682 E4.5214
G1 X104.773 Y131.182 E4.5381
G1 X104.677 Y131.667 E4.5545
G1 X104.518 Y132.136 E4.5710
G1 X104.323 Y132.536 E4.5858
G1 X104.062 Y132.939 E4.6018
G1 X103.833 Y133.220 E4.6138
G1 X103.517 Y133.534 E4.6286
G1 X103.120 Y133.838 E4.6453
G1 X102.737 Y134.062 E4.6600
G1 X102.323 Y134.242 E4.6750
G1 X101.995 Y134.348 E4.6865
G1 X101.505 Y134.445 E4.7031
G1 X101.059 Y134.477 E4.7180
G1 X100.577 Y134.451 E4.7340
G1 X100.217 Y134.394 E4.7461
G1 X99.787 Y134.277 E4.7610
G1 X99.324 Y134.085 E4.7776
G1 X98.939 Y133.864 E4.7924
G1 X98.577 Y133.596 E4.8074
G1 X98.321 Y133.366 E4.8188
G1 X97.993 Y132.991 E4.8354
G1 X97.744 Y132.623 E4.8502
G1 X97.526 Y132.195 E4.8662
G1 X97.397 Y131.857 E4.8782
G1 X97.284 Y131.428 E4.8930
G1 X97.219 Y130.934 E4.9095
G1 X97.211 Y129.888 E4.9443
G1 X97.211 Y101.905 E5.8750
G1 X100.808 Y101.905 E5.9947
G1 X100.808 Y118.901 E6.5600
G1 X159.123 Y118.901 E8.4995
G1 X159.754 Y118.628
;segType:Loop
G0 X159.581 Y117.810 F10800
G1 X159.581 Y102.324 E9.0146 F3600
G1 X162.378 Y102.324 E9.1077
G1 X162.378 Y129.885 E10.0244
G1 X162.365 Y130.956 E10.0600
G1 X162.328 Y131.247 E10.0697
G1 X162.211 Y131.725 E10.0861
G1 X162.065 Y132.095 E10.0993
G1 X161.930 Y132.359 E10.1092
G1 X161.682 Y132.730 E10.1241
G1 X161.423 Y133.028 E10.1372
G1 X161.101 Y133.319 E10.1516
G1 X160.841 Y133.507 E10.1623
G1 X160.494 Y133.705 E10.1756
G1 X160.078 Y133.878 E10.1906
G1 X159.694 Y133.982 E10.2038
G1 X159.287 Y134.043 E10.2175
G1 X158.985 Y134.059 E10.2276
G1 X158.532 Y134.029 E10.2426
G1 X158.140 Y133.953 E10.2559
G1 X157.724 Y133.818 E10.2705
G1 X157.430 Y133.686 E10.2812
G1 X157.085 Y133.485 E10.2945
G1 X156.729 Y133.212 E10.3094
G1 X156.450 Y132.934 E10.3225
G1 X156.197 Y132.617 E10.3360
G1 X156.035 Y132.367 E10.3459
G1 X155.838 Y131.968 E10.3607
G1 X155.711 Y131.598 E10.3737
G1 X155.623 Y131.185 E10.3877
G1 X155.582 Y130.663 E10.4051
G1 X155.582 Y126.062 E10.5582
G1 X104.407 Y126.062 E12.2603
G1 X104.407 Y130.667 E12.4135
G1 X104.376 Y131.125 E12.4287
G1 X104.291 Y131.554 E12.4433
G1 X104.150 Y131.970 E12.4579
G1 X103.978 Y132.323 E12.4709
G1 X103.743 Y132.685 E12.4853
G1 X103.542 Y132.932 E12.4959
G1 X103.260 Y133.212 E12.5091
G1 X102.904 Y133.485 E12.5241
G1 X102.562 Y133.684 E12.5372
G1 X102.186 Y133.848 E12.5508
G1 X101.898 Y133.942 E12.5609
G1 X101.454 Y134.029 E12.5760
G1 X101.055 Y134.057 E12.5893
G1 X100.617 Y134.035 E12.6039
G1 X100.298 Y133.983 E12.6146
G1 X99.911 Y133.878 E12.6279
G1 X99.495 Y133.705 E12.6429
G1 X99.151 Y133.509 E12.6561
G1 X98.823 Y133.266 E12.6697
G1 X98.600 Y133.065 E12.6797
G1 X98.305 Y132.728 E12.6945
G1 X98.085 Y132.403 E12.7076
G1 X97.889 Y132.018 E12.7220
G1 X97.777 Y131.723 E12.7325
G1 X97.677 Y131.343 E12.7456
G1 X97.619 Y130.904 E12.7603
G1 X97.611 Y129.886 E12.7941
G1 X97.611 Y102.324 E13.7109
G1 X100.408 Y102.324 E13.8039
G1 X100.408 Y119.319 E14.3692
G1 X159.581 Y119.319 E16.3373
G1 X159.581 Y118.008 E16.3809
;segType:HShell
G0 X152.772 Y119.529 F10800
G1 X162.178 Y129.368 E16.8336 F3600
G1 X162.177 Y129.929
G1 X161.448 Y129.166 E16.8687
;segType:Perimeter
G0 X161.534 Y129.560 F10800
G1 X161.220 Y130.194 E16.8923 F2159
G1 X161.272 Y130.521 E16.9033
G1 X161.258 Y130.985 E16.9187
G1 X161.177 Y131.367 E16.9317
G1 X160.997 Y131.793 E16.9471
G1 X160.784 Y132.119 E16.9601
G1 X160.463 Y132.451 E16.9754
G1 X160.148 Y132.676 E16.9883
G1 X159.730 Y132.869 E17.0036
G1 X159.356 Y132.965 E17.0164
G1 X158.899 Y132.994 E17.0317
G1 X158.515 Y132.949 E17.0445
G1 X158.077 Y132.810 E17.0598
G1 X157.735 Y132.629 E17.0727
G1 X157.376 Y132.340 E17.0880
G1 X157.122 Y132.046 E17.1009
G1 X156.890 Y131.646 E17.1163
G1 X156.758 Y131.279 E17.1293
G1 X156.687 Y130.820 E17.1447
G1 X156.697 Y130.429 E17.1577
G1 X156.795 Y129.976 E17.1732
G1 X156.945 Y129.616 E17.1861
G1 X157.201 Y129.230 E17.2015
G1 X157.469 Y128.950 E17.2144
G1 X157.845 Y128.684 E17.2298
G1 X158.195 Y128.520 E17.2426
G1 X158.640 Y128.407 E17.2579
G1 X159.025 Y128.381 E17.2707
G1 X159.481 Y128.438 E17.2860
G1 X159.850 Y128.552 E17.2988
G1 X160.255 Y128.770 E17.3141
G1 X160.559 Y129.011 E17.3270
G1 X160.859 Y129.362 E17.3424
G1 X161.056 Y129.698 E17.3553
G1 X161.190 Y130.079 E17.3688
G1 X161.764 Y130.466
;segType:Loop
G0 X161.600 Y131.306 F10800
G1 X161.559 Y131.498 E17.3753 F3600
G1 X161.348 Y131.998 E17.3934
G1 X161.092 Y132.389 E17.4089
G1 X160.718 Y132.775 E17.4268
G1 X160.343 Y133.044 E17.4421
G1 X159.860 Y133.267 E17.4598
G1 X159.416 Y133.381 E17.4751
G1 X158.888 Y133.414 E17.4927
G1 X158.434 Y133.360 E17.5079
G1 X157.928 Y133.200 E17.5255
G1 X157.521 Y132.984 E17.5408
G1 X157.104 Y132.649 E17.5586
G1 X156.800 Y132.298 E17.5741
G1 X156.529 Y131.829 E17.5921
G1 X156.370 Y131.387 E17.6077
G1 X156.286 Y130.849 E17.6258
G1 X156.298 Y130.377 E17.6415
G1 X156.414 Y129.845 E17.6596
G1 X156.594 Y129.411 E17.6753
G1 X156.892 Y128.961 E17.6932
G1 X157.214 Y128.626 E17.7087
G1 X157.649 Y128.317 E17.7264
G1 X158.066 Y128.122 E17.7417
G1 X158.580 Y127.992 E17.7594
G1 X159.036 Y127.961 E17.7746
G1 X159.562 Y128.026 E17.7922
G1 X159.999 Y128.163 E17.8074
G1 X160.469 Y128.414 E17.8252
G1 X160.831 Y128.702 E17.8405
G1 X161.181 Y129.111 E17.8584
G1 X161.418 Y129.514 E17.8740
G1 X161.598 Y130.027 E17.8921
G1 X161.673 Y130.492 E17.9077
G1 X161.657 Y131.037 E17.9259
G1 X161.641 Y131.112 E17.9284
G0 X159.385 Y133.162 F10800
G0 X158.007 Y132.994
G0 X156.970 Y132.165
G0 X155.344 Y128.506
G0 X155.316 Y126.340
G0 X97.811 Y126.000
;segType:HShell
G1 X99.766 Y128.046 E18.0226 F3600
G1 X99.421 Y128.246
G1 X97.811 Y126.561 E18.1001
G1 X97.811 Y127.123
G1 X99.103 Y128.475 E18.1623
G1 X98.835 Y128.755
G1 X97.811 Y127.684 E18.2116
G1 X97.811 Y128.245
G1 X98.603 Y129.073 E18.2497
G1 X98.400 Y129.422
G1 X97.811 Y128.806 E18.2781
G1 X97.811 Y129.367
G1 X98.243 Y129.819 E18.2988
G1 X98.143 Y130.276
G1 X97.811 Y129.928 E18.3148
G1 X97.816 Y130.494
G1 X98.116 Y130.808 E18.3293
G1 X98.216 Y131.474
G1 X97.845 Y131.086 E18.3471
;segType:Perimeter
G0 X98.293 Y131.320 F10800
G1 X98.717 Y130.761 E18.3705 F2159
G1 X98.725 Y130.429 E18.3815
G1 X98.824 Y129.976 E18.3969
G1 X98.974 Y129.616 E18.4099
G1 X99.229 Y129.230 E18.4253
G1 X99.498 Y128.950 E18.4382
G1 X99.873 Y128.684 E18.4535
G1 X100.224 Y128.520 E18.4664
G1 X100.669 Y128.407 E18.4816
G1 X101.054 Y128.381 E18.4945
G1 X101.509 Y128.438 E18.5097
G1 X101.878 Y128.552 E18.5226
G1 X102.283 Y128.770 E18.5379
G1 X102.587 Y129.011 E18.5508
G1 X102.888 Y129.362 E18.5661
G1 X103.084 Y129.698 E18.5791
G1 X103.239 Y130.135 E18.5945
G1 X103.301 Y130.521 E18.6075
G1 X103.287 Y130.985 E18.6229
G1 X103.205 Y131.367 E18.6360
G1 X103.025 Y131.793 E18.6513
G1 X102.812 Y132.119 E18.6643
G1 X102.491 Y132.451 E18.6796
G1 X102.176 Y132.676 E18.6925
G1 X101.759 Y132.869 E18.7078
G1 X101.385 Y132.965 E18.7207
G1 X100.927 Y132.994 E18.7359
G1 X100.544 Y132.949 E18.7488
G1 X100.106 Y132.810 E18.7640
G1 X99.764 Y132.629 E18.7769
G1 X99.405 Y132.340 E18.7922
G1 X99.150 Y132.046 E18.8052
G1 X98.919 Y131.646 E18.8205
G1 X98.787 Y131.279 E18.8335
G1 X98.725 Y130.879 E18.8470
G1 X98.232 Y130.385
;segType:Loop
G0 X98.547 Y129.594 F10800
G1 X98.622 Y129.411 E18.8535 F3600
G1 X98.921 Y128.961 E18.8715
G1 X99.242 Y128.626 E18.8869
G1 X99.678 Y128.317 E18.9047
G1 X100.094 Y128.122 E18.9200
G1 X100.609 Y127.992 E18.9377
G1 X101.064 Y127.961 E18.9528
G1 X101.590 Y128.026 E18.9705
G1 X102.028 Y128.163 E18.9857
G1 X102.498 Y128.414 E19.0034
G1 X102.859 Y128.702 E19.0188
G1 X103.210 Y129.111 E19.0367
G1 X103.446 Y129.514 E19.0523
G1 X103.627 Y130.026 E19.0703
G1 X103.702 Y130.492 E19.0860
G1 X103.685 Y131.037 E19.1041
G1 X103.587 Y131.498 E19.1198
G1 X103.376 Y131.998 E19.1379
G1 X103.121 Y132.389 E19.1534
G1 X102.747 Y132.775 E19.1713
G1 X102.371 Y133.044 E19.1866
G1 X101.888 Y133.267 E19.2043
G1 X101.445 Y133.381 E19.2196
G1 X100.916 Y133.414 E19.2372
G1 X100.462 Y133.360 E19.2524
G1 X99.956 Y133.200 E19.2700
G1 X99.550 Y132.984 E19.2853
G1 X99.132 Y132.649 E19.3031
G1 X98.828 Y132.297 E19.3186
G1 X98.557 Y131.829 E19.3366
G1 X98.398 Y131.387 E19.3522
G1 X98.315 Y130.849 E19.3703
G1 X98.326 Y130.377 E19.3860
G1 X98.442 Y129.845 E19.4041
G1 X98.471 Y129.776 E19.4066
;segType:HShell
G0 X98.042 Y131.853 F10800
G1 X99.665 Y133.551 E19.4848 F3600
G1 X100.126 Y133.472
G1 X100.433 Y133.793 E19.4996
G1 X101.020 Y133.846
G1 X100.794 Y133.610 E19.5104
G1 X101.319 Y133.598
G1 X101.516 Y133.804 E19.5199
G1 X101.956 Y133.704
G1 X101.773 Y133.512 E19.5287
G1 X102.169 Y133.365
G1 X102.347 Y133.551 E19.5373
G1 X102.703 Y133.362
G1 X102.531 Y133.183 E19.5456
G1 X102.850 Y132.955
G1 X103.022 Y133.135 E19.5539
G1 X103.309 Y132.874
G1 X103.123 Y132.680 E19.5628
G1 X103.370 Y132.377
G1 X103.565 Y132.581 E19.5722
G1 X103.784 Y132.249
G1 X103.579 Y132.034 E19.5821
G1 X103.744 Y131.645
G1 X103.968 Y131.880 E19.5929
G1 X104.105 Y131.462
G1 X103.855 Y131.201 E19.6049
G1 X103.896 Y130.683
G1 X104.185 Y130.985 E19.6188
G1 X104.207 Y130.446
G1 X103.835 Y130.057 E19.6367
G0 X103.410 Y129.052 F10800
G1 X104.207 Y129.885 E19.6750 F3600
G1 X104.207 Y129.324
G1 X97.811 Y122.634 E19.9829
G1 X97.811 Y122.073
G1 X104.207 Y128.763 E20.2907
G1 X104.207 Y128.202
G1 X97.811 Y121.512 E20.5986
G1 X97.811 Y120.950
G1 X104.207 Y127.641 E20.9064
G1 X104.207 Y127.080
G1 X97.811 Y120.389 E21.2143
G1 X97.811 Y119.828
G1 X104.207 Y126.519 E21.5221
G1 X104.207 Y125.958
G1 X97.811 Y119.267 E21.8299
G1 X97.811 Y118.706
G1 X104.642 Y125.853 E22.1588
G1 X105.179 Y125.853
G1 X97.811 Y118.145 E22.5134
G1 X97.811 Y117.584
G1 X105.715 Y125.853 E22.8939
G1 X106.252 Y125.853
G1 X97.811 Y117.023 E23.3001
G1 X97.811 Y116.462
G1 X100.208 Y118.970 E23.4155
G1 X100.208 Y118.409
G1 X97.811 Y115.901 E23.5309
G1 X97.811 Y115.339
G1 X100.208 Y117.847 E23.6463
G1 X100.208 Y117.286
G1 X97.811 Y114.778 E23.7617
G1 X97.811 Y114.217
G1 X100.208 Y116.725 E23.8771
G1 X100.208 Y116.164
G1 X97.811 Y113.656 E23.9925
G1 X97.811 Y113.095
G1 X100.208 Y115.603 E24.1079
G1 X100.208 Y115.042
G1 X97.811 Y112.534 E24.2233
G1 X97.811 Y111.973
G1 X100.208 Y114.481 E24.3387
G1 X100.208 Y113.920
G1 X97.811 Y111.412 E24.4541
G1 X97.811 Y110.851
G1 X100.208 Y113.359 E24.5695
G1 X100.208 Y112.797
G1 X97.811 Y110.290 E24.6849
G1 X97.811 Y109.728
G1 X100.208 Y112.236 E24.8003
G1 X100.208 Y111.675
G1 X97.811 Y109.167 E24.9157
G1 X97.811 Y108.606
G1 X100.208 Y111.114 E25.0311
G1 X100.208 Y110.553
G1 X97.811 Y108.045 E25.1465
G1 X97.811 Y107.484
G1 X100.208 Y109.992 E25.2619
G1 X100.208 Y109.431
G1 X97.811 Y106.923 E25.3773
G1 X97.811 Y106.362
G1 X100.208 Y108.870 E25.4927
G1 X100.208 Y108.309
G1 X97.811 Y105.801 E25.6081
G1 X97.811 Y105.240
G1 X100.208 Y107.748 E25.7235
G1 X100.208 Y107.186
G1 X97.811 Y104.678 E25.8389
G1 X97.811 Y104.117
G1 X100.208 Y106.625 E25.9543
G1 X100.208 Y106.064
G1 X97.811 Y103.556 E26.0697
G1 X97.811 Y102.995
G1 X100.208 Y105.503 E26.1851
G1 X100.208 Y104.942
G1 X97.905 Y102.533 E26.2960
G1 X98.442 Y102.533
G1 X100.208 Y104.381 E26.3810
G1 X100.208 Y103.820
G1 X98.978 Y102.533 E26.4402
G1 X99.514 Y102.533
G1 X100.208 Y103.259 E26.4736
G1 X100.208 Y102.698
G1 X100.051 Y102.533 E26.4812
G0 X100.674 Y119.041 F10800
G0 X159.314 Y119.041
G0 X162.178 Y102.997
G1 X161.735 Y102.533 E26.5025 F3600
G1 X161.198 Y102.533
G1 X162.178 Y103.558 E26.5497
G1 X162.178 Y104.119
G1 X160.662 Y102.533 E26.6226
G1 X160.126 Y102.533
G1 X162.178 Y104.680 E26.7214
G1 X162.178 Y105.241
G1 X159.781 Y102.733 E26.8368
G1 X159.781 Y103.294
G1 X162.178 Y105.802 E26.9522
G1 X162.178 Y106.363
G1 X159.781 Y103.855 E27.0676
G1 X159.781 Y104.416
G1 X162.178 Y106.924 E27.1830
G1 X162.178 Y107.485
G1 X159.781 Y104.977 E27.2984
G1 X159.781 Y105.538
G1 X162.178 Y108.046 E27.4138
G1 X162.178 Y108.608
G1 X159.781 Y106.100 E27.5292
G1 X159.781 Y106.661
G1 X162.178 Y109.169 E27.6446
G1 X162.178 Y109.730
G1 X159.781 Y107.222 E27.7600
G1 X159.781 Y107.783
G1 X162.178 Y110.291 E27.8754
G1 X162.178 Y110.852
G1 X159.781 Y108.344 E27.9908
G1 X159.781 Y108.905
G1 X162.178 Y111.413 E28.1062
G1 X162.178 Y111.974
G1 X159.781 Y109.466 E28.2216
G1 X159.781 Y110.027
G1 X162.178 Y112.535 E28.3370
G1 X162.178 Y113.096
G1 X159.781 Y110.588 E28.4524
G1 X159.781 Y111.150
G1 X162.178 Y113.657 E28.5678
G1 X162.178 Y114.219
G1 X159.781 Y111.711 E28.6832
G1 X159.781 Y112.272
G1 X162.178 Y114.780 E28.7986
G1 X162.178 Y115.341
G1 X159.781 Y112.833 E28.9140
G1 X159.781 Y113.394
G1 X162.178 Y115.902 E29.0294
G1 X162.178 Y116.463
G1 X159.781 Y113.955 E29.1448
G1 X159.781 Y114.516
G1 X162.178 Y117.024 E29.2602
G1 X162.178 Y117.585
G1 X159.781 Y115.077 E29.3756
G1 X159.781 Y115.638
G1 X162.178 Y118.146 E29.4910
G1 X162.178 Y118.707
G1 X159.781 Y116.199 E29.6064
G1 X159.781 Y116.761
G1 X162.178 Y119.269 E29.7218
G1 X162.178 Y119.830
G1 X159.781 Y117.322 E29.8372
G1 X159.781 Y117.883
G1 X162.178 Y120.391 E29.9526
G1 X162.178 Y120.952
G1 X159.781 Y118.444 E30.0680
G1 X159.781 Y119.005
G1 X162.178 Y121.513 E30.1834
G1 X162.178 Y122.074
G1 X159.745 Y119.529 E30.3005
G0 X153.308 Y119.529 F10800
G1 X162.178 Y128.807 E30.7274 F3600
G1 X162.178 Y128.246
G1 X153.845 Y119.529 E31.1285
G1 X154.381 Y119.529
G1 X162.178 Y127.685 E31.5038
G1 X162.178 Y127.124
G1 X154.917 Y119.529 E31.8533
G1 X155.454 Y119.529
G1 X162.178 Y126.563 E32.1769
G1 X162.178 Y126.002
G1 X155.990 Y119.529 E32.4748
G1 X156.527 Y119.529
G1 X162.178 Y125.441 E32.7468
G1 X162.178 Y124.880
G1 X157.063 Y119.529 E32.9930
G1 X157.599 Y119.529
G1 X162.178 Y124.318 E33.2134
G0 X161.357 Y131.429 F10800
G0 X160.583 Y132.604
G0 X159.385 Y133.162
G0 X157.562 Y133.518
G1 X156.045 Y131.930 E33.2864 F3600
G1 X155.820 Y131.134
G1 X156.213 Y131.545 E33.3054
G1 X156.086 Y130.851
G1 X155.782 Y130.533 E33.3200
G1 X155.782 Y129.972
G1 X156.107 Y130.312 E33.3356
G1 X156.207 Y129.855
G1 X155.782 Y129.411 E33.3560
G1 X155.782 Y128.850
G1 X156.359 Y129.453 E33.3838
G1 X156.557 Y129.100
G1 X155.782 Y128.289 E33.4211
G1 X155.782 Y127.728
G1 X156.785 Y128.777 E33.4694
G1 X157.054 Y128.497
G1 X155.782 Y127.167 E33.5306
G1 X155.782 Y126.606
G1 X157.368 Y128.264 E33.6069
G1 X157.709 Y128.060
G1 X155.782 Y126.045 E33.6996
G0 X160.687 Y128.865 F10800
G0 X161.815 Y130.110
G1 X162.171 Y130.483 E33.7167 F3600
G1 X162.154 Y131.027
G1 X161.866 Y130.726 E33.7306
G1 X161.819 Y131.237
G1 X162.062 Y131.491 E33.7423
G1 X161.923 Y131.907
G1 X161.702 Y131.676 E33.7529
G1 X161.538 Y132.065
G1 X161.741 Y132.278 E33.7627
G1 X161.519 Y132.607
G1 X161.325 Y132.403 E33.7720
G1 X161.074 Y132.702
G1 X161.261 Y132.898 E33.7810
G1 X160.973 Y133.157
G1 X160.796 Y132.973 E33.7895
G1 X160.478 Y133.201
G1 X160.648 Y133.379 E33.7977
G1 X160.290 Y133.565
G1 X160.112 Y133.379 E33.8063
G1 X159.711 Y133.520
G1 X159.894 Y133.712 E33.8151
G1 X159.449 Y133.808
G1 X159.251 Y133.601 E33.8247
G1 X158.718 Y133.604
G1 X158.950 Y133.847 E33.8359
G1 X158.351 Y133.781
G1 X158.037 Y133.453 E33.8510
G0 X160.240 Y132.850 F10800
G0 X161.162 Y131.890
G0 X161.461 Y130.507
G0 X161.011 Y129.243
G0 X160.542 Y128.218
G1 X152.236 Y119.529 E34.2508 F3600
G1 X151.699 Y119.529
G1 X159.636 Y127.831 E34.6328
G1 X159.024 Y127.752
G1 X151.163 Y119.529 E35.0112
G1 X150.626 Y119.529
G1 X158.525 Y127.791 E35.3913
G1 X158.092 Y127.900
G1 X150.090 Y119.529 E35.7765
G1 X149.554 Y119.529
G1 X155.599 Y125.853 E36.0675
G1 X155.062 Y125.853
G1 X149.017 Y119.529 E36.3585
G1 X148.481 Y119.529
G1 X154.526 Y125.853 E36.6494
G1 X153.990 Y125.853
G1 X147.945 Y119.529 E36.9404
G1 X147.408 Y119.529
G1 X153.453 Y125.853 E37.2314
G1 X152.917 Y125.853
G1 X146.872 Y119.529 E37.5223
G1 X146.335 Y119.529
G1 X152.381 Y125.853 E37.8133
G1 X151.844 Y125.853
G1 X145.799 Y119.529 E38.1043
G1 X145.263 Y119.529
G1 X151.308 Y125.853 E38.3952
G1 X150.771 Y125.853
G1 X144.726 Y119.529 E38.6862
G1 X144.190 Y119.529
G1 X150.235 Y125.853 E38.9772
G1 X149.699 Y125.853
G1 X143.653 Y119.529 E39.2682
G1 X143.117 Y119.529
G1 X149.162 Y125.853 E39.5591
G1 X148.626 Y125.853
G1 X142.581 Y119.529 E39.8501
G1 X142.044 Y119.529
G1 X148.089 Y125.853 E40.1411
G1 X147.553 Y125.853
G1 X141.508 Y119.529 E40.4320
G1 X140.972 Y119.529
G1 X147.017 Y125.853 E40.7230
G1 X146.480 Y125.853
G1 X140.435 Y119.529 E41.0140
G1 X139.899 Y119.529
G1 X145.944 Y125.853 E41.3049
G1 X145.408 Y125.853
G1 X139.362 Y119.529 E41.5959
G1 X138.826 Y119.529
G1 X144.871 Y125.853 E41.8869
G1 X144.335 Y125.853
G1 X138.290 Y119.529 E42.1779
G1 X137.753 Y119.529
G1 X143.798 Y125.853 E42.4688
G1 X143.262 Y125.853
G1 X137.217 Y119.529 E42.7598
G1 X136.680 Y119.529
G1 X142.726 Y125.853 E43.0508
G1 X142.189 Y125.853
G1 X136.144 Y119.529 E43.3417
G1 X135.608 Y119.529
G1 X141.653 Y125.853 E43.6327
G1 X141.116 Y125.853
G1 X135.071 Y119.529 E43.9237
G1 X134.535 Y119.529
G1 X140.580 Y125.853 E44.2146
G1 X140.044 Y125.853
G1 X133.999 Y119.529 E44.5056
G1 X133.462 Y119.529
G1 X139.507 Y125.853 E44.7966
G1 X138.971 Y125.853
G1 X132.926 Y119.529 E45.0876
G1 X132.389 Y119.529
G1 X138.435 Y125.853 E45.3785
G1 X137.898 Y125.853
G1 X131.853 Y119.529 E45.6695
G1 X131.317 Y119.529
G1 X137.362 Y125.853 E45.9605
G1 X136.825 Y125.853
G1 X130.780 Y119.529 E46.2514
G1 X130.244 Y119.529
G1 X136.289 Y125.853 E46.5424
G1 X135.753 Y125.853
G1 X129.707 Y119.529 E46.8334
G1 X129.171 Y119.529
G1 X135.216 Y125.853 E47.1243
G1 X134.680 Y125.853
G1 X128.635 Y119.529 E47.4153
G1 X128.098 Y119.529
G1 X134.144 Y125.853 E47.7063
G1 X133.607 Y125.853
G1 X127.562 Y119.529 E47.9973
G1 X127.026 Y119.529
G1 X133.071 Y125.853 E48.2882
G1 X132.534 Y125.853
G1 X126.489 Y119.529 E48.5792
G1 X125.953 Y119.529
G1 X131.998 Y125.853 E48.8702
G1 X131.462 Y125.853
G1 X125.416 Y119.529 E49.1611
G1 X124.880 Y119.529
G1 X130.925 Y125.853 E49.4521
G1 X130.389 Y125.853
G1 X124.344 Y119.529 E49.7431
G1 X123.807 Y119.529
G1 X129.852 Y125.853 E50.0340
G1 X129.316 Y125.853
G1 X123.271 Y119.529 E50.3250
G1 X122.735 Y119.529
G1 X128.780 Y125.853 E50.6160
G1 X128.243 Y125.853
G1 X122.198 Y119.529 E50.9069
G1 X121.662 Y119.529
G1 X127.707 Y125.853 E51.1979
G1 X127.171 Y125.853
G1 X121.125 Y119.529 E51.4889
G1 X120.589 Y119.529
G1 X126.634 Y125.853 E51.7799
G1 X126.098 Y125.853
G1 X120.053 Y119.529 E52.0708
G1 X119.516 Y119.529
G1 X125.561 Y125.853 E52.3618
G1 X125.025 Y125.853
G1 X118.980 Y119.529 E52.6528
G1 X118.443 Y119.529
G1 X124.489 Y125.853 E52.9437
G1 X123.952 Y125.853
G1 X117.907 Y119.529 E53.2347
G1 X117.371 Y119.529
G1 X123.416 Y125.853 E53.5257
G1 X122.879 Y125.853
G1 X116.834 Y119.529 E53.8166
G1 X116.298 Y119.529
G1 X122.343 Y125.853 E54.1076
G1 X121.807 Y125.853
G1 X115.762 Y119.529 E54.3986
G1 X115.225 Y119.529
G1 X121.270 Y125.853 E54.6896
G1 X120.734 Y125.853
G1 X114.689 Y119.529 E54.9805
G1 X114.152 Y119.529
G1 X120.198 Y125.853 E55.2715
G1 X119.661 Y125.853
G1 X113.616 Y119.529 E55.5625
G1 X113.080 Y119.529
G1 X119.125 Y125.853 E55.8534
G1 X118.588 Y125.853
G1 X112.543 Y119.529 E56.1444
G1 X112.007 Y119.529
G1 X118.052 Y125.853 E56.4354
G1 X117.516 Y125.853
G1 X111.470 Y119.529 E56.7263
G1 X110.934 Y119.529
G1 X116.979 Y125.853 E57.0173
G1 X116.443 Y125.853
G1 X110.398 Y119.529 E57.3083
G1 X109.861 Y119.529
G1 X115.906 Y125.853 E57.5993
G1 X115.370 Y125.853
G1 X109.325 Y119.529 E57.8902
G1 X108.789 Y119.529
G1 X114.834 Y125.853 E58.1812
G1 X114.297 Y125.853
G1 X108.252 Y119.529 E58.4722
G1 X107.716 Y119.529
G1 X113.761 Y125.853 E58.7631
G1 X113.225 Y125.853
G1 X107.179 Y119.529 E59.0541
G1 X106.643 Y119.529
G1 X112.688 Y125.853 E59.3451
G1 X112.152 Y125.853
G1 X106.107 Y119.529 E59.6360
G1 X105.570 Y119.529
G1 X111.615 Y125.853 E59.9270
G1 X111.079 Y125.853
G1 X105.034 Y119.529 E60.2180
G1 X104.498 Y119.529
G1 X110.543 Y125.853 E60.5090
G1 X110.006 Y125.853
G1 X103.961 Y119.529 E60.7999
G1 X103.425 Y119.529
G1 X109.470 Y125.853 E61.0909
G1 X108.933 Y125.853
G1 X102.888 Y119.529 E61.3819
G1 X102.352 Y119.529
G1 X108.397 Y125.853 E61.6728
G1 X107.861 Y125.853
G1 X101.816 Y119.529 E61.9638
G1 X101.279 Y119.529
G1 X107.324 Y125.853 E62.2548
G1 X106.788 Y125.853
G1 X100.743 Y119.529 E62.5457
G0 X97.811 Y125.439 F10800
G1 X100.155 Y127.891 E62.6586 F3600
G1 X100.588 Y127.784
G1 X97.811 Y124.878 E62.7923
G1 X97.811 Y124.317
G1 X101.097 Y127.755 E62.9504
G1 X101.724 Y127.850
G1 X97.811 Y123.756 E63.1388
G1 X97.811 Y123.195
G1 X102.713 Y128.323 E63.3748
G0 F4800 E62.3748
G0 X153.049 Y91.042 F10800
G0 X161.438 Y84.829
G0 F4800 E63.3748
G1 X159.041 Y82.321 E63.4902 F3600
G1 X158.816 Y82.647
G1 X161.438 Y85.390 E63.6164
G1 X161.438 Y85.951
G1 X158.280 Y82.647 E63.7684
;segType:Perimeter
G0 X158.179 Y82.619 F10800
G1 X158.441 Y81.960 E63.7920 F2159
G1 X158.441 Y65.023 E64.3553
G1 X162.039 Y65.023 E64.4750
G1 X162.039 Y93.800 E65.4321
G1 X162.006 Y94.300 E65.4488
G1 X161.909 Y94.786 E65.4652
G1 X161.750 Y95.254 E65.4817
G1 X161.555 Y95.654 E65.4965
G1 X161.294 Y96.057 E65.5125
G1 X161.065 Y96.338 E65.5245
G1 X160.749 Y96.652 E65.5393
G1 X160.353 Y96.956 E65.5559
G1 X159.969 Y97.180 E65.5707
G1 X159.555 Y97.360 E65.5857
G1 X159.227 Y97.466 E65.5972
G1 X158.737 Y97.563 E65.6138
G1 X158.291 Y97.595 E65.6287
G1 X157.809 Y97.570 E65.6447
G1 X157.450 Y97.512 E65.6568
G1 X157.019 Y97.395 E65.6717
G1 X156.557 Y97.203 E65.6883
G1 X156.171 Y96.982 E65.7031
G1 X155.809 Y96.714 E65.7181
G1 X155.553 Y96.484 E65.7295
G1 X155.225 Y96.110 E65.7461
G1 X154.976 Y95.741 E65.7609
G1 X154.758 Y95.313 E65.7769
G1 X154.630 Y94.975 E65.7889
G1 X154.516 Y94.546 E65.8037
G1 X154.451 Y94.049 E65.8203
G1 X154.444 Y93.855 E65.8268
G1 X154.442 Y89.598 E65.9683
G1 X104.067 Y89.598 E67.6438
G1 X104.067 Y93.800 E67.7836
G1 X104.034 Y94.300 E67.8003
G1 X103.938 Y94.786 E67.8167
G1 X103.778 Y95.254 E67.8332
G1 X103.584 Y95.654 E67.8480
G1 X103.322 Y96.057 E67.8639
G1 X103.093 Y96.338 E67.8760
G1 X102.777 Y96.652 E67.8908
G1 X102.381 Y96.956 E67.9074
G1 X101.997 Y97.180 E67.9222
G1 X101.583 Y97.360 E67.9372
G1 X101.255 Y97.466 E67.9487
G1 X100.766 Y97.563 E67.9653
G1 X100.319 Y97.595 E67.9802
G1 X99.837 Y97.570 E67.9962
G1 X99.478 Y97.512 E68.0083
G1 X99.047 Y97.395 E68.0232
G1 X98.585 Y97.203 E68.0398
G1 X98.199 Y96.982 E68.0546
G1 X97.837 Y96.714 E68.0696
G1 X97.581 Y96.484 E68.0810
G1 X97.254 Y96.110 E68.0976
G1 X97.005 Y95.741 E68.1124
G1 X96.786 Y95.313 E68.1283
G1 X96.658 Y94.975 E68.1404
G1 X96.545 Y94.546 E68.1551
G1 X96.479 Y94.052 E68.1717
G1 X96.471 Y93.006 E68.2065
G1 X96.471 Y65.023 E69.1372
G1 X100.069 Y65.023 E69.2569
G1 X100.069 Y82.019 E69.8221
G1 X158.384 Y82.019 E71.7617
G1 X159.015 Y81.746
;segType:Loop
G0 X158.841 Y80.928 F10800
G1 X158.841 Y65.442 E72.2768 F3600
G1 X161.639 Y65.442 E72.3698
G1 X161.639 Y93.785 E73.3125
G1 X161.608 Y94.243 E73.3278
G1 X161.523 Y94.672 E73.3424
G1 X161.382 Y95.088 E73.3570
G1 X161.210 Y95.441 E73.3700
G1 X160.975 Y95.803 E73.3844
G1 X160.774 Y96.050 E73.3950
G1 X160.492 Y96.330 E73.4082
G1 X160.136 Y96.603 E73.4231
G1 X159.794 Y96.802 E73.4363
G1 X159.418 Y96.966 E73.4499
G1 X159.130 Y97.060 E73.4600
G1 X158.686 Y97.148 E73.4750
G1 X158.288 Y97.176 E73.4883
G1 X157.849 Y97.153 E73.5029
G1 X157.531 Y97.102 E73.5137
G1 X157.143 Y96.996 E73.5270
G1 X156.727 Y96.824 E73.5420
G1 X156.383 Y96.627 E73.5552
G1 X156.055 Y96.384 E73.5688
G1 X155.832 Y96.183 E73.5787
G1 X155.537 Y95.847 E73.5936
G1 X155.318 Y95.521 E73.6067
G1 X155.122 Y95.136 E73.6210
G1 X155.009 Y94.841 E73.6315
G1 X154.909 Y94.461 E73.6446
G1 X154.844 Y93.848 E73.6651
G1 X154.842 Y89.180 E73.8204
G1 X103.667 Y89.180 E75.5225
G1 X103.667 Y93.785 E75.6757
G1 X103.637 Y94.243 E75.6909
G1 X103.552 Y94.672 E75.7055
G1 X103.410 Y95.088 E75.7201
G1 X103.239 Y95.441 E75.7331
G1 X103.003 Y95.803 E75.7475
G1 X102.803 Y96.050 E75.7581
G1 X102.520 Y96.330 E75.7713
G1 X102.164 Y96.603 E75.7862
G1 X101.822 Y96.802 E75.7994
G1 X101.447 Y96.966 E75.8130
G1 X101.159 Y97.060 E75.8231
G1 X100.715 Y97.148 E75.8381
G1 X100.316 Y97.176 E75.8514
G1 X99.878 Y97.153 E75.8660
G1 X99.559 Y97.102 E75.8768
G1 X99.172 Y96.996 E75.8901
G1 X98.755 Y96.824 E75.9051
G1 X98.411 Y96.627 E75.9183
G1 X98.083 Y96.384 E75.9319
G1 X97.860 Y96.183 E75.9418
G1 X97.566 Y95.847 E75.9567
G1 X97.346 Y95.521 E75.9698
G1 X97.150 Y95.136 E75.9842
G1 X97.037 Y94.842 E75.9946
G1 X96.937 Y94.461 E76.0077
G1 X96.879 Y94.022 E76.0225
G1 X96.871 Y93.004 E76.0563
G1 X96.871 Y65.442 E76.9730
G1 X99.669 Y65.442 E77.0661
G1 X99.669 Y82.438 E77.6314
G1 X158.841 Y82.438 E79.5995
G1 X158.841 Y81.126 E79.6431
G0 X155.758 Y93.952 F10800
G0 X156.230 Y95.283
G0 X157.765 Y96.697
;segType:HShell
G1 X158.009 Y96.952 E79.6548 F3600
G1 X158.542 Y96.948
G1 X158.333 Y96.730 E79.6648
G1 X158.820 Y96.678
G1 X159.005 Y96.872 E79.6737
G1 X159.416 Y96.740
G1 X159.241 Y96.558 E79.6821
G1 X159.613 Y96.386
G1 X159.787 Y96.567 E79.6905
G1 X160.121 Y96.356
G1 X159.944 Y96.171 E79.6990
G1 X160.239 Y95.918
G1 X160.423 Y96.110 E79.7078
G1 X160.691 Y95.830
G1 X160.508 Y95.639 E79.7166
G1 X160.726 Y95.306
G1 X160.923 Y95.511 E79.7261
G1 X161.123 Y95.159
G1 X160.905 Y94.931 E79.7366
G1 X161.045 Y94.517
G1 X161.280 Y94.763 E79.7479
G1 X161.390 Y94.316
G1 X161.121 Y94.036 E79.7608
G1 X161.114 Y93.467
G1 X161.437 Y93.805 E79.7763
G1 X161.438 Y93.245
G1 X160.914 Y92.696 E79.8016
;segType:Perimeter
G0 X160.794 Y92.678 F10800
G1 X160.480 Y93.312 E79.8251 F2159
G1 X160.533 Y93.639 E79.8361
G1 X160.519 Y94.103 E79.8516
G1 X160.437 Y94.485 E79.8646
G1 X160.257 Y94.911 E79.8800
G1 X160.044 Y95.237 E79.8929
G1 X159.723 Y95.569 E79.9083
G1 X159.408 Y95.794 E79.9212
G1 X158.991 Y95.987 E79.9364
G1 X158.617 Y96.084 E79.9493
G1 X158.159 Y96.112 E79.9645
G1 X157.776 Y96.067 E79.9774
G1 X157.338 Y95.928 E79.9927
G1 X156.996 Y95.747 E80.0055
G1 X156.637 Y95.458 E80.0209
G1 X156.382 Y95.165 E80.0338
G1 X156.151 Y94.764 E80.0492
G1 X156.019 Y94.397 E80.0622
G1 X155.948 Y93.938 E80.0776
G1 X155.957 Y93.547 E80.0906
G1 X156.056 Y93.094 E80.1060
G1 X156.206 Y92.734 E80.1190
G1 X156.461 Y92.348 E80.1344
G1 X156.730 Y92.068 E80.1473
G1 X157.105 Y91.802 E80.1626
G1 X157.456 Y91.638 E80.1755
G1 X157.901 Y91.526 E80.1907
G1 X158.286 Y91.500 E80.2036
G1 X158.742 Y91.556 E80.2188
G1 X159.110 Y91.671 E80.2317
G1 X159.516 Y91.888 E80.2470
G1 X159.819 Y92.129 E80.2599
G1 X160.120 Y92.480 E80.2752
G1 X160.316 Y92.816 E80.2882
G1 X160.451 Y93.197 E80.3016
G1 X161.025 Y93.583
;segType:Loop
G0 X160.860 Y94.424 F10800
G1 X160.819 Y94.616 E80.3082 F3600
G1 X160.608 Y95.116 E80.3262
G1 X160.352 Y95.507 E80.3418
G1 X159.979 Y95.893 E80.3596
G1 X159.604 Y96.162 E80.3750
G1 X159.120 Y96.385 E80.3927
G1 X158.677 Y96.499 E80.4079
G1 X158.149 Y96.532 E80.4255
G1 X157.695 Y96.478 E80.4407
G1 X157.188 Y96.318 E80.4584
G1 X156.782 Y96.102 E80.4737
G1 X156.365 Y95.767 E80.4915
G1 X156.060 Y95.416 E80.5070
G1 X155.789 Y94.947 E80.5250
G1 X155.630 Y94.505 E80.5406
G1 X155.547 Y93.967 E80.5587
G1 X155.558 Y93.495 E80.5744
G1 X155.674 Y92.963 E80.5925
G1 X155.855 Y92.529 E80.6081
G1 X156.153 Y92.079 E80.6261
G1 X156.474 Y91.744 E80.6415
G1 X156.910 Y91.435 E80.6593
G1 X157.326 Y91.240 E80.6746
G1 X157.841 Y91.110 E80.6923
G1 X158.297 Y91.079 E80.7075
G1 X158.823 Y91.144 E80.7251
G1 X159.260 Y91.281 E80.7403
G1 X159.730 Y91.532 E80.7580
G1 X160.091 Y91.821 E80.7734
G1 X160.442 Y92.229 E80.7913
G1 X160.678 Y92.633 E80.8069
G1 X160.859 Y93.145 E80.8249
G1 X160.934 Y93.610 E80.8406
G1 X160.918 Y94.155 E80.8588
G1 X160.902 Y94.230 E80.8613
G0 X158.645 Y96.280 F10800
G0 X157.267 Y96.112
G0 X154.640 Y94.032
G0 X154.576 Y89.458
G0 X103.933 Y89.458
G0 X102.949 Y96.209
G0 X98.536 Y96.459
;segType:HShell
G1 X97.497 Y95.373 E80.9113 F3600
G1 X97.590 Y94.909
G1 X97.138 Y94.436 E80.9331
G1 X97.078 Y93.812
G1 X97.401 Y94.150 E80.9486
;segType:Loop
G0 X97.808 Y92.711 F10800
G1 X97.883 Y92.529 E80.9552 F3600
G1 X98.181 Y92.079 E80.9732
G1 X98.503 Y91.744 E80.9886
G1 X98.938 Y91.435 E81.0064
G1 X99.355 Y91.240 E81.0217
G1 X99.869 Y91.110 E81.0393
G1 X100.325 Y91.079 E81.0545
G1 X100.851 Y91.144 E81.0721
G1 X101.288 Y91.281 E81.0874
G1 X101.758 Y91.533 E81.1051
G1 X102.120 Y91.821 E81.1205
G1 X102.470 Y92.229 E81.1384
G1 X102.706 Y92.633 E81.1539
G1 X102.887 Y93.145 E81.1720
G1 X102.962 Y93.611 E81.1877
G1 X102.946 Y94.155 E81.2058
G1 X102.848 Y94.616 E81.2215
G1 X102.636 Y95.116 E81.2395
G1 X102.381 Y95.507 E81.2550
G1 X102.007 Y95.893 E81.2729
G1 X101.632 Y96.162 E81.2883
G1 X101.149 Y96.385 E81.3060
G1 X100.705 Y96.499 E81.3212
G1 X100.176 Y96.532 E81.3388
G1 X99.723 Y96.478 E81.3540
G1 X99.217 Y96.318 E81.3717
G1 X98.810 Y96.102 E81.3870
G1 X98.393 Y95.767 E81.4048
G1 X98.088 Y95.415 E81.4203
G1 X97.818 Y94.947 E81.4383
G1 X97.659 Y94.505 E81.4539
G1 X97.575 Y93.967 E81.4720
G1 X97.587 Y93.495 E81.4877
G1 X97.703 Y92.963 E81.5058
G1 X97.732 Y92.893 E81.5083
;segType:Perimeter
G0 X97.553 Y94.438 F10800
G1 X97.977 Y93.879 E81.5317 F2159
G1 X97.985 Y93.547 E81.5427
G1 X98.084 Y93.094 E81.5581
G1 X98.234 Y92.734 E81.5711
G1 X98.489 Y92.348 E81.5865
G1 X98.758 Y92.068 E81.5994
G1 X99.134 Y91.802 E81.6147
G1 X99.484 Y91.638 E81.6276
G1 X99.929 Y91.526 E81.6428
G1 X100.314 Y91.500 E81.6557
G1 X100.770 Y91.556 E81.6709
G1 X101.139 Y91.671 E81.6838
G1 X101.544 Y91.888 E81.6991
G1 X101.847 Y92.129 E81.7120
G1 X102.148 Y92.480 E81.7273
G1 X102.345 Y92.816 E81.7403
G1 X102.499 Y93.253 E81.7557
G1 X102.561 Y93.639 E81.7687
G1 X102.547 Y94.103 E81.7841
G1 X102.466 Y94.485 E81.7972
G1 X102.285 Y94.911 E81.8125
G1 X102.072 Y95.237 E81.8255
G1 X101.752 Y95.569 E81.8408
G1 X101.437 Y95.794 E81.8537
G1 X101.019 Y95.987 E81.8690
G1 X100.645 Y96.084 E81.8819
G1 X100.187 Y96.112 E81.8971
G1 X99.804 Y96.067 E81.9100
G1 X99.366 Y95.928 E81.9252
G1 X99.024 Y95.747 E81.9381
G1 X98.665 Y95.458 E81.9534
G1 X98.411 Y95.164 E81.9664
G1 X98.179 Y94.764 E81.9817
G1 X98.047 Y94.397 E81.9947
G1 X97.985 Y93.997 E82.0082
G1 X97.492 Y93.503
;segType:HShell
G0 X97.385 Y93.572 F10800
G1 X97.073 Y93.246 E82.0232 F3600
G1 X97.071 Y92.683
G1 X97.468 Y93.098 E82.0423
G1 X97.603 Y92.678
G1 X97.071 Y92.122 E82.0679
G1 X97.071 Y91.561
G1 X97.786 Y92.309 E82.1023
G1 X98.006 Y91.977
G1 X97.071 Y90.999 E82.1473
G1 X97.071 Y90.438
G1 X98.269 Y91.692 E82.2049
G1 X98.569 Y91.444
G1 X97.071 Y89.877 E82.2770
G1 X97.071 Y89.316
G1 X98.896 Y91.225 E82.3649
G1 X99.267 Y91.052
G1 X97.071 Y88.755 E82.4706
G1 X97.071 Y88.194
G1 X99.695 Y90.939 E82.5969
G1 X100.175 Y90.880
G1 X97.071 Y87.633 E82.7463
G1 X97.071 Y87.072
G1 X100.751 Y90.921 E82.9234
G0 X99.469 Y82.285 F10800
G1 X97.071 Y79.777 E83.0388 F3600
G1 X97.071 Y79.216
G1 X99.469 Y81.724 E83.1542
G1 X99.469 Y81.163
G1 X97.071 Y78.655 E83.2696
G1 X97.071 Y78.094
G1 X99.469 Y80.602 E83.3850
G1 X99.469 Y80.041
G1 X97.071 Y77.533 E83.5004
G1 X97.071 Y76.972
G1 X99.469 Y79.480 E83.6158
G1 X99.469 Y78.919
G1 X97.071 Y76.411 E83.7312
G1 X97.071 Y75.850
G1 X99.469 Y78.358 E83.8466
G1 X99.469 Y77.797
G1 X97.071 Y75.289 E83.9619
G1 X97.071 Y74.728
G1 X99.469 Y77.235 E84.0773
G1 X99.469 Y76.674
G1 X97.071 Y74.166 E84.1927
G1 X97.071 Y73.605
G1 X99.469 Y76.113 E84.3081
G1 X99.469 Y75.552
G1 X97.071 Y73.044 E84.4235
G1 X97.071 Y72.483
G1 X99.469 Y74.991 E84.5389
G1 X99.469 Y74.430
G1 X97.071 Y71.922 E84.6543
G1 X97.071 Y71.361
G1 X99.469 Y73.869 E84.7697
G1 X99.469 Y73.308
G1 X97.071 Y70.800 E84.8851
G1 X97.071 Y70.239
G1 X99.469 Y72.747 E85.0005
G1 X99.469 Y72.186
G1 X97.071 Y69.678 E85.1159
G1 X97.071 Y69.116
G1 X99.469 Y71.624 E85.2313
G1 X99.469 Y71.063
G1 X97.071 Y68.555 E85.3467
G1 X97.071 Y67.994
G1 X99.469 Y70.502 E85.4621
G1 X99.469 Y69.941
G1 X97.071 Y67.433 E85.5775
G1 X97.071 Y66.872
G1 X99.469 Y69.380 E85.6929
G1 X99.469 Y68.819
G1 X97.071 Y66.311 E85.8083
G1 X97.071 Y65.750
G1 X99.469 Y68.258 E85.9237
G1 X99.469 Y67.697
G1 X97.513 Y65.651 E86.0178
G1 X98.050 Y65.651
G1 X99.469 Y67.136 E86.0861
G1 X99.469 Y66.575
G1 X98.586 Y65.651 E86.1286
G1 X99.122 Y65.651
G1 X99.469 Y66.013 E86.1453
G0 X99.935 Y82.159 F10800
G0 X158.575 Y82.159
G0 X161.438 Y65.751
G1 X161.343 Y65.651 E86.1499 F3600
G1 X160.806 Y65.651
G1 X161.438 Y66.312 E86.1803
G1 X161.438 Y66.873
G1 X160.270 Y65.651 E86.2366
G1 X159.734 Y65.651
G1 X161.438 Y67.435 E86.3186
G1 X161.438 Y67.996
G1 X159.197 Y65.651 E86.4265
G1 X159.041 Y66.049
G1 X161.438 Y68.557 E86.5419
G1 X161.438 Y69.118
G1 X159.041 Y66.610 E86.6573
G1 X159.041 Y67.171
G1 X161.438 Y69.679 E86.7727
G1 X161.438 Y70.240
G1 X159.041 Y67.732 E86.8881
G1 X159.041 Y68.293
G1 X161.438 Y70.801 E87.0035
G1 X161.438 Y71.362
G1 X159.041 Y68.854 E87.1189
G1 X159.041 Y69.415
G1 X161.438 Y71.923 E87.2343
G1 X161.438 Y72.484
G1 X159.041 Y69.976 E87.3497
G1 X159.041 Y70.538
G1 X161.438 Y73.046 E87.4650
G1 X161.438 Y73.607
G1 X159.041 Y71.099 E87.5804
G1 X159.041 Y71.660
G1 X161.438 Y74.168 E87.6958
G1 X161.438 Y74.729
G1 X159.041 Y72.221 E87.8112
G1 X159.041 Y72.782
G1 X161.438 Y75.290 E87.9266
G1 X161.438 Y75.851
G1 X159.041 Y73.343 E88.0420
G1 X159.041 Y73.904
G1 X161.438 Y76.412 E88.1574
G1 X161.438 Y76.973
G1 X159.041 Y74.465 E88.2728
G1 X159.041 Y75.026
G1 X161.438 Y77.534 E88.3882
G1 X161.438 Y78.095
G1 X159.041 Y75.587 E88.5036
G1 X159.041 Y76.149
G1 X161.438 Y78.657 E88.6190
G1 X161.438 Y79.218
G1 X159.041 Y76.710 E88.7344
G1 X159.041 Y77.271
G1 X161.438 Y79.779 E88.8498
G1 X161.438 Y80.340
G1 X159.041 Y77.832 E88.9652
G1 X159.041 Y78.393
G1 X161.438 Y80.901 E89.0806
G1 X161.438 Y81.462
G1 X159.041 Y78.954 E89.1960
G1 X159.041 Y79.515
G1 X161.438 Y82.023 E89.3114
G1 X161.438 Y82.584
G1 X159.041 Y80.076 E89.4268
G1 X159.041 Y80.637
G1 X161.438 Y83.145 E89.5421
G1 X161.438 Y83.707
G1 X159.041 Y81.199 E89.6575
G1 X159.041 Y81.760
G1 X161.438 Y84.268 E89.7729
G0 X157.744 Y82.647 F10800
G1 X161.438 Y86.512 E89.9508 F3600
G1 X161.438 Y87.073
G1 X157.207 Y82.647 E90.1544
G1 X156.671 Y82.647
G1 X161.438 Y87.634 E90.3839
G1 X161.438 Y88.195
G1 X156.135 Y82.647 E90.6392
G1 X155.598 Y82.647
G1 X161.438 Y88.756 E90.9203
G1 X161.438 Y89.318
G1 X155.062 Y82.647 E91.2273
G1 X154.525 Y82.647
G1 X161.438 Y89.879 E91.5600
G1 X161.438 Y90.440
G1 X153.989 Y82.647 E91.9186
G1 X153.453 Y82.647
G1 X161.438 Y91.001 E92.3030
G1 X161.438 Y91.562
G1 X152.916 Y82.647 E92.7132
G1 X152.380 Y82.647
G1 X161.438 Y92.123 E93.1492
G1 X161.438 Y92.684
G1 X151.843 Y82.647 E93.6110
G1 X151.307 Y82.647
G1 X159.416 Y91.129 E94.0013
G1 X158.675 Y90.915
G1 X150.771 Y82.647 E94.3818
G1 X150.234 Y82.647
G1 X158.107 Y90.883 E94.7607
G1 X157.633 Y90.947
G1 X149.698 Y82.647 E95.1426
G1 X149.162 Y82.647
G1 X157.209 Y91.066 E95.5300
G1 X156.839 Y91.239
G1 X155.042 Y89.360 E95.6165
G1 X155.043 Y89.921
G1 X156.515 Y91.462 E95.6873
G1 X156.220 Y91.714
G1 X155.043 Y90.483 E95.7440
G1 X155.043 Y91.044
G1 X155.960 Y92.003 E95.7881
G1 X155.741 Y92.335
G1 X155.043 Y91.605 E95.8217
G1 X155.044 Y92.167
G1 X155.562 Y92.709 E95.8466
G1 X155.432 Y93.134
G1 X155.044 Y92.728 E95.8653
G1 X155.044 Y93.290
G1 X155.355 Y93.615 E95.8803
G1 X155.381 Y94.203
G1 X155.046 Y93.853 E95.8964
G1 X155.126 Y94.497
G1 X155.587 Y94.980 E95.9186
G0 X156.990 Y96.447 F10800
G1 X157.366 Y96.841 E95.9367 F3600
G0 X156.374 Y96.363 F10800
G1 X155.549 Y95.501 E95.9764 F3600
G0 X154.670 Y88.971 F10800
G1 X148.625 Y82.647 E96.2674 F3600
G1 X148.089 Y82.647
G1 X154.134 Y88.971 E96.5583
G1 X153.598 Y88.971
G1 X147.552 Y82.647 E96.8493
G1 X147.016 Y82.647
G1 X153.061 Y88.971 E97.1403
G1 X152.525 Y88.971
G1 X146.480 Y82.647 E97.4312
G1 X145.943 Y82.647
G1 X151.988 Y88.971 E97.7222
G1 X151.452 Y88.971
G1 X145.407 Y82.647 E98.0132
G1 X144.870 Y82.647
G1 X150.916 Y88.971 E98.3041
G1 X150.379 Y88.971
G1 X144.334 Y82.647 E98.5951
G1 X143.798 Y82.647
G1 X149.843 Y88.971 E98.8861
G1 X149.306 Y88.971
G1 X143.261 Y82.647 E99.1771
G1 X142.725 Y82.647
G1 X148.770 Y88.971 E99.4680
G1 X148.234 Y88.971
G1 X142.189 Y82.647 E99.7590
G1 X141.652 Y82.647
G1 X147.697 Y88.971 E100.0500
G1 X147.161 Y88.971
G1 X141.116 Y82.647 E100.3409
G1 X140.579 Y82.647
G1 X146.625 Y88.971 E100.6319
G1 X146.088 Y88.971
G1 X140.043 Y82.647 E100.9229
G1 X139.507 Y82.647
G1 X145.552 Y88.971 E101.2138
G1 X145.015 Y88.971
G1 X138.970 Y82.647 E101.5048
G1 X138.434 Y82.647
G1 X144.479 Y88.971 E101.7958
G1 X143.943 Y88.971
G1 X137.897 Y82.647 E102.0868
G1 X137.361 Y82.647
G1 X143.406 Y88.971 E102.3777
G1 X142.870 Y88.971
G1 X136.825 Y82.647 E102.6687
G1 X136.288 Y82.647
G1 X142.334 Y88.971 E102.9597
G1 X141.797 Y88.971
G1 X135.752 Y82.647 E103.2506
G1 X135.216 Y82.647
G1 X141.261 Y88.971 E103.5416
G1 X140.724 Y88.971
G1 X134.679 Y82.647 E103.8326
G1 X134.143 Y82.647
G1 X140.188 Y88.971 E104.1235
G1 X139.652 Y88.971
G1 X133.606 Y82.647 E104.4145
G1 X133.070 Y82.647
G1 X139.115 Y88.971 E104.7055
G1 X138.579 Y88.971
G1 X132.534 Y82.647 E104.9965
G1 X131.997 Y82.647
G1 X138.042 Y88.971 E105.2874
G1 X137.506 Y88.971
G1 X131.461 Y82.647 E105.5784
G1 X130.925 Y82.647
G1 X136.970 Y88.971 E105.8694
G1 X136.433 Y88.971
G1 X130.388 Y82.647 E106.1603
G1 X129.852 Y82.647
G1 X135.897 Y88.971 E106.4513
G1 X135.361 Y88.971
G1 X129.315 Y82.647 E106.7423
G1 X128.779 Y82.647
G1 X134.824 Y88.971 E107.0332
G1 X134.288 Y88.971
G1 X128.243 Y82.647 E107.3242
G1 X127.706 Y82.647
G1 X133.751 Y88.971 E107.6152
G1 X133.215 Y88.971
G1 X127.170 Y82.647 E107.9062
G1 X126.633 Y82.647
G1 X132.679 Y88.971 E108.1971
G1 X132.142 Y88.971
G1 X126.097 Y82.647 E108.4881
G1 X125.561 Y82.647
G1 X131.606 Y88.971 E108.7791
G1 X131.069 Y88.971
G1 X125.024 Y82.647 E109.0700
G1 X124.488 Y82.647
G1 X130.533 Y88.971 E109.3610
G1 X129.997 Y88.971
G1 X123.952 Y82.647 E109.6520
G1 X123.415 Y82.647
G1 X129.460 Y88.971 E109.9429
G1 X128.924 Y88.971
G1 X122.879 Y82.647 E110.2339
G1 X122.342 Y82.647
G1 X128.388 Y88.971 E110.5249
G1 X127.851 Y88.971
G1 X121.806 Y82.647 E110.8159
G1 X121.270 Y82.647
G1 X127.315 Y88.971 E111.1068
G1 X126.778 Y88.971
G1 X120.733 Y82.647 E111.3978
G1 X120.197 Y82.647
G1 X126.242 Y88.971 E111.6888
G1 X125.706 Y88.971
G1 X119.660 Y82.647 E111.9797
G1 X119.124 Y82.647
G1 X125.169 Y88.971 E112.2707
G1 X124.633 Y88.971
G1 X118.588 Y82.647 E112.5617
G1 X118.051 Y82.647
G1 X124.096 Y88.971 E112.8526
G1 X123.560 Y88.971
G1 X117.515 Y82.647 E113.1436
G1 X116.979 Y82.647
G1 X123.024 Y88.971 E113.4346
G1 X122.487 Y88.971
G1 X116.442 Y82.647 E113.7256
G1 X115.906 Y82.647
G1 X121.951 Y88.971 E114.0165
G1 X121.415 Y88.971
G1 X115.369 Y82.647 E114.3075
G1 X114.833 Y82.647
G1 X120.878 Y88.971 E114.5985
G1 X120.342 Y88.971
G1 X114.297 Y82.647 E114.8894
G1 X113.760 Y82.647
G1 X119.805 Y88.971 E115.1804
G1 X119.269 Y88.971
G1 X113.224 Y82.647 E115.4714
G1 X112.688 Y82.647
G1 X118.733 Y88.971 E115.7623
G1 X118.196 Y88.971
G1 X112.151 Y82.647 E116.0533
G1 X111.615 Y82.647
G1 X117.660 Y88.971 E116.3443
G1 X117.124 Y88.971
G1 X111.078 Y82.647 E116.6353
G1 X110.542 Y82.647
G1 X116.587 Y88.971 E116.9262
G1 X116.051 Y88.971
G1 X110.006 Y82.647 E117.2172
G1 X109.469 Y82.647
G1 X115.514 Y88.971 E117.5082
G1 X114.978 Y88.971
G1 X108.933 Y82.647 E117.7991
G1 X108.396 Y82.647
G1 X114.442 Y88.971 E118.0901
G1 X113.905 Y88.971
G1 X107.860 Y82.647 E118.3811
G1 X107.324 Y82.647
G1 X113.369 Y88.971 E118.6720
G1 X112.832 Y88.971
G1 X106.787 Y82.647 E118.9630
G1 X106.251 Y82.647
G1 X112.296 Y88.971 E119.2540
G1 X111.760 Y88.971
G1 X105.715 Y82.647 E119.5450
G1 X105.178 Y82.647
G1 X111.223 Y88.971 E119.8359
G1 X110.687 Y88.971
G1 X104.642 Y82.647 E120.1269
G1 X104.105 Y82.647
G1 X110.151 Y88.971 E120.4179
G1 X109.614 Y88.971
G1 X103.569 Y82.647 E120.7088
G1 X103.033 Y82.647
G1 X109.078 Y88.971 E120.9998
G1 X108.541 Y88.971
G1 X102.496 Y82.647 E121.2908
G1 X101.960 Y82.647
G1 X108.005 Y88.971 E121.5817
G1 X107.469 Y88.971
G1 X101.423 Y82.647 E121.8727
G1 X100.887 Y82.647
G1 X106.932 Y88.971 E122.1637
G1 X106.396 Y88.971
G1 X100.351 Y82.647 E122.4546
G1 X99.814 Y82.647
G1 X105.859 Y88.971 E122.7456
G1 X105.323 Y88.971
G1 X97.071 Y80.339 E123.1428
G1 X97.071 Y80.900
G1 X104.787 Y88.971 E123.5142
G1 X104.250 Y88.971
G1 X97.071 Y81.461 E123.8597
G1 X97.071 Y82.022
G1 X103.714 Y88.971 E124.1795
G1 X103.467 Y89.273
G1 X97.071 Y82.583 E124.4873
G1 X97.071 Y83.144
G1 X103.467 Y89.834 E124.7951
G1 X103.467 Y90.396
G1 X97.071 Y83.705 E125.1030
G1 X97.071 Y84.266
G1 X103.467 Y90.957 E125.4108
G1 X103.467 Y91.518
G1 X97.071 Y84.827 E125.7187
G1 X97.071 Y85.388
G1 X103.467 Y92.079 E126.0265
G1 X103.467 Y92.640
G1 X97.071 Y85.950 E126.3344
G1 X97.071 Y86.511
G1 X101.531 Y91.176 E126.5490
G0 X102.917 Y92.626 F10800
G1 X103.467 Y93.201 E126.5755 F3600
G1 X103.467 Y93.762
G1 X103.133 Y93.413 E126.5916
G1 X103.151 Y93.993
G1 X103.425 Y94.280 E126.6048
G1 X103.320 Y94.730
G1 X103.081 Y94.481 E126.6162
G1 X102.946 Y94.901
G1 X103.165 Y95.130 E126.6268
G1 X102.968 Y95.485
G1 X102.772 Y95.279 E126.6363
G1 X102.554 Y95.613
G1 X102.739 Y95.806 E126.6451
G1 X102.473 Y96.089
G1 X102.289 Y95.896 E126.6540
G1 X101.998 Y96.153
G1 X102.173 Y96.337 E126.6624
G1 X101.842 Y96.551
G1 X101.671 Y96.372 E126.6707
G1 X101.299 Y96.544
G1 X101.474 Y96.727 E126.6791
G1 X101.069 Y96.865
G1 X100.882 Y96.669 E126.6881
G1 X100.401 Y96.727
G1 X100.610 Y96.945 E126.6981
G1 X100.081 Y96.954
G1 X99.841 Y96.703 E126.7097
G1 X99.104 Y96.492
G1 X99.452 Y96.856 E126.7264
; ------------------------------------
; Layer #2
; ------------------------------------
G21 ; mm
G90 ; abs
G92 E0 ; reset extr
M106 S255
G0 F4800 E-1.0000
G0 F300 Z0.600
G0 X101.812 Y97.763 F10800
G0 X158.456 Y119.529
G0 F4800 E0.0000
;segType:HShell
G1 X152.411 Y125.853 E0.2910 F3600
G1 X151.875 Y125.853
G1 X157.920 Y119.529 E0.5819
;segType:Perimeter
G0 X158.919 Y119.501 F10800
G1 X159.180 Y118.841 E0.6055 F2159
G1 X159.180 Y101.905 E1.1689
G1 X162.778 Y101.905 E1.2885
G1 X162.778 Y130.682 E2.2456
G1 X162.745 Y131.182 E2.2623
G1 X162.649 Y131.667 E2.2788
G1 X162.489 Y132.139 E2.2953
G1 X162.389 Y132.359 E2.3034
G1 X162.140 Y132.790 E2.3199
G1 X161.868 Y133.148 E2.3349
G1 X161.670 Y133.364 E2.3446
G1 X161.293 Y133.694 E2.3613
G1 X161.095 Y133.836 E2.3694
G1 X160.664 Y134.085 E2.3860
G1 X160.248 Y134.259 E2.4010
G1 X159.968 Y134.348 E2.4107
G1 X159.474 Y134.446 E2.4275
G1 X159.231 Y134.470 E2.4356
G1 X158.732 Y134.470 E2.4522
G1 X158.284 Y134.412 E2.4672
G1 X157.997 Y134.349 E2.4770
G1 X157.521 Y134.187 E2.4937
G1 X157.299 Y134.087 E2.5018
G1 X156.868 Y133.838 E2.5184
G1 X156.509 Y133.564 E2.5334
G1 X156.293 Y133.367 E2.5431
G1 X155.963 Y132.989 E2.5598
G1 X155.822 Y132.792 E2.5678
G1 X155.573 Y132.362 E2.5844
G1 X155.400 Y131.948 E2.5993
G1 X155.312 Y131.670 E2.6090
G1 X155.216 Y131.182 E2.6255
G1 X155.182 Y130.682 E2.6422
G1 X155.182 Y126.480 E2.7820
G1 X104.807 Y126.480 E4.4575
G1 X104.807 Y130.682 E4.5972
G1 X104.773 Y131.182 E4.6139
G1 X104.677 Y131.667 E4.6303
G1 X104.517 Y132.139 E4.6469
G1 X104.417 Y132.359 E4.6549
G1 X104.169 Y132.790 E4.6715
G1 X103.896 Y133.148 E4.6864
G1 X103.699 Y133.364 E4.6962
G1 X103.321 Y133.694 E4.7128
G1 X103.124 Y133.836 E4.7209
G1 X102.692 Y134.085 E4.7375
G1 X102.276 Y134.259 E4.7525
G1 X101.996 Y134.348 E4.7623
G1 X101.502 Y134.446 E4.7790
G1 X101.259 Y134.470 E4.7871
G1 X100.761 Y134.470 E4.8037
G1 X100.312 Y134.412 E4.8188
G1 X100.026 Y134.349 E4.8285
G1 X99.550 Y134.187 E4.8452
G1 X99.328 Y134.087 E4.8534
G1 X98.896 Y133.838 E4.8699
G1 X98.538 Y133.564 E4.8849
G1 X98.322 Y133.367 E4.8947
G1 X97.991 Y132.989 E4.9113
G1 X97.850 Y132.792 E4.9194
G1 X97.601 Y132.362 E4.9359
G1 X97.428 Y131.947 E4.9509
G1 X97.340 Y131.670 E4.9606
G1 X97.244 Y131.182 E4.9771
G1 X97.211 Y130.682 E4.9938
G1 X97.211 Y101.905 E5.9509
G1 X100.808 Y101.905 E6.0706
G1 X100.808 Y118.901 E6.6358
G1 X159.123 Y118.901 E8.5754
G1 X159.754 Y118.628
;segType:Loop
G0 X159.581 Y117.810 F10800
G1 X159.581 Y102.324 E9.0905 F3600
G1 X162.378 Y102.324 E9.1835
G1 X162.378 Y130.667 E10.1262
G1 X162.348 Y131.125 E10.1415
G1 X162.263 Y131.554 E10.1561
G1 X162.119 Y131.979 E10.1710
G1 X162.036 Y132.161 E10.1776
G1 X161.811 Y132.550 E10.1926
G1 X161.566 Y132.872 E10.2060
G1 X161.397 Y133.057 E10.2144
G1 X161.050 Y133.360 E10.2297
G1 X160.885 Y133.480 E10.2365
G1 X160.492 Y133.706 E10.2516
G1 X160.115 Y133.864 E10.2651
G1 X159.872 Y133.941 E10.2736
G1 X159.418 Y134.031 E10.2890
G1 X159.212 Y134.051 E10.2959
G1 X158.757 Y134.051 E10.3110
G1 X158.350 Y133.999 E10.3247
G1 X158.101 Y133.944 E10.3332
G1 X157.663 Y133.796 E10.3485
G1 X157.476 Y133.711 E10.3554
G1 X157.083 Y133.484 E10.3705
G1 X156.759 Y133.237 E10.3840
G1 X156.573 Y133.067 E10.3924
G1 X156.271 Y132.722 E10.4076
G1 X156.154 Y132.558 E10.4144
G1 X155.929 Y132.169 E10.4293
G1 X155.774 Y131.798 E10.4427
G1 X155.699 Y131.561 E10.4509
G1 X155.613 Y131.125 E10.4657
G1 X155.582 Y130.667 E10.4810
G1 X155.582 Y126.062 E10.6342
G1 X104.407 Y126.062 E12.3363
G1 X104.407 Y130.667 E12.4894
G1 X104.376 Y131.125 E12.5047
G1 X104.291 Y131.554 E12.5193
G1 X104.147 Y131.979 E12.5342
G1 X104.064 Y132.161 E12.5408
G1 X103.840 Y132.550 E12.5558
G1 X103.594 Y132.872 E12.5692
G1 X103.425 Y133.057 E12.5776
G1 X103.079 Y133.360 E12.5929
G1 X102.913 Y133.480 E12.5997
G1 X102.520 Y133.706 E12.6148
G1 X102.143 Y133.864 E12.6284
G1 X101.901 Y133.941 E12.6368
G1 X101.446 Y134.031 E12.6522
G1 X101.240 Y134.051 E12.6591
G1 X100.785 Y134.051 E12.6742
G1 X100.378 Y133.999 E12.6879
G1 X100.129 Y133.944 E12.6964
G1 X99.692 Y133.796 E12.7117
G1 X99.504 Y133.711 E12.7186
G1 X99.111 Y133.484 E12.7337
G1 X98.788 Y133.237 E12.7472
G1 X98.602 Y133.067 E12.7556
G1 X98.299 Y132.722 E12.7708
G1 X98.182 Y132.558 E12.7776
G1 X97.957 Y132.169 E12.7925
G1 X97.802 Y131.797 E12.8059
G1 X97.727 Y131.561 E12.8141
G1 X97.641 Y131.125 E12.8289
G1 X97.611 Y130.667 E12.8442
G1 X97.611 Y102.324 E13.7869
G1 X100.408 Y102.324 E13.8799
G1 X100.408 Y119.319 E14.4452
G1 X159.581 Y119.319 E16.4133
G1 X159.581 Y118.008 E16.4569
;segType:HShell
G0 X160.053 Y127.958 F10800
G1 X162.178 Y125.735 E16.5592 F3600
G1 X162.178 Y126.296
G1 X160.406 Y128.150 E16.6445
G1 X160.739 Y128.363
G1 X162.178 Y126.857 E16.7137
G1 X162.178 Y127.419
G1 X161.028 Y128.622 E16.7691
G1 X161.280 Y128.919
G1 X162.178 Y127.980 E16.8123
G1 X162.178 Y128.541
G1 X161.500 Y129.250 E16.8449
;segType:Perimeter
G0 X161.545 Y129.599 F10800
G1 X161.228 Y130.232 E16.8684 F2159
G1 X161.271 Y130.496 E16.8773
G1 X161.253 Y131.024 E16.8949
G1 X161.185 Y131.343 E16.9058
G1 X160.977 Y131.828 E16.9233
G1 X160.800 Y132.100 E16.9341
G1 X160.432 Y132.476 E16.9516
G1 X160.170 Y132.664 E16.9623
G1 X159.693 Y132.882 E16.9798
G1 X159.381 Y132.962 E16.9905
G1 X158.859 Y132.992 E17.0079
G1 X158.540 Y132.955 E17.0186
G1 X158.041 Y132.794 E17.0360
G1 X157.756 Y132.643 E17.0467
G1 X157.349 Y132.312 E17.0642
G1 X157.136 Y132.067 E17.0750
G1 X156.874 Y131.610 E17.0925
G1 X156.764 Y131.303 E17.1033
G1 X156.685 Y130.780 E17.1209
G1 X156.693 Y130.454 E17.1318
G1 X156.808 Y129.939 E17.1493
G1 X156.933 Y129.638 E17.1602
G1 X157.226 Y129.200 E17.1777
G1 X157.450 Y128.966 E17.1885
G1 X157.880 Y128.664 E17.2059
G1 X158.171 Y128.528 E17.2166
G1 X158.680 Y128.402 E17.2340
G1 X159.001 Y128.380 E17.2447
G1 X159.519 Y128.447 E17.2621
G1 X159.827 Y128.542 E17.2728
G1 X160.287 Y128.792 E17.2903
G1 X160.541 Y128.993 E17.3010
G1 X160.881 Y129.394 E17.3185
G1 X161.046 Y129.675 E17.3293
G1 X161.200 Y130.117 E17.3449
G1 X161.773 Y130.504
;segType:Loop
G0 X161.594 Y131.344 F10800
G1 X161.567 Y131.475 E17.3494 F3600
G1 X161.328 Y132.033 E17.3696
G1 X161.107 Y132.370 E17.3830
G1 X160.687 Y132.800 E17.4030
G1 X160.365 Y133.032 E17.4162
G1 X159.822 Y133.279 E17.4360
G1 X159.441 Y133.377 E17.4491
G1 X158.848 Y133.412 E17.4689
G1 X158.458 Y133.366 E17.4819
G1 X157.891 Y133.183 E17.5017
G1 X157.541 Y132.998 E17.5149
G1 X157.076 Y132.620 E17.5348
G1 X156.813 Y132.317 E17.5482
G1 X156.513 Y131.792 E17.5683
G1 X156.375 Y131.410 E17.5818
G1 X156.285 Y130.808 E17.6020
G1 X156.294 Y130.400 E17.6156
G1 X156.427 Y129.807 E17.6358
G1 X156.583 Y129.432 E17.6493
G1 X156.918 Y128.930 E17.6694
G1 X157.195 Y128.641 E17.6827
G1 X157.685 Y128.297 E17.7026
G1 X158.043 Y128.130 E17.7158
G1 X158.620 Y127.987 E17.7355
G1 X159.012 Y127.960 E17.7486
G1 X159.601 Y128.036 E17.7684
G1 X159.977 Y128.153 E17.7815
G1 X160.502 Y128.437 E17.8013
G1 X160.814 Y128.685 E17.8146
G1 X161.204 Y129.144 E17.8346
G1 X161.408 Y129.492 E17.8480
G1 X161.607 Y130.066 E17.8682
G1 X161.672 Y130.468 E17.8818
G1 X161.651 Y131.077 E17.9020
G1 X161.635 Y131.151 E17.9045
G0 X159.409 Y133.158 F10800
G0 X158.501 Y133.149
G0 X157.655 Y132.810
G0 X155.372 Y130.675
G0 X155.316 Y126.340
G0 X104.673 Y126.340
G0 X103.199 Y133.542
G0 X101.337 Y133.831
;segType:HShell
G1 X101.596 Y133.560 E17.9170 F3600
G1 X101.009 Y133.614
G1 X100.791 Y133.841 E17.9275
G1 X100.320 Y133.773
G1 X100.506 Y133.579 E17.9364
G1 X100.086 Y133.456
G1 X99.903 Y133.648 E17.9452
G1 X99.524 Y133.483
G1 X99.698 Y133.301 E17.9536
G1 X99.361 Y133.093
G1 X99.182 Y133.279 E17.9622
G1 X98.875 Y133.039
G1 X99.058 Y132.848 E17.9710
G1 X98.789 Y132.569
G1 X98.605 Y132.761 E17.9799
G1 X98.360 Y132.457
G1 X98.565 Y132.242 E17.9898
G1 X98.364 Y131.891
G1 X98.156 Y132.108 E17.9998
G1 X97.989 Y131.722
G1 X98.217 Y131.484 E18.0108
G1 X98.140 Y131.003
G1 X97.876 Y131.280 E18.0235
;segType:Loop
G0 X98.559 Y129.556 F10800
G1 X98.611 Y129.432 E18.0279 F3600
G1 X98.947 Y128.930 E18.0480
G1 X99.223 Y128.641 E18.0613
G1 X99.713 Y128.297 E18.0812
G1 X100.071 Y128.130 E18.0944
G1 X100.649 Y127.987 E18.1142
G1 X101.040 Y127.960 E18.1272
G1 X101.630 Y128.036 E18.1470
G1 X102.006 Y128.153 E18.1601
G1 X102.531 Y128.437 E18.1799
G1 X102.842 Y128.685 E18.1932
G1 X103.232 Y129.144 E18.2132
G1 X103.436 Y129.492 E18.2266
G1 X103.636 Y130.066 E18.2468
G1 X103.701 Y130.468 E18.2604
G1 X103.680 Y131.077 E18.2806
G1 X103.595 Y131.475 E18.2942
G1 X103.356 Y132.033 E18.3144
G1 X103.136 Y132.370 E18.3278
G1 X102.716 Y132.800 E18.3478
G1 X102.393 Y133.032 E18.3610
G1 X101.850 Y133.279 E18.3808
G1 X101.469 Y133.377 E18.3939
G1 X100.876 Y133.412 E18.4137
G1 X100.486 Y133.366 E18.4267
G1 X99.920 Y133.183 E18.4465
G1 X99.570 Y132.998 E18.4597
G1 X99.104 Y132.620 E18.4796
G1 X98.841 Y132.317 E18.4930
G1 X98.541 Y131.792 E18.5131
G1 X98.404 Y131.410 E18.5266
G1 X98.313 Y130.808 E18.5468
G1 X98.323 Y130.400 E18.5604
G1 X98.455 Y129.807 E18.5806
G1 X98.484 Y129.738 E18.5831
;segType:Perimeter
G0 X98.289 Y131.279 F10800
G1 X98.715 Y130.721 E18.6065 F2159
G1 X98.722 Y130.454 E18.6154
G1 X98.837 Y129.939 E18.6329
G1 X98.962 Y129.638 E18.6437
G1 X99.254 Y129.200 E18.6613
G1 X99.478 Y128.966 E18.6720
G1 X99.908 Y128.664 E18.6895
G1 X100.200 Y128.528 E18.7002
G1 X100.708 Y128.402 E18.7176
G1 X101.029 Y128.380 E18.7283
G1 X101.548 Y128.447 E18.7457
G1 X101.855 Y128.542 E18.7564
G1 X102.316 Y128.792 E18.7739
G1 X102.569 Y128.993 E18.7846
G1 X102.910 Y129.394 E18.8021
G1 X103.074 Y129.675 E18.8129
G1 X103.247 Y130.173 E18.8305
G1 X103.299 Y130.496 E18.8413
G1 X103.281 Y131.024 E18.8589
G1 X103.213 Y131.343 E18.8698
G1 X103.006 Y131.828 E18.8873
G1 X102.828 Y132.100 E18.8981
G1 X102.461 Y132.476 E18.9156
G1 X102.198 Y132.664 E18.9263
G1 X101.721 Y132.882 E18.9438
G1 X101.409 Y132.962 E18.9545
G1 X100.887 Y132.992 E18.9719
G1 X100.568 Y132.955 E18.9826
G1 X100.070 Y132.794 E19.0000
G1 X99.785 Y132.643 E19.0107
G1 X99.377 Y132.312 E19.0282
G1 X99.164 Y132.067 E19.0390
G1 X98.903 Y131.610 E19.0565
G1 X98.792 Y131.303 E19.0673
G1 X98.723 Y130.839 E19.0829
G1 X98.230 Y130.345
;segType:HShell
G0 X98.121 Y130.462 F10800
G1 X97.819 Y130.778 E19.0975 F3600
G0 X99.683 Y132.811 F10800
G0 X102.011 Y133.687
G1 X102.440 Y133.239 E19.1181 F3600
G0 X103.393 Y131.405 F10800
G0 X104.207 Y126.340
G1 X102.463 Y128.165 E19.2021 F3600
G1 X102.791 Y128.382
G1 X104.207 Y126.902 E19.2702
G1 X104.207 Y127.463
G1 X103.076 Y128.645 E19.3246
G1 X103.329 Y128.942
G1 X104.207 Y128.024 E19.3669
G1 X104.207 Y128.585
G1 X103.545 Y129.277 E19.3987
G1 X103.709 Y129.666
G1 X104.207 Y129.146 E19.4227
G1 X104.207 Y129.707
G1 X103.842 Y130.088 E19.4402
G1 X103.896 Y130.593
G1 X104.207 Y130.268 E19.4551
G1 X104.194 Y130.842
G1 X103.860 Y131.191 E19.4712
G1 X104.094 Y131.508
G1 X103.562 Y132.065 E19.4968
G0 X103.431 Y130.123 F10800
G0 X103.062 Y129.276
G0 X102.417 Y128.625
G0 X101.586 Y128.252
G0 X100.002 Y127.933
G1 X108.036 Y119.529 E19.8835 F3600
G1 X108.573 Y119.529
G1 X100.690 Y127.774 E20.2629
G1 X101.228 Y127.773
G1 X109.109 Y119.529 E20.6423
G1 X109.645 Y119.529
G1 X101.701 Y127.839 E21.0247
G1 X102.109 Y127.973
G1 X110.182 Y119.529 E21.4132
G1 X110.718 Y119.529
G1 X104.673 Y125.853 E21.7042
G1 X105.209 Y125.853
G1 X111.254 Y119.529 E21.9952
G1 X111.791 Y119.529
G1 X105.746 Y125.853 E22.2862
G1 X106.282 Y125.853
G1 X112.327 Y119.529 E22.5771
G1 X112.864 Y119.529
G1 X106.819 Y125.853 E22.8681
G1 X107.355 Y125.853
G1 X113.400 Y119.529 E23.1591
G1 X113.936 Y119.529
G1 X107.891 Y125.853 E23.4500
G1 X108.428 Y125.853
G1 X114.473 Y119.529 E23.7410
G1 X115.009 Y119.529
G1 X108.964 Y125.853 E24.0320
G1 X109.500 Y125.853
G1 X115.546 Y119.529 E24.3230
G1 X116.082 Y119.529
G1 X110.037 Y125.853 E24.6139
G1 X110.573 Y125.853
G1 X116.618 Y119.529 E24.9049
G1 X117.155 Y119.529
G1 X111.110 Y125.853 E25.1959
G1 X111.646 Y125.853
G1 X117.691 Y119.529 E25.4868
G1 X118.227 Y119.529
G1 X112.182 Y125.853 E25.7778
G1 X112.719 Y125.853
G1 X118.764 Y119.529 E26.0688
G1 X119.300 Y119.529
G1 X113.255 Y125.853 E26.3598
G1 X113.791 Y125.853
G1 X119.837 Y119.529 E26.6507
G1 X120.373 Y119.529
G1 X114.328 Y125.853 E26.9417
G1 X114.864 Y125.853
G1 X120.909 Y119.529 E27.2327
G1 X121.446 Y119.529
G1 X115.401 Y125.853 E27.5236
G1 X115.937 Y125.853
G1 X121.982 Y119.529 E27.8146
G1 X122.519 Y119.529
G1 X116.473 Y125.853 E28.1056
G1 X117.010 Y125.853
G1 X123.055 Y119.529 E28.3966
G1 X123.591 Y119.529
G1 X117.546 Y125.853 E28.6875
G1 X118.083 Y125.853
G1 X124.128 Y119.529 E28.9785
G1 X124.664 Y119.529
G1 X118.619 Y125.853 E29.2695
G1 X119.155 Y125.853
G1 X125.200 Y119.529 E29.5604
G1 X125.737 Y119.529
G1 X119.692 Y125.853 E29.8514
G1 X120.228 Y125.853
G1 X126.273 Y119.529 E30.1424
G1 X126.810 Y119.529
G1 X120.764 Y125.853 E30.4333
G1 X121.301 Y125.853
G1 X127.346 Y119.529 E30.7243
G1 X127.882 Y119.529
G1 X121.837 Y125.853 E31.0153
G1 X122.374 Y125.853
G1 X128.419 Y119.529 E31.3063
G1 X128.955 Y119.529
G1 X122.910 Y125.853 E31.5972
G1 X123.446 Y125.853
G1 X129.492 Y119.529 E31.8882
G1 X130.028 Y119.529
G1 X123.983 Y125.853 E32.1792
G1 X124.519 Y125.853
G1 X130.564 Y119.529 E32.4701
G1 X131.101 Y119.529
G1 X125.056 Y125.853 E32.7611
G1 X125.592 Y125.853
G1 X131.637 Y119.529 E33.0521
G1 X132.173 Y119.529
G1 X126.128 Y125.853 E33.3430
G1 X126.665 Y125.853
G1 X132.710 Y119.529 E33.6340
G1 X133.246 Y119.529
G1 X127.201 Y125.853 E33.9250
G1 X127.737 Y125.853
G1 X133.783 Y119.529 E34.2160
G1 X134.319 Y119.529
G1 X128.274 Y125.853 E34.5069
G1 X128.810 Y125.853
G1 X134.855 Y119.529 E34.7979
G1 X135.392 Y119.529
G1 X129.347 Y125.853 E35.0889
G1 X129.883 Y125.853
G1 X135.928 Y119.529 E35.3798
G1 X136.464 Y119.529
G1 X130.419 Y125.853 E35.6708
G1 X130.956 Y125.853
G1 X137.001 Y119.529 E35.9618
G1 X137.537 Y119.529
G1 X131.492 Y125.853 E36.2527
G1 X132.028 Y125.853
G1 X138.074 Y119.529 E36.5437
G1 X138.610 Y119.529
G1 X132.565 Y125.853 E36.8347
G1 X133.101 Y125.853
G1 X139.146 Y119.529 E37.1257
G1 X139.683 Y119.529
G1 X133.638 Y125.853 E37.4166
G1 X134.174 Y125.853
G1 X140.219 Y119.529 E37.7076
G1 X140.756 Y119.529
G1 X134.710 Y125.853 E37.9986
G1 X135.247 Y125.853
G1 X141.292 Y119.529 E38.2895
G1 X141.828 Y119.529
G1 X135.783 Y125.853 E38.5805
G1 X136.320 Y125.853
