; GCode generated by CraftWare

G28 X0 Y0
G28 Z0

M190 S70 ;set bed temp (wait)
M109 S220 ;set head temp (wait)
; ------------------------------------
; Layer #0
; ------------------------------------
G21 ; mm
G90 ; abs
G92 E0 ; reset extr
M106 S0
;segType:Skirt
G0 F4800 E-1.0000
G0 F300 Z0.200
G0 X108.015 Y76.904 F10800
G0 F4800 E0.0000
G1 X107.765 Y77.035 E0.0094 F600
G1 X106.016 Y77.035 E0.0676
G1 X103.267 Y79.924 E0.2002
G1 X103.205 Y80.383 E0.2156
G1 X103.205 Y115.567 E1.3858
G1 X103.267 Y116.026 E1.4012
G1 X106.016 Y118.914 E1.5339
G1 X107.765 Y118.914 E1.5920
G1 X110.014 Y121.277 E1.7005
G1 X110.639 Y121.671 E1.7251
G1 X111.389 Y121.934 E1.7515
G1 X148.625 Y121.934 E2.9900
G1 X148.750 Y121.802 E2.9960
G1 X149.000 Y121.802 E3.0044
G1 X149.937 Y121.212 E3.0412
G1 X151.936 Y119.111 E3.1376
G1 X152.249 Y118.914 E3.1499
G1 X153.749 Y118.914 E3.1998
G1 X154.061 Y118.717 E3.2121
G1 X156.685 Y115.960 E3.3387
G1 X156.685 Y113.991 E3.4042
G1 X156.685 Y113.860 E3.4085
G1 X156.685 Y79.989 E4.5351
G1 X153.936 Y77.101 E4.6677
G1 X153.499 Y77.035 E4.6824
G1 X151.999 Y77.035 E4.7323
G1 X149.750 Y74.672 E4.8408
G1 X149.125 Y74.278 E4.8654
G1 X148.875 Y74.278 E4.8737
G1 X148.750 Y74.147 E4.8797
G1 X147.876 Y74.016 E4.9091
G1 X111.639 Y74.016 E6.1144
G1 X111.514 Y74.147 E6.1204
G1 X111.077 Y74.213 E6.1351
G1 X110.702 Y74.344 E6.1483
G1 X110.077 Y74.738 E6.1729
G1 X108.078 Y76.838 E6.2693
G1 X107.890 Y76.642 E6.2783
G1 X106.391 Y76.642 E6.3282
G1 X105.954 Y76.707 E6.3429
G1 X102.830 Y79.989 E6.4936
G1 X102.830 Y115.960 E7.6900
G1 X105.829 Y119.111 E7.8347
G1 X106.141 Y119.308 E7.8470
G1 X107.640 Y119.308 E7.8969
G1 X107.953 Y119.505 E7.9091
G1 X109.827 Y121.474 E7.9996
G1 X110.014 Y121.671 E8.0086
G1 X110.889 Y122.196 E8.0425
G1 X110.899 Y122.196 E8.0429
G0 F4800 E7.0429
G0 X114.028 Y118.252 F10800
G0 X115.592 Y116.280
G0 X145.397 Y78.094
G0 X145.785 Y77.907
G0 X146.526 Y78.091
G0 F4800 E8.0429
;segType:HShell
G1 X146.242 Y78.390 E8.0566 F600
G1 X146.772 Y78.389
G1 X147.091 Y78.054 E8.0719
G1 X147.567 Y78.112
G1 X147.285 Y78.409 E8.0856
G1 X147.730 Y78.498
G1 X147.988 Y78.227 E8.0980
G1 X148.359 Y78.395
G1 X148.119 Y78.648 E8.1096
G1 X148.462 Y78.844
G1 X148.691 Y78.604 E8.1206
G1 X148.987 Y78.851
G1 X148.766 Y79.083 E8.1313
G1 X149.030 Y79.363
G1 X149.248 Y79.134 E8.1418
G1 X149.475 Y79.452
G1 X149.254 Y79.685 E8.1525
G1 X149.425 Y80.063
G1 X149.659 Y79.817 E8.1638
G1 X149.799 Y80.228
G1 X149.552 Y80.487 E8.1757
G1 X149.601 Y80.993
G1 X149.876 Y80.704 E8.1889
G1 X149.883 Y81.254
G1 X149.755 Y81.389 E8.1951
;segType:Loop
G0 X150.839 Y81.599 F10800
G1 X152.399 Y81.599 E8.2470 F600
G1 X152.399 Y114.350 E9.3363
G1 X150.037 Y114.350 E9.4149
G1 X150.030 Y114.294 E9.4168
G1 X149.890 Y113.824 E9.4331
G1 X149.699 Y113.420 E9.4479
G1 X149.550 Y113.178 E9.4574
G1 X149.264 Y112.820 E9.4726
G1 X148.934 Y112.512 E9.4876
G1 X148.559 Y112.254 E9.5028
G1 X148.187 Y112.070 E9.5166
G1 X147.902 Y111.965 E9.5267
G1 X147.459 Y111.864 E9.5418
G1 X147.017 Y111.830 E9.5565
G1 X146.583 Y111.860 E9.5710
G1 X146.310 Y111.909 E9.5802
G1 X145.879 Y112.042 E9.5953
G1 X145.475 Y112.236 E9.6101
G1 X145.097 Y112.491 E9.6253
G1 X144.788 Y112.770 E9.6392
G1 X144.583 Y113.001 E9.6494
G1 X144.323 Y113.384 E9.6648
G1 X144.125 Y113.792 E9.6799
G1 X143.991 Y114.217 E9.6947
G1 X143.935 Y114.499 E9.7043
G1 X143.901 Y114.960 E9.7197
G1 X143.934 Y115.417 E9.7349
G1 X144.036 Y115.870 E9.7504
G1 X144.185 Y116.265 E9.7644
G1 X144.326 Y116.543 E9.7748
G1 X144.587 Y116.925 E9.7901
G1 X144.892 Y117.255 E9.8051
G1 X145.010 Y117.350 E9.8101
G1 X114.993 Y117.350 E10.8085
G1 X115.260 Y117.101 E10.8206
G1 X115.543 Y116.748 E10.8356
G1 X115.775 Y116.349 E10.8510
G1 X115.934 Y115.959 E10.8650
G1 X116.020 Y115.658 E10.8754
G1 X116.088 Y115.203 E10.8907
G1 X116.096 Y114.880 E10.9015
G1 X116.027 Y114.294 E10.9211
G1 X115.886 Y113.824 E10.9374
G1 X115.695 Y113.420 E10.9523
G1 X115.546 Y113.177 E10.9617
G1 X115.260 Y112.820 E10.9770
G1 X114.930 Y112.512 E10.9920
G1 X114.555 Y112.254 E11.0071
G1 X114.184 Y112.070 E11.0209
G1 X113.899 Y111.965 E11.0310
G1 X113.455 Y111.864 E11.0461
G1 X113.013 Y111.830 E11.0609
G1 X112.579 Y111.860 E11.0753
G1 X112.306 Y111.909 E11.0846
G1 X111.875 Y112.042 E11.0996
G1 X111.471 Y112.236 E11.1145
G1 X111.094 Y112.490 E11.1296
G1 X110.784 Y112.770 E11.1435
G1 X110.580 Y113.001 E11.1538
G1 X110.319 Y113.384 E11.1691
G1 X110.122 Y113.792 E11.1842
G1 X109.988 Y114.217 E11.1991
G1 X109.957 Y114.369 E11.2042
G1 X109.739 Y114.350 E11.2115
G1 X107.616 Y114.350 E11.2821
G1 X107.616 Y81.599 E12.3715
G1 X109.970 Y81.599 E12.4497
G1 X110.032 Y81.879 E12.4593
G1 X110.182 Y82.274 E12.4733
G1 X110.323 Y82.551 E12.4837
G1 X110.583 Y82.933 E12.4991
G1 X110.889 Y83.263 E12.5140
G1 X111.231 Y83.539 E12.5286
G1 X111.466 Y83.691 E12.5379
G1 X111.874 Y83.887 E12.5530
G1 X112.300 Y84.019 E12.5678
G1 X112.747 Y84.089 E12.5829
G1 X113.159 Y84.094 E12.5966
G1 X113.461 Y84.064 E12.6067
G1 X113.904 Y83.963 E12.6218
G1 X114.318 Y83.801 E12.6366
G1 X114.699 Y83.585 E12.6511
G1 X114.926 Y83.420 E12.6605
G1 X115.260 Y83.110 E12.6756
G1 X115.543 Y82.756 E12.6907
G1 X115.775 Y82.358 E12.7060
G1 X115.934 Y81.967 E12.7201
G1 X116.020 Y81.666 E12.7305
G1 X116.088 Y81.211 E12.7458
G1 X116.096 Y80.888 E12.7565
G1 X116.027 Y80.302 E12.7762
G1 X115.886 Y79.832 E12.7925
G1 X115.695 Y79.428 E12.8073
G1 X115.546 Y79.186 E12.8168
G1 X115.260 Y78.828 E12.8320
G1 X115.016 Y78.600 E12.8431
G1 X144.986 Y78.600 E13.8399
G1 X144.788 Y78.778 E13.8488
G1 X144.583 Y79.010 E13.8591
G1 X144.323 Y79.392 E13.8745
G1 X144.125 Y79.800 E13.8895
G1 X143.991 Y80.225 E13.9044
G1 X143.935 Y80.507 E13.9139
G1 X143.901 Y80.968 E13.9293
G1 X143.934 Y81.426 E13.9446
G1 X144.036 Y81.879 E13.9600
G1 X144.185 Y82.274 E13.9740
G1 X144.326 Y82.551 E13.9844
G1 X144.587 Y82.933 E13.9998
G1 X144.892 Y83.263 E14.0147
G1 X145.234 Y83.539 E14.0293
G1 X145.470 Y83.691 E14.0387
G1 X145.878 Y83.887 E14.0537
G1 X146.304 Y84.019 E14.0685
G1 X146.750 Y84.089 E14.0836
G1 X147.163 Y84.094 E14.0973
G1 X147.464 Y84.064 E14.1074
G1 X147.908 Y83.963 E14.1225
G1 X148.322 Y83.801 E14.1373
G1 X148.702 Y83.585 E14.1519
G1 X148.930 Y83.420 E14.1612
G1 X149.263 Y83.110 E14.1763
G1 X149.547 Y82.756 E14.1914
G1 X149.779 Y82.358 E14.2068
G1 X149.938 Y81.967 E14.2208
G1 X150.024 Y81.666 E14.2312
G1 X150.034 Y81.599 E14.2335
G1 X150.651 Y81.599 E14.2540
G0 F4800 E13.2540
G0 X149.863 Y81.179 F10800
G0 F4800 E14.2540
;segType:Perimeter
G1 X152.799 Y81.179 E14.3516 F359
G1 X152.799 Y114.771 E15.4689
G1 X149.813 Y114.771 E15.5682
G1 X149.775 Y115.343 E15.5873
G1 X149.704 Y115.702 E15.5995
G1 X149.591 Y116.035 E15.6111
G1 X149.330 Y116.527 E15.6297
G1 X148.979 Y116.953 E15.6480
G1 X148.701 Y117.196 E15.6603
G1 X148.234 Y117.484 E15.6786
G1 X147.715 Y117.677 E15.6970
G1 X147.351 Y117.747 E15.7093
G1 X147.001 Y117.770 E15.7210
G1 X113.019 Y117.770 E16.8512
G1 X112.647 Y117.745 E16.8636
G1 X112.295 Y117.676 E16.8755
G1 X111.951 Y117.560 E16.8876
G1 X111.457 Y117.298 E16.9062
G1 X111.164 Y117.074 E16.9185
G1 X110.907 Y116.816 E16.9306
G1 X110.683 Y116.525 E16.9428
G1 X110.502 Y116.211 E16.9549
G1 X110.362 Y115.872 E16.9671
G1 X110.294 Y115.633 E16.9753
G1 X110.224 Y115.193 E16.9902
G1 X110.207 Y114.813 E17.0028
G1 X109.723 Y114.771 E17.0190
G1 X107.216 Y114.771 E17.1024
G1 X107.216 Y81.179 E18.2196
G1 X110.201 Y81.179 E18.3189
G1 X110.239 Y80.606 E18.3380
G1 X110.307 Y80.259 E18.3498
G1 X110.413 Y79.941 E18.3609
G1 X110.582 Y79.588 E18.3739
G1 X110.768 Y79.306 E18.3852
G1 X111.023 Y79.009 E18.3982
G1 X111.277 Y78.784 E18.4095
G1 X111.601 Y78.562 E18.4225
G1 X111.905 Y78.410 E18.4338
G1 X112.275 Y78.279 E18.4469
G1 X112.609 Y78.211 E18.4582
G1 X113.007 Y78.180 E18.4715
G1 X146.995 Y78.179 E19.6020
G1 X147.355 Y78.203 E19.6140
G1 X147.716 Y78.273 E19.6262
G1 X148.066 Y78.390 E19.6385
G1 X148.396 Y78.551 E19.6507
G1 X148.703 Y78.755 E19.6629
G1 X148.978 Y78.995 E19.6751
G1 X149.221 Y79.272 E19.6873
G1 X149.424 Y79.574 E19.6994
G1 X149.586 Y79.903 E19.7116
G1 X149.745 Y80.422 E19.7297
G1 X149.794 Y80.792 E19.7421
G1 X149.805 Y81.120 E19.7530
G1 X150.069 Y81.773
G0 F4800 E18.7530
G0 X149.677 Y81.320 F10800
G0 X149.645 Y80.450
G0 F4800 E19.7530
G1 X149.699 Y80.909 E19.7684 F359
G1 X149.693 Y81.173 E19.7772
G1 X149.633 Y81.573 E19.7906
G1 X149.561 Y81.824 E19.7993
G1 X149.423 Y82.164 E19.8115
G1 X149.221 Y82.510 E19.8248
G1 X148.976 Y82.816 E19.8378
G1 X148.683 Y83.089 E19.8512
G1 X148.493 Y83.226 E19.8590
G1 X148.156 Y83.418 E19.8719
G1 X147.795 Y83.558 E19.8847
G1 X147.403 Y83.648 E19.8981
G1 X147.147 Y83.673 E19.9067
G1 X146.782 Y83.669 E19.9188
G1 X146.390 Y83.608 E19.9320
G1 X146.018 Y83.492 E19.9450
G1 X145.658 Y83.319 E19.9583
G1 X145.461 Y83.193 E19.9660
G1 X145.159 Y82.949 E19.9790
G1 X144.895 Y82.663 E19.9919
G1 X144.667 Y82.329 E20.0054
G1 X144.549 Y82.096 E20.0140
G1 X144.418 Y81.752 E20.0263
G1 X144.331 Y81.361 E20.0396
G1 X144.303 Y80.969 E20.0527
G1 X144.332 Y80.566 E20.0661
G1 X144.378 Y80.335 E20.0740
G1 X144.496 Y79.962 E20.0869
G1 X144.665 Y79.611 E20.0999
G1 X144.894 Y79.276 E20.1134
G1 X145.066 Y79.082 E20.1220
G1 X145.337 Y78.836 E20.1342
G1 X145.667 Y78.614 E20.1474
G1 X146.019 Y78.445 E20.1604
G1 X146.400 Y78.327 E20.1737
G1 X146.630 Y78.286 E20.1814
G1 X147.016 Y78.259 E20.1943
G1 X147.401 Y78.289 E20.2072
G1 X147.793 Y78.378 E20.2205
G1 X148.036 Y78.467 E20.2291
G1 X148.363 Y78.630 E20.2413
G1 X148.691 Y78.855 E20.2545
G1 X148.977 Y79.122 E20.2675
G1 X149.227 Y79.436 E20.2809
G1 X149.350 Y79.636 E20.2887
G1 X149.518 Y79.990 E20.3017
G1 X149.621 Y80.335 E20.3137
G0 F4800 E19.3137
G0 X149.539 Y112.838 F10800
G0 F4800 E20.3137
;segType:HShell
G1 X152.199 Y110.044 E20.4420 F600
G1 X152.199 Y110.601
G1 X149.772 Y113.151 E20.5591
G1 X149.963 Y113.508
G1 X152.199 Y111.159 E20.6669
G1 X152.199 Y111.716
G1 X150.122 Y113.899 E20.7671
;segType:Perimeter
G0 X149.984 Y113.828 F10800
G1 X149.645 Y114.442 E20.7905 F359
G1 X149.699 Y114.900 E20.8058
G1 X149.693 Y115.165 E20.8146
G1 X149.633 Y115.564 E20.8280
G1 X149.561 Y115.816 E20.8367
G1 X149.423 Y116.156 E20.8490
G1 X149.221 Y116.502 E20.8623
G1 X148.976 Y116.807 E20.8753
G1 X148.683 Y117.080 E20.8886
G1 X148.493 Y117.218 E20.8964
G1 X148.156 Y117.409 E20.9093
G1 X147.795 Y117.550 E20.9222
G1 X147.403 Y117.640 E20.9356
G1 X147.147 Y117.665 E20.9441
G1 X146.782 Y117.660 E20.9563
G1 X146.390 Y117.600 E20.9695
G1 X146.018 Y117.484 E20.9824
G1 X145.658 Y117.311 E20.9957
G1 X145.461 Y117.184 E21.0035
G1 X145.159 Y116.940 E21.0164
G1 X144.895 Y116.655 E21.0293
G1 X144.667 Y116.320 E21.0428
G1 X144.549 Y116.088 E21.0515
G1 X144.418 Y115.744 E21.0637
G1 X144.331 Y115.353 E21.0770
G1 X144.303 Y114.960 E21.0901
G1 X144.332 Y114.558 E21.1035
G1 X144.378 Y114.326 E21.1114
G1 X144.496 Y113.954 E21.1244
G1 X144.665 Y113.602 E21.1374
G1 X144.894 Y113.268 E21.1508
G1 X145.066 Y113.074 E21.1595
G1 X145.337 Y112.828 E21.1716
G1 X145.667 Y112.605 E21.1849
G1 X146.019 Y112.437 E21.1979
G1 X146.400 Y112.319 E21.2111
G1 X146.630 Y112.278 E21.2189
G1 X147.016 Y112.251 E21.2318
G1 X147.401 Y112.281 E21.2446
G1 X147.793 Y112.370 E21.2580
G1 X148.036 Y112.459 E21.2666
G1 X148.363 Y112.621 E21.2787
G1 X148.691 Y112.847 E21.2920
G1 X148.977 Y113.114 E21.3050
G1 X149.227 Y113.428 E21.3183
G1 X149.350 Y113.628 E21.3262
G1 X149.518 Y113.981 E21.3392
G1 X149.621 Y114.327 E21.3511
G1 X150.172 Y114.738
G0 F4800 E20.3511
G0 X150.640 Y112.372 F10800
G0 X144.990 Y83.607
G0 F4800 E21.3511
;segType:HShell
G1 X116.128 Y113.931 E22.7435 F600
;segType:Perimeter
G0 X115.980 Y113.828 F10800
G1 X115.641 Y114.442 E22.7669 F359
G1 X115.695 Y114.901 E22.7822
G1 X115.689 Y115.165 E22.7910
G1 X115.629 Y115.564 E22.8045
G1 X115.557 Y115.816 E22.8131
G1 X115.419 Y116.156 E22.8254
G1 X115.218 Y116.502 E22.8387
G1 X114.973 Y116.807 E22.8517
G1 X114.679 Y117.080 E22.8650
G1 X114.490 Y117.218 E22.8728
G1 X114.152 Y117.409 E22.8857
G1 X113.792 Y117.550 E22.8986
G1 X113.400 Y117.640 E22.9120
G1 X113.143 Y117.665 E22.9206
G1 X112.779 Y117.660 E22.9327
G1 X112.387 Y117.600 E22.9459
G1 X112.015 Y117.484 E22.9588
G1 X111.654 Y117.311 E22.9721
G1 X111.458 Y117.184 E22.9799
G1 X111.155 Y116.940 E22.9928
G1 X110.891 Y116.655 E23.0058
G1 X110.663 Y116.320 E23.0192
G1 X110.545 Y116.088 E23.0279
G1 X110.415 Y115.744 E23.0401
G1 X110.327 Y115.353 E23.0534
G1 X110.299 Y114.960 E23.0665
G1 X110.329 Y114.558 E23.0800
G1 X110.375 Y114.326 E23.0878
G1 X110.492 Y113.954 E23.1008
G1 X110.662 Y113.602 E23.1138
G1 X110.890 Y113.268 E23.1272
G1 X111.062 Y113.074 E23.1359
G1 X111.334 Y112.828 E23.1481
G1 X111.663 Y112.605 E23.1613
G1 X112.015 Y112.437 E23.1743
G1 X112.397 Y112.319 E23.1876
G1 X112.626 Y112.278 E23.1953
G1 X113.012 Y112.251 E23.2082
G1 X113.398 Y112.281 E23.2210
G1 X113.790 Y112.370 E23.2344
G1 X114.032 Y112.459 E23.2430
G1 X114.359 Y112.621 E23.2551
G1 X114.687 Y112.847 E23.2684
G1 X114.973 Y113.114 E23.2814
G1 X115.224 Y113.427 E23.2947
G1 X115.347 Y113.628 E23.3026
G1 X115.514 Y113.981 E23.3156
G1 X115.617 Y114.327 E23.3276
G1 X116.168 Y114.737
;segType:HShell
G0 X116.253 Y81.462 F10800
G1 X118.777 Y78.810 E23.4493 F600
G1 X118.247 Y78.810
G1 X116.294 Y80.862 E23.5435
G1 X116.236 Y80.366
G1 X117.716 Y78.810 E23.6150
G1 X117.185 Y78.810
G1 X116.124 Y79.926 E23.6662
;segType:Perimeter
G0 X115.980 Y79.837 F10800
G1 X115.641 Y80.450 E23.6895 F359
G1 X115.695 Y80.909 E23.7049
G1 X115.689 Y81.173 E23.7137
G1 X115.629 Y81.573 E23.7271
G1 X115.557 Y81.824 E23.7358
G1 X115.419 Y82.164 E23.7480
G1 X115.218 Y82.510 E23.7613
G1 X114.973 Y82.816 E23.7743
G1 X114.679 Y83.089 E23.7877
G1 X114.490 Y83.226 E23.7955
G1 X114.152 Y83.418 E23.8084
G1 X113.792 Y83.558 E23.8212
G1 X113.400 Y83.648 E23.8346
G1 X113.143 Y83.673 E23.8432
G1 X112.779 Y83.669 E23.8553
G1 X112.387 Y83.608 E23.8685
G1 X112.015 Y83.492 E23.8815
G1 X111.654 Y83.319 E23.8948
G1 X111.458 Y83.193 E23.9025
G1 X111.155 Y82.949 E23.9154
G1 X110.891 Y82.663 E23.9284
G1 X110.663 Y82.329 E23.9418
G1 X110.545 Y82.096 E23.9505
G1 X110.415 Y81.752 E23.9628
G1 X110.327 Y81.361 E23.9761
G1 X110.299 Y80.968 E23.9892
G1 X110.329 Y80.566 E24.0026
G1 X110.375 Y80.335 E24.0104
G1 X110.492 Y79.962 E24.0234
G1 X110.662 Y79.611 E24.0364
G1 X110.890 Y79.276 E24.0499
G1 X111.062 Y79.082 E24.0585
G1 X111.334 Y78.836 E24.0707
G1 X111.663 Y78.614 E24.0839
G1 X112.015 Y78.445 E24.0969
G1 X112.397 Y78.327 E24.1102
G1 X112.626 Y78.286 E24.1179
G1 X113.012 Y78.259 E24.1308
G1 X113.398 Y78.289 E24.1437
G1 X113.790 Y78.378 E24.1570
G1 X114.032 Y78.467 E24.1656
G1 X114.359 Y78.630 E24.1778
G1 X114.687 Y78.855 E24.1910
G1 X114.973 Y79.122 E24.2040
G1 X115.224 Y79.436 E24.2174
G1 X115.347 Y79.636 E24.2252
G1 X115.514 Y79.990 E24.2382
G1 X115.617 Y80.335 E24.2502
G1 X116.168 Y80.746
;segType:HShell
G0 X115.967 Y79.532 F10800
G1 X116.655 Y78.810 E24.2833 F600
G1 X116.124 Y78.810
G1 X115.777 Y79.174 E24.3001
G0 X113.871 Y78.390 F10800
G1 X114.015 Y78.238 E24.3070 F600
G1 X113.597 Y78.120
G1 X113.340 Y78.390 E24.3194
G1 X112.793 Y78.407
G1 X113.126 Y78.057 E24.3355
G1 X112.571 Y78.083
G1 X112.122 Y78.555 E24.3572
G0 X110.420 Y80.900 F10800
G1 X110.116 Y81.219 E24.3718 F600
G0 X107.816 Y81.964 F10800
G1 X107.963 Y81.809 E24.3789 F600
G1 X108.494 Y81.809
G1 X107.816 Y82.521 E24.4117
G1 X107.816 Y83.079
G1 X109.024 Y81.809 E24.4700
G1 X109.555 Y81.809
G1 X107.816 Y83.637 E24.5539
G1 X107.816 Y84.194
G1 X109.874 Y82.031 E24.6532
G1 X110.031 Y82.424
G1 X107.816 Y84.752 E24.7601
G1 X107.816 Y85.309
G1 X110.229 Y82.774 E24.8765
G1 X110.454 Y83.095
G1 X107.816 Y85.867 E25.0038
G1 X107.816 Y86.424
G1 X110.715 Y83.378 E25.1437
G1 X111.010 Y83.626
G1 X107.816 Y86.982 E25.2978
G1 X107.816 Y87.539
G1 X111.328 Y83.849 E25.4673
G1 X111.688 Y84.028
G1 X107.816 Y88.097 E25.6541
G1 X107.816 Y88.654
G1 X112.083 Y84.171 E25.8600
G1 X112.523 Y84.266
G1 X107.816 Y89.212 E26.0871
G1 X107.816 Y89.770
G1 X113.019 Y84.302 E26.3381
G1 X113.603 Y84.247
G1 X107.816 Y90.327 E26.6173
G1 X107.816 Y90.885
G1 X114.360 Y84.009 E26.9330
G0 X116.238 Y114.374 F10800
G1 X145.307 Y83.832 E28.3354 F600
G1 X145.664 Y84.015
G1 X116.296 Y114.870 E29.7522
G1 X116.250 Y115.476
G1 X146.055 Y84.161 E31.1901
G1 X146.491 Y84.261
G1 X116.025 Y116.269 E32.6598
G1 X115.727 Y117.140
G1 X146.983 Y84.302 E34.1676
G1 X147.554 Y84.259
G1 X116.258 Y117.140 E35.6774
G1 X116.789 Y117.140
G1 X148.298 Y84.035 E37.1975
G0 X150.073 Y82.170 F10800
G1 X150.416 Y81.809 E37.2141 F600
G1 X150.947 Y81.809
G1 X117.320 Y117.140 E38.8364
G1 X117.850 Y117.140
G1 X151.478 Y81.809 E40.4587
G1 X152.008 Y81.809
G1 X118.381 Y117.140 E42.0810
G1 X118.912 Y117.140
G1 X152.199 Y82.167 E43.6868
G1 X152.199 Y82.724
G1 X119.442 Y117.140 E45.2671
G1 X119.973 Y117.140
G1 X152.199 Y83.282 E46.8218
G1 X152.199 Y83.839
G1 X120.504 Y117.140 E48.3508
G1 X121.034 Y117.140
G1 X152.199 Y84.397 E49.8543
G1 X152.199 Y84.954
G1 X121.565 Y117.140 E51.3322
G1 X122.096 Y117.140
G1 X152.199 Y85.512 E52.7844
G1 X152.199 Y86.069
G1 X122.626 Y117.140 E54.2111
G1 X123.157 Y117.140
G1 X152.199 Y86.627 E55.6122
G1 X152.199 Y87.184
G1 X123.688 Y117.140 E56.9876
G1 X124.218 Y117.140
G1 X152.199 Y87.742 E58.3375
G1 X152.199 Y88.300
G1 X124.749 Y117.140 E59.6618
G1 X125.280 Y117.140
G1 X152.199 Y88.857 E60.9604
G1 X152.199 Y89.415
G1 X125.810 Y117.140 E62.2335
G1 X126.341 Y117.140
G1 X152.199 Y89.972 E63.4809
G1 X152.199 Y90.530
G1 X126.872 Y117.140 E64.7028
G1 X127.402 Y117.140
G1 X152.199 Y91.087 E65.8991
G1 X152.199 Y91.645
G1 X127.933 Y117.140 E67.0697
G1 X128.464 Y117.140
G1 X152.199 Y92.202 E68.2148
G1 X152.199 Y92.760
G1 X128.994 Y117.140 E69.3342
G1 X129.525 Y117.140
G1 X152.199 Y93.317 E70.4281
G1 X152.199 Y93.875
G1 X130.056 Y117.140 E71.4963
G1 X130.586 Y117.140
G1 X152.199 Y94.432 E72.5390
G1 X152.199 Y94.990
G1 X131.117 Y117.140 E73.5560
G1 X131.648 Y117.140
G1 X152.199 Y95.548 E74.5475
G1 X152.199 Y96.105
G1 X132.178 Y117.140 E75.5133
G1 X132.709 Y117.140
G1 X152.199 Y96.663 E76.4536
G1 X152.199 Y97.220
G1 X133.240 Y117.140 E77.3682
G1 X133.770 Y117.140
G1 X152.199 Y97.778 E78.2573
G1 X152.199 Y98.335
G1 X134.301 Y117.140 E79.1207
G1 X134.832 Y117.140
G1 X152.199 Y98.893 E79.9586
G1 X152.199 Y99.450
G1 X135.362 Y117.140 E80.7708
G1 X135.893 Y117.140
G1 X152.199 Y100.008 E81.5574
G1 X152.199 Y100.565
G1 X136.424 Y117.140 E82.3185
G1 X136.954 Y117.140
G1 X152.199 Y101.123 E83.0539
G1 X152.199 Y101.681
G1 X137.485 Y117.140 E83.7638
G1 X138.016 Y117.140
G1 X152.199 Y102.238 E84.4480
G1 X152.199 Y102.796
G1 X138.546 Y117.140 E85.1066
G1 X139.077 Y117.140
G1 X152.199 Y103.353 E85.7397
G1 X152.199 Y103.911
G1 X139.608 Y117.140 E86.3471
G1 X140.138 Y117.140
G1 X152.199 Y104.468 E86.9290
G1 X152.199 Y105.026
G1 X145.625 Y111.933 E87.2461
G0 X143.948 Y113.694 F10800
G1 X140.669 Y117.140 E87.4043 F600
G1 X141.200 Y117.140
G1 X143.736 Y114.474 E87.5267
G1 X143.708 Y115.062
G1 X141.730 Y117.140 E87.6221
G1 X142.261 Y117.140
G1 X143.762 Y115.563 E87.6945
G1 X143.871 Y116.005
G1 X142.792 Y117.140 E87.7466
G1 X143.322 Y117.140
G1 X144.027 Y116.399 E87.7806
G1 X144.223 Y116.751
G1 X143.853 Y117.140 E87.7984
G1 X144.384 Y117.140
G1 X144.446 Y117.074 E87.8014
G0 X145.953 Y117.668 F10800
G0 X146.350 Y117.792
G0 X146.767 Y117.857
G0 X147.154 Y117.862
G0 X147.432 Y117.835
G0 X147.848 Y117.739
G0 X148.234 Y117.589
G0 X148.591 Y117.386
G0 X148.798 Y117.236
G0 X149.374 Y116.617
G0 X149.816 Y115.608
G0 X149.886 Y114.891
G0 X149.840 Y114.494
G0 X150.422 Y114.140
G1 X152.199 Y112.274 E87.8872 F600
G1 X152.199 Y112.831
G1 X150.953 Y114.140 E87.9473
G1 X151.484 Y114.140
G1 X152.199 Y113.389 E87.9818
G1 X152.199 Y113.947
G1 X152.014 Y114.140 E87.9907
G0 X149.279 Y112.553 F10800
G1 X152.199 Y109.486 E88.1315 F600
G1 X152.199 Y108.929
G1 X148.990 Y112.300 E88.2863
G1 X148.670 Y112.079
G1 X152.199 Y108.371 E88.4566
G1 X152.199 Y107.814
G1 X148.311 Y111.899 E88.6441
G1 X147.918 Y111.754
G1 X152.199 Y107.256 E88.8507
G1 X152.199 Y106.698
G1 X147.481 Y111.655 E89.0782
G1 X146.982 Y111.622
G1 X152.199 Y106.141 E89.3299
G1 X152.199 Y105.583
G1 X146.396 Y111.680 E89.6099
G0 X144.699 Y83.356 F10800
G1 X115.973 Y113.536 E90.9957 F600
G1 X115.784 Y113.177
G1 X144.438 Y83.073 E92.3780
G1 X144.215 Y82.749
G1 X115.555 Y112.861 E93.7607
G1 X115.297 Y112.574
G1 X144.021 Y82.396 E95.1463
G1 X143.867 Y82.000
G1 X115.011 Y112.317 E96.5384
G1 X114.691 Y112.096
G1 X143.758 Y81.556 E97.9407
G1 X143.707 Y81.053
G1 X114.335 Y111.912 E99.3577
G1 X113.948 Y111.761
G1 X143.740 Y80.460 E100.7949
G1 X143.966 Y79.665
G1 X113.512 Y111.662 E102.2641
G1 X113.021 Y111.620
G1 X144.250 Y78.810 E103.7707
G1 X143.719 Y78.810
G1 X112.442 Y111.671 E105.2796
G0 X109.561 Y114.140 F10800
G1 X109.920 Y113.763 E105.2969 F600
G0 X111.697 Y111.897 F10800
G1 X143.188 Y78.810 E106.8162 F600
G1 X142.658 Y78.810
G1 X109.030 Y114.140 E108.4384
G1 X108.499 Y114.140
G1 X142.127 Y78.810 E110.0607
G1 X141.596 Y78.810
G1 X107.969 Y114.140 E111.6830
G1 X107.816 Y113.744
G1 X141.066 Y78.810 E113.2870
G1 X140.535 Y78.810
G1 X107.816 Y113.186 E114.8655
G1 X107.816 Y112.629
G1 X140.004 Y78.810 E116.4184
G1 X139.474 Y78.810
G1 X107.816 Y112.071 E117.9456
G1 X107.816 Y111.514
G1 X138.943 Y78.810 E119.4473
G1 X138.412 Y78.810
G1 X107.816 Y110.956 E120.9234
G1 X107.816 Y110.399
G1 X137.881 Y78.810 E122.3738
G1 X137.351 Y78.810
G1 X107.816 Y109.841 E123.7987
G1 X107.816 Y109.284
G1 X136.820 Y78.810 E125.1980
G1 X136.289 Y78.810
G1 X107.816 Y108.726 E126.5716
G1 X107.816 Y108.168
G1 X135.759 Y78.810 E127.9197
G1 X135.228 Y78.810
G1 X107.816 Y107.611 E129.2421
G1 X107.816 Y107.053
G1 X134.697 Y78.810 E130.5390
G1 X134.167 Y78.810
G1 X107.816 Y106.496 E131.8102
G1 X107.816 Y105.938
G1 X133.636 Y78.810 E133.0559
G1 X133.105 Y78.810
G1 X107.816 Y105.381 E134.2759
G1 X107.816 Y104.823
G1 X132.575 Y78.810 E135.4704
G1 X132.044 Y78.810
G1 X107.816 Y104.266 E136.6393
G1 X107.816 Y103.708
G1 X131.513 Y78.810 E137.7825
G1 X130.983 Y78.810
G1 X107.816 Y103.151 E138.9002
G1 X107.816 Y102.593
G1 X130.452 Y78.810 E139.9922
G1 X129.921 Y78.810
G1 X107.816 Y102.035 E141.0586
G1 X107.816 Y101.478
G1 X129.391 Y78.810 E142.0995
G1 X128.860 Y78.810
G1 X107.816 Y100.920 E143.1147
G1 X107.816 Y100.363
G1 X128.329 Y78.810 E144.1044
G1 X127.799 Y78.810
G1 X107.816 Y99.805 E145.0684
G1 X107.816 Y99.248
G1 X127.268 Y78.810 E146.0069
G1 X126.737 Y78.810
G1 X107.816 Y98.690 E146.9197
G1 X107.816 Y98.133
G1 X126.207 Y78.810 E147.8069
G1 X125.676 Y78.810
G1 X107.816 Y97.575 E148.6686
G1 X107.816 Y97.018
G1 X125.145 Y78.810 E149.5046
G1 X124.615 Y78.810
G1 X107.816 Y96.460 E150.3151
G1 X107.816 Y95.903
G1 X124.084 Y78.810 E151.0999
G1 X123.553 Y78.810
G1 X107.816 Y95.345 E151.8591
G1 X107.816 Y94.787
G1 X123.023 Y78.810 E152.5927
G1 X122.492 Y78.810
G1 X107.816 Y94.230 E153.3008
G1 X107.816 Y93.672
G1 X121.961 Y78.810 E153.9832
G1 X121.431 Y78.810
G1 X107.816 Y93.115 E154.6401
G1 X107.816 Y92.557
G1 X120.900 Y78.810 E155.2713
G1 X120.369 Y78.810
G1 X107.816 Y92.000 E155.8769
G1 X107.816 Y91.442
G1 X119.839 Y78.810 E156.4569
G1 X119.308 Y78.810
G1 X116.039 Y82.245 E156.6147
; ------------------------------------
; Layer #1
; ------------------------------------
G21 ; mm
G90 ; abs
G92 E0 ; reset extr
M106 S255
G0 F4800 E-1.0000
G0 F300 Z0.400
G0 X147.953 Y84.126 F10800
G0 X150.839 Y81.599
G0 F4800 E0.0000
;segType:Loop
G1 X152.399 Y81.599 E0.0519 F3600
G1 X152.399 Y114.350 E1.1412
G1 X150.039 Y114.350 E1.2197
G1 X150.035 Y114.319 E1.2207
G1 X149.896 Y113.840 E1.2373
G1 X149.712 Y113.446 E1.2518
G1 X149.551 Y113.179 E1.2622
G1 X149.264 Y112.820 E1.2774
G1 X148.945 Y112.522 E1.2920
G1 X148.578 Y112.266 E1.3069
G1 X148.239 Y112.092 E1.3195
G1 X147.905 Y111.966 E1.3314
G1 X147.459 Y111.864 E1.3466
G1 X147.032 Y111.830 E1.3609
G1 X146.612 Y111.856 E1.3749
G1 X146.311 Y111.908 E1.3850
G1 X145.879 Y112.042 E1.4001
G1 X145.488 Y112.228 E1.4145
G1 X145.115 Y112.477 E1.4294
G1 X144.828 Y112.730 E1.4421
G1 X144.585 Y112.998 E1.4541
G1 X144.323 Y113.383 E1.4696
G1 X144.132 Y113.778 E1.4842
G1 X143.999 Y114.188 E1.4985
G1 X143.935 Y114.496 E1.5090
G1 X143.901 Y114.960 E1.5245
G1 X143.933 Y115.403 E1.5393
G1 X144.030 Y115.849 E1.5544
G1 X144.162 Y116.213 E1.5673
G1 X144.324 Y116.540 E1.5795
G1 X144.587 Y116.925 E1.5949
G1 X144.882 Y117.245 E1.6094
G1 X145.010 Y117.349 E1.6149
G1 X114.993 Y117.350 E2.6133
G1 X115.260 Y117.102 E2.6254
G1 X115.534 Y116.760 E2.6400
G1 X115.765 Y116.369 E2.6551
G1 X115.915 Y116.013 E2.6679
G1 X116.019 Y115.661 E2.6801
G1 X116.089 Y115.199 E2.6957
G1 X116.093 Y114.825 E2.7081
G1 X116.031 Y114.319 E2.7251
G1 X115.892 Y113.840 E2.7417
G1 X115.709 Y113.446 E2.7561
G1 X115.547 Y113.179 E2.7665
G1 X115.261 Y112.820 E2.7818
G1 X114.942 Y112.522 E2.7963
G1 X114.574 Y112.266 E2.8112
G1 X114.236 Y112.092 E2.8238
G1 X113.901 Y111.966 E2.8357
G1 X113.456 Y111.864 E2.8509
G1 X113.028 Y111.830 E2.8652
G1 X112.608 Y111.856 E2.8792
G1 X112.308 Y111.908 E2.8893
G1 X111.875 Y112.042 E2.9044
G1 X111.484 Y112.229 E2.9188
G1 X111.112 Y112.477 E2.9337
G1 X110.825 Y112.730 E2.9464
G1 X110.582 Y112.999 E2.9585
G1 X110.320 Y113.383 E2.9740
G1 X110.128 Y113.778 E2.9885
G1 X109.995 Y114.188 E3.0029
G1 X109.962 Y114.350 E3.0084
G1 X107.616 Y114.350 E3.0864
G1 X107.616 Y81.599 E4.1757
G1 X109.970 Y81.599 E4.2541
G1 X110.026 Y81.857 E4.2628
G1 X110.159 Y82.222 E4.2757
G1 X110.321 Y82.548 E4.2879
G1 X110.583 Y82.933 E4.3034
G1 X110.878 Y83.253 E4.3178
G1 X111.207 Y83.522 E4.3320
G1 X111.464 Y83.690 E4.3422
G1 X111.874 Y83.886 E4.3573
G1 X112.286 Y84.016 E4.3717
G1 X112.725 Y84.086 E4.3864
G1 X113.103 Y84.096 E4.3990
G1 X113.458 Y84.065 E4.4109
G1 X113.904 Y83.963 E4.4261
G1 X114.305 Y83.807 E4.4404
G1 X114.674 Y83.600 E4.4545
G1 X114.925 Y83.422 E4.4647
G1 X115.260 Y83.110 E4.4799
G1 X115.534 Y82.768 E4.4945
G1 X115.765 Y82.378 E4.5096
G1 X115.915 Y82.021 E4.5225
G1 X116.019 Y81.669 E4.5347
G1 X116.089 Y81.208 E4.5502
G1 X116.093 Y80.833 E4.5626
G1 X116.031 Y80.328 E4.5796
G1 X115.892 Y79.848 E4.5962
G1 X115.709 Y79.454 E4.6106
G1 X115.547 Y79.187 E4.6210
G1 X115.261 Y78.828 E4.6363
G1 X115.016 Y78.600 E4.6474
G1 X144.986 Y78.600 E5.6442
G1 X144.828 Y78.738 E5.6512
G1 X144.585 Y79.007 E5.6632
G1 X144.323 Y79.392 E5.6787
G1 X144.132 Y79.786 E5.6933
G1 X143.999 Y80.196 E5.7077
G1 X143.935 Y80.505 E5.7181
G1 X143.901 Y80.968 E5.7336
G1 X143.933 Y81.411 E5.7484
G1 X144.030 Y81.857 E5.7635
G1 X144.162 Y82.221 E5.7764
G1 X144.324 Y82.548 E5.7886
G1 X144.587 Y82.933 E5.8040
G1 X144.882 Y83.253 E5.8185
G1 X145.211 Y83.522 E5.8327
G1 X145.468 Y83.690 E5.8429
G1 X145.877 Y83.886 E5.8580
G1 X146.290 Y84.015 E5.8723
G1 X146.729 Y84.086 E5.8871
G1 X147.107 Y84.096 E5.8997
G1 X147.461 Y84.065 E5.9116
G1 X147.907 Y83.963 E5.9268
G1 X148.308 Y83.807 E5.9411
G1 X148.678 Y83.600 E5.9552
G1 X148.928 Y83.422 E5.9654
G1 X149.263 Y83.110 E5.9806
G1 X149.538 Y82.768 E5.9952
G1 X149.768 Y82.378 E6.0103
G1 X149.919 Y82.021 E6.0232
G1 X150.023 Y81.669 E6.0354
G1 X150.033 Y81.599 E6.0377
G1 X150.651 Y81.599 E6.0583
G0 F4800 E5.0583
G0 X149.863 Y81.179 F10800
G0 F4800 E6.0583
;segType:Perimeter
G1 X152.799 Y81.179 E6.1559 F2159
G1 X152.799 Y114.771 E7.2732
G1 X149.813 Y114.771 E7.3725
G1 X149.775 Y115.343 E7.3916
G1 X149.704 Y115.704 E7.4038
G1 X149.595 Y116.025 E7.4151
G1 X149.422 Y116.380 E7.4282
G1 X149.098 Y116.828 E7.4466
G1 X148.693 Y117.202 E7.4649
G1 X148.222 Y117.490 E7.4833
G1 X147.699 Y117.681 E7.5018
G1 X147.334 Y117.749 E7.5142
G1 X147.006 Y117.770 E7.5251
G1 X113.019 Y117.770 E8.6555
G1 X112.646 Y117.745 E8.6679
G1 X112.305 Y117.678 E8.6795
G1 X111.962 Y117.564 E8.6915
G1 X111.674 Y117.427 E8.7021
G1 X111.457 Y117.298 E8.7105
G1 X111.164 Y117.074 E8.7228
G1 X110.907 Y116.816 E8.7349
G1 X110.683 Y116.525 E8.7471
G1 X110.502 Y116.211 E8.7592
G1 X110.362 Y115.873 E8.7713
G1 X110.277 Y115.559 E8.7821
G1 X110.228 Y115.232 E8.7931
G1 X110.204 Y114.771 E8.8085
G1 X107.216 Y114.771 E8.9079
G1 X107.216 Y81.179 E10.0252
G1 X110.201 Y81.179 E10.1245
G1 X110.239 Y80.606 E10.1436
G1 X110.305 Y80.270 E10.1549
G1 X110.400 Y79.976 E10.1652
G1 X110.577 Y79.598 E10.1791
G1 X110.746 Y79.337 E10.1895
G1 X111.016 Y79.017 E10.2034
G1 X111.247 Y78.808 E10.2137
G1 X111.591 Y78.568 E10.2277
G1 X111.870 Y78.425 E10.2381
G1 X112.264 Y78.283 E10.2520
G1 X112.571 Y78.217 E10.2625
G1 X113.021 Y78.179 E10.2775
G1 X146.996 Y78.179 E11.4075
G1 X147.343 Y78.201 E11.4191
G1 X147.704 Y78.270 E11.4313
G1 X148.057 Y78.387 E11.4437
G1 X148.387 Y78.546 E11.4559
G1 X148.697 Y78.751 E11.4682
G1 X148.973 Y78.991 E11.4804
G1 X149.218 Y79.268 E11.4927
G1 X149.422 Y79.570 E11.5048
G1 X149.586 Y79.901 E11.5171
G1 X149.745 Y80.422 E11.5352
G1 X149.794 Y80.792 E11.5476
G1 X149.805 Y81.120 E11.5585
G1 X150.069 Y81.773
G0 F4800 E10.5585
G0 X149.677 Y81.321 F10800
G0 X149.650 Y80.475
G0 F4800 E11.5585
G1 X149.697 Y80.857 E11.5713 F2159
G1 X149.693 Y81.172 E11.5818
G1 X149.632 Y81.574 E11.5953
G1 X149.544 Y81.873 E11.6057
G1 X149.414 Y82.181 E11.6168
G1 X149.214 Y82.521 E11.6299
G1 X148.976 Y82.816 E11.6425
G1 X148.682 Y83.089 E11.6559
G1 X148.471 Y83.240 E11.6645
G1 X148.144 Y83.423 E11.6770
G1 X147.795 Y83.559 E11.6894
G1 X147.402 Y83.648 E11.7028
G1 X147.095 Y83.675 E11.7131
G1 X146.764 Y83.667 E11.7241
G1 X146.377 Y83.604 E11.7371
G1 X146.018 Y83.492 E11.7496
G1 X145.657 Y83.319 E11.7630
G1 X145.440 Y83.177 E11.7716
G1 X145.150 Y82.939 E11.7841
G1 X144.895 Y82.663 E11.7966
G1 X144.666 Y82.328 E11.8101
G1 X144.528 Y82.049 E11.8204
G1 X144.414 Y81.734 E11.8315
G1 X144.329 Y81.348 E11.8447
G1 X144.303 Y80.968 E11.8574
G1 X144.332 Y80.566 E11.8708
G1 X144.385 Y80.309 E11.8795
G1 X144.501 Y79.950 E11.8920
G1 X144.666 Y79.611 E11.9046
G1 X144.894 Y79.275 E11.9181
G1 X145.103 Y79.045 E11.9284
G1 X145.352 Y78.825 E11.9395
G1 X145.678 Y78.607 E11.9525
G1 X146.019 Y78.445 E11.9651
G1 X146.401 Y78.327 E11.9784
G1 X146.656 Y78.283 E11.9870
G1 X147.029 Y78.260 E11.9994
G1 X147.401 Y78.289 E12.0118
G1 X147.794 Y78.379 E12.0252
G1 X148.083 Y78.488 E12.0355
G1 X148.378 Y78.639 E12.0466
G1 X148.700 Y78.864 E12.0596
G1 X148.977 Y79.122 E12.0722
G1 X149.228 Y79.436 E12.0856
G1 X149.363 Y79.660 E12.0942
G1 X149.523 Y80.003 E12.1068
G1 X149.626 Y80.360 E12.1192
G0 X149.992 Y113.855 F10800
G1 X149.650 Y114.467 E12.1425 F2159
G1 X149.697 Y114.849 E12.1553
G1 X149.693 Y115.164 E12.1658
G1 X149.632 Y115.566 E12.1793
G1 X149.544 Y115.865 E12.1897
G1 X149.414 Y116.173 E12.2008
G1 X149.214 Y116.512 E12.2139
G1 X148.976 Y116.807 E12.2265
G1 X148.682 Y117.081 E12.2399
G1 X148.471 Y117.232 E12.2485
G1 X148.144 Y117.415 E12.2610
G1 X147.795 Y117.550 E12.2734
G1 X147.402 Y117.640 E12.2868
G1 X147.095 Y117.667 E12.2971
G1 X146.764 Y117.658 E12.3081
G1 X146.377 Y117.596 E12.3211
G1 X146.018 Y117.484 E12.3336
G1 X145.657 Y117.311 E12.3469
G1 X145.440 Y117.169 E12.3556
G1 X145.150 Y116.931 E12.3681
G1 X144.895 Y116.655 E12.3806
G1 X144.666 Y116.319 E12.3941
G1 X144.528 Y116.040 E12.4044
G1 X144.414 Y115.726 E12.4155
G1 X144.329 Y115.340 E12.4287
G1 X144.303 Y114.960 E12.4413
G1 X144.332 Y114.557 E12.4548
G1 X144.385 Y114.300 E12.4635
G1 X144.501 Y113.942 E12.4760
G1 X144.666 Y113.602 E12.4886
G1 X144.894 Y113.267 E12.5021
G1 X145.103 Y113.037 E12.5124
G1 X145.352 Y112.817 E12.5235
G1 X145.678 Y112.599 E12.5365
G1 X146.019 Y112.437 E12.5491
G1 X146.401 Y112.319 E12.5624
G1 X146.656 Y112.275 E12.5710
G1 X147.029 Y112.252 E12.5834
G1 X147.401 Y112.281 E12.5958
G1 X147.794 Y112.370 E12.6092
G1 X148.083 Y112.480 E12.6195
G1 X148.378 Y112.631 E12.6305
G1 X148.700 Y112.856 E12.6436
G1 X148.977 Y113.114 E12.6562
G1 X149.228 Y113.428 E12.6695
G1 X149.363 Y113.651 E12.6782
G1 X149.523 Y113.994 E12.6908
G1 X149.626 Y114.352 E12.7032
G1 X150.178 Y114.761
G0 F4800 E11.7032
G0 X149.365 Y116.628 F10800
G0 X149.111 Y116.945
G0 X148.797 Y117.237
G0 X148.568 Y117.401
G0 X148.221 Y117.594
G0 X147.848 Y117.740
G0 X147.430 Y117.835
G0 X147.100 Y117.864
G0 X146.747 Y117.855
G0 X146.336 Y117.788
G0 X145.953 Y117.668
G0 X116.204 Y115.745
G0 F4800 E12.7032
;segType:HShell
G1 X117.531 Y117.139 E12.7672 F3600
G1 X118.061 Y117.139
G1 X116.281 Y115.269 E12.8531
G1 X116.281 Y114.711
G1 X118.592 Y117.139 E12.9646
G1 X119.123 Y117.139
G1 X116.153 Y114.020 E13.1079
;segType:Perimeter
G0 X115.988 Y113.855 F10800
G1 X115.646 Y114.467 E13.1312 F2159
G1 X115.693 Y114.849 E13.1440
G1 X115.689 Y115.164 E13.1545
G1 X115.629 Y115.566 E13.1680
G1 X115.540 Y115.865 E13.1784
G1 X115.410 Y116.173 E13.1895
G1 X115.210 Y116.512 E13.2026
G1 X114.973 Y116.807 E13.2152
G1 X114.679 Y117.081 E13.2285
G1 X114.467 Y117.232 E13.2372
G1 X114.140 Y117.415 E13.2496
G1 X113.791 Y117.550 E13.2621
G1 X113.399 Y117.640 E13.2755
G1 X113.091 Y117.667 E13.2857
G1 X112.760 Y117.658 E13.2968
G1 X112.374 Y117.596 E13.3098
G1 X112.014 Y117.484 E13.3223
G1 X111.654 Y117.311 E13.3356
G1 X111.436 Y117.169 E13.3442
G1 X111.146 Y116.931 E13.3567
G1 X110.891 Y116.655 E13.3692
G1 X110.663 Y116.319 E13.3827
G1 X110.524 Y116.040 E13.3931
G1 X110.410 Y115.726 E13.4042
G1 X110.326 Y115.340 E13.4174
G1 X110.299 Y114.960 E13.4300
G1 X110.329 Y114.557 E13.4434
G1 X110.382 Y114.301 E13.4522
G1 X110.497 Y113.942 E13.4647
G1 X110.662 Y113.602 E13.4773
G1 X110.891 Y113.267 E13.4907
G1 X111.099 Y113.037 E13.5011
G1 X111.349 Y112.817 E13.5121
G1 X111.675 Y112.599 E13.5252
G1 X112.015 Y112.437 E13.5377
G1 X112.397 Y112.319 E13.5510
G1 X112.652 Y112.275 E13.5596
G1 X113.025 Y112.252 E13.5721
G1 X113.398 Y112.281 E13.5845
G1 X113.791 Y112.370 E13.5979
G1 X114.080 Y112.480 E13.6082
G1 X114.375 Y112.631 E13.6192
G1 X114.697 Y112.856 E13.6323
G1 X114.973 Y113.114 E13.6448
G1 X115.224 Y113.428 E13.6582
G1 X115.359 Y113.651 E13.6669
G1 X115.519 Y113.995 E13.6795
G1 X115.622 Y114.352 E13.6919
G1 X116.174 Y114.761
;segType:HShell
G0 X146.312 Y111.695 F10800
G1 X116.146 Y80.001 E15.1471 F3600
;segType:Perimeter
G0 X115.988 Y79.863 F10800
G1 X115.646 Y80.475 E15.1705 F2159
G1 X115.693 Y80.857 E15.1833
G1 X115.689 Y81.172 E15.1937
G1 X115.629 Y81.574 E15.2072
G1 X115.540 Y81.873 E15.2176
G1 X115.410 Y82.181 E15.2287
G1 X115.210 Y82.521 E15.2419
G1 X114.973 Y82.816 E15.2544
G1 X114.679 Y83.089 E15.2678
G1 X114.467 Y83.240 E15.2764
G1 X114.140 Y83.423 E15.2889
G1 X113.792 Y83.559 E15.3013
G1 X113.399 Y83.648 E15.3147
G1 X113.091 Y83.675 E15.3250
G1 X112.760 Y83.667 E15.3360
G1 X112.374 Y83.605 E15.3490
G1 X112.014 Y83.492 E15.3616
G1 X111.654 Y83.319 E15.3749
G1 X111.436 Y83.177 E15.3835
G1 X111.146 Y82.939 E15.3960
G1 X110.891 Y82.663 E15.4085
G1 X110.663 Y82.328 E15.4220
G1 X110.524 Y82.049 E15.4323
G1 X110.410 Y81.734 E15.4435
G1 X110.326 Y81.348 E15.4566
G1 X110.299 Y80.968 E15.4693
G1 X110.329 Y80.566 E15.4827
G1 X110.382 Y80.309 E15.4914
G1 X110.497 Y79.950 E15.5040
G1 X110.662 Y79.611 E15.5165
G1 X110.891 Y79.275 E15.5300
G1 X111.099 Y79.045 E15.5403
G1 X111.349 Y78.825 E15.5514
G1 X111.675 Y78.607 E15.5645
G1 X112.015 Y78.445 E15.5770
G1 X112.397 Y78.327 E15.5903
G1 X112.652 Y78.283 E15.5989
G1 X113.025 Y78.260 E15.6113
G1 X113.398 Y78.289 E15.6238
G1 X113.791 Y78.379 E15.6372
G1 X114.080 Y78.488 E15.6474
G1 X114.375 Y78.639 E15.6585
G1 X114.697 Y78.864 E15.6715
G1 X114.973 Y79.122 E15.6841
G1 X115.224 Y79.436 E15.6975
G1 X115.359 Y79.660 E15.7062
G1 X115.519 Y80.003 E15.7188
G1 X115.622 Y80.360 E15.7311
G1 X116.174 Y80.770
;segType:HShell
G0 X116.278 Y80.698 F10800
G1 X145.897 Y111.817 E17.1600 F3600
G1 X145.523 Y111.981
G1 X116.283 Y81.261 E18.5706
G1 X116.208 Y81.739
G1 X145.184 Y112.183 E19.9685
G1 X144.875 Y112.415
G1 X116.076 Y82.158 E21.3578
G1 X115.906 Y82.537
G1 X144.597 Y112.681 E22.7419
G1 X144.351 Y112.981
G1 X115.703 Y82.881 E24.1240
G1 X115.461 Y83.185
G1 X144.134 Y113.310 E25.5072
G1 X143.955 Y113.680
G1 X115.189 Y83.456 E26.8950
G1 X114.890 Y83.700
G1 X143.818 Y114.094 E28.2906
G1 X143.730 Y114.558
G1 X114.555 Y83.905 E29.6981
G1 X114.187 Y84.077
G1 X143.710 Y115.095 E31.1224
G1 X143.803 Y115.750
G1 X113.780 Y84.206 E32.5708
G1 X113.326 Y84.287
G1 X144.215 Y116.740 E34.0609
G1 X144.064 Y117.139
G1 X112.806 Y84.298 E35.5689
G1 X112.185 Y84.203
G1 X143.534 Y117.139 E37.0813
G1 X143.003 Y117.139
G1 X111.298 Y83.829 E38.6108
G0 X110.113 Y82.584 F10800
G1 X109.375 Y81.809 E38.6464 F3600
G1 X108.845 Y81.809
G1 X142.472 Y117.139 E40.2686
G1 X141.942 Y117.139
G1 X108.314 Y81.809 E41.8909
G1 X107.816 Y81.843
G1 X141.411 Y117.139 E43.5116
G1 X140.880 Y117.139
G1 X107.816 Y82.400 E45.1068
G1 X107.816 Y82.958
G1 X140.350 Y117.139 E46.6763
G1 X139.819 Y117.139
G1 X107.816 Y83.515 E48.2202
G1 X107.816 Y84.073
G1 X139.288 Y117.139 E49.7385
G1 X138.758 Y117.139
G1 X107.816 Y84.630 E51.2313
G1 X107.816 Y85.188
G1 X138.227 Y117.139 E52.6984
G1 X137.696 Y117.139
G1 X107.816 Y85.746 E54.1399
G1 X107.816 Y86.303
G1 X137.166 Y117.139 E55.5558
G1 X136.635 Y117.139
G1 X107.816 Y86.861 E56.9462
G1 X107.816 Y87.418
G1 X136.104 Y117.139 E58.3109
G1 X135.574 Y117.139
G1 X107.816 Y87.976 E59.6500
G1 X107.816 Y88.533
G1 X135.043 Y117.139 E60.9635
G1 X134.512 Y117.139
G1 X107.816 Y89.091 E62.2514
G1 X107.816 Y89.648
G1 X133.982 Y117.139 E63.5138
G1 X133.451 Y117.139
G1 X107.816 Y90.206 E64.7505
G1 X107.816 Y90.763
G1 X132.920 Y117.139 E65.9616
G1 X132.390 Y117.139
G1 X107.816 Y91.321 E67.1471
G1 X107.816 Y91.878
G1 X131.859 Y117.139 E68.3070
G1 X131.328 Y117.139
G1 X107.816 Y92.436 E69.4413
G1 X107.816 Y92.994
G1 X130.798 Y117.139 E70.5500
G1 X130.267 Y117.139
G1 X107.816 Y93.551 E71.6332
G1 X107.816 Y94.109
G1 X129.736 Y117.139 E72.6907
G1 X129.206 Y117.139
G1 X107.816 Y94.666 E73.7226
G1 X107.816 Y95.224
G1 X128.675 Y117.139 E74.7289
G1 X128.144 Y117.139
G1 X107.816 Y95.781 E75.7096
G1 X107.816 Y96.339
G1 X127.613 Y117.139 E76.6647
G1 X127.083 Y117.139
G1 X107.816 Y96.896 E77.5942
G1 X107.816 Y97.454
G1 X126.552 Y117.139 E78.4981
G1 X126.021 Y117.139
G1 X107.816 Y98.011 E79.3764
G1 X107.816 Y98.569
G1 X125.491 Y117.139 E80.2291
G1 X124.960 Y117.139
G1 X107.816 Y99.127 E81.0562
G1 X107.816 Y99.684
G1 X124.429 Y117.139 E81.8577
G1 X123.899 Y117.139
G1 X107.816 Y100.242 E82.6336
G1 X107.816 Y100.799
G1 X123.368 Y117.139 E83.3839
G1 X122.837 Y117.139
G1 X107.816 Y101.357 E84.1086
G1 X107.816 Y101.914
G1 X122.307 Y117.139 E84.8077
G1 X121.776 Y117.139
G1 X107.816 Y102.472 E85.4812
G1 X107.816 Y103.029
G1 X121.245 Y117.139 E86.1291
G1 X120.715 Y117.139
G1 X107.816 Y103.587 E86.7514
G1 X107.816 Y104.144
G1 X120.184 Y117.139 E87.3481
G1 X119.653 Y117.139
G1 X115.412 Y112.683 E87.5527
G1 X115.390 Y112.660
G1 X107.816 Y104.702 E87.9181
G1 X107.816 Y105.260
G1 X114.033 Y111.792 E88.2181
G1 X113.363 Y111.646
G1 X107.816 Y105.817 E88.4857
G1 X107.816 Y106.375
G1 X112.820 Y111.633 E88.7272
G1 X112.343 Y111.689
G1 X107.816 Y106.932 E88.9456
G1 X107.816 Y107.490
G1 X111.925 Y111.807 E89.1439
G1 X111.547 Y111.968
G1 X107.816 Y108.047 E89.3239
G1 X107.816 Y108.605
G1 X111.205 Y112.166 E89.4874
G1 X110.893 Y112.396
G1 X107.816 Y109.162 E89.6359
G1 X107.816 Y109.720
G1 X110.613 Y112.659 E89.7708
G1 X110.365 Y112.956
G1 X107.816 Y110.277 E89.8938
G1 X107.816 Y110.835
G1 X110.144 Y113.282 E90.0062
G1 X109.965 Y113.651
G1 X107.816 Y111.392 E90.1099
G1 X107.816 Y111.950
G1 X109.825 Y114.061 E90.2068
G1 X109.370 Y114.140
G1 X107.816 Y112.508 E90.2818
G1 X107.816 Y113.065
G1 X108.839 Y114.140 E90.3312
G1 X108.308 Y114.140
G1 X107.816 Y113.623 E90.3549
G0 X110.130 Y114.691 F10800
G0 X110.111 Y114.960
G0 X110.353 Y116.121
G0 X111.021 Y117.078
G0 X111.949 Y117.668
G0 X113.426 Y117.835
G0 X113.844 Y117.740
G0 X114.217 Y117.594
G0 X115.939 Y117.139
G1 X115.696 Y116.884 E90.3666 F3600
G1 X115.899 Y116.540
G1 X116.469 Y117.139 E90.3942
G1 X117.000 Y117.139
G1 X116.071 Y116.163 E90.4390
G0 X146.785 Y111.635 F10800
G1 X115.542 Y78.810 E91.9462 F3600
G1 X116.073 Y78.810
G1 X147.323 Y111.642 E93.4538
G1 X147.973 Y111.768
G1 X116.603 Y78.810 E94.9672
G1 X117.134 Y78.810
G1 X149.053 Y112.345 E96.5070
G1 X149.631 Y112.953
G1 X150.762 Y114.140 E96.5616
G1 X151.292 Y114.140
G1 X117.665 Y78.810 E98.1839
G1 X118.195 Y78.810
G1 X151.823 Y114.140 E99.8062
G1 X152.199 Y113.978
G1 X118.726 Y78.810 E101.4210
G1 X119.257 Y78.810
G1 X152.199 Y113.420 E103.0102
G1 X152.199 Y112.863
G1 X119.787 Y78.810 E104.5738
G1 X120.318 Y78.810
G1 X152.199 Y112.305 E106.1118
G1 X152.199 Y111.747
G1 X120.849 Y78.810 E107.6242
G1 X121.379 Y78.810
G1 X152.199 Y111.190 E109.1110
G1 X152.199 Y110.632
G1 X121.910 Y78.810 E110.5722
G1 X122.441 Y78.810
G1 X152.199 Y110.075 E112.0078
G1 X152.199 Y109.517
G1 X122.971 Y78.810 E113.4179
G1 X123.502 Y78.810
G1 X152.199 Y108.960 E114.8023
G1 X152.199 Y108.402
G1 X124.033 Y78.810 E116.1611
G1 X124.563 Y78.810
G1 X152.199 Y107.845 E117.4943
G1 X152.199 Y107.287
G1 X125.094 Y78.810 E118.8019
G1 X125.625 Y78.810
G1 X152.199 Y106.730 E120.0839
G1 X152.199 Y106.172
G1 X126.155 Y78.810 E121.3403
G1 X126.686 Y78.810
G1 X152.199 Y105.614 E122.5711
G1 X152.199 Y105.057
G1 X127.217 Y78.810 E123.7763
G1 X127.747 Y78.810
G1 X152.199 Y104.499 E124.9559
G1 X152.199 Y103.942
G1 X128.278 Y78.810 E126.1099
G1 X128.809 Y78.810
G1 X152.199 Y103.384 E127.2383
G1 X152.199 Y102.827
G1 X129.339 Y78.810 E128.3411
G1 X129.870 Y78.810
G1 X152.199 Y102.269 E129.4182
G1 X152.199 Y101.712
G1 X130.401 Y78.810 E130.4698
G1 X130.932 Y78.810
G1 X152.199 Y101.154 E131.4958
G1 X152.199 Y100.597
G1 X131.462 Y78.810 E132.4962
G1 X131.993 Y78.810
G1 X152.199 Y100.039 E133.4710
G1 X152.199 Y99.481
G1 X132.524 Y78.810 E134.4202
G1 X133.054 Y78.810
G1 X152.199 Y98.924 E135.3438
G1 X152.199 Y98.366
G1 X133.585 Y78.810 E136.2418
G1 X134.116 Y78.810
G1 X152.199 Y97.809 E137.1142
G1 X152.199 Y97.251
G1 X134.646 Y78.810 E137.9610
G1 X135.177 Y78.810
G1 X152.199 Y96.694 E138.7821
G1 X152.199 Y96.136
G1 X135.708 Y78.810 E139.5777
G1 X136.238 Y78.810
G1 X152.199 Y95.579 E140.3477
G1 X152.199 Y95.021
G1 X136.769 Y78.810 E141.0921
G1 X137.300 Y78.810
G1 X152.199 Y94.464 E141.8109
G1 X152.199 Y93.906
G1 X137.830 Y78.810 E142.5040
G1 X138.361 Y78.810
G1 X152.199 Y93.349 E143.1716
G1 X152.199 Y92.791
G1 X138.892 Y78.810 E143.8136
G1 X139.422 Y78.810
G1 X152.199 Y92.233 E144.4300
G1 X152.199 Y91.676
G1 X139.953 Y78.810 E145.0208
G1 X140.484 Y78.810
G1 X144.171 Y82.684 E145.1987
G0 X145.193 Y83.758 F10800
G1 X152.199 Y91.118 E145.5366 F3600
G1 X152.199 Y90.561
G1 X146.130 Y84.185 E145.8294
G1 X146.768 Y84.297
G1 X152.199 Y90.003 E146.0914
G1 X152.199 Y89.446
G1 X147.292 Y84.290 E146.3281
G1 X147.750 Y84.214
G1 X152.199 Y88.888 E146.5427
G1 X152.199 Y88.331
G1 X148.161 Y84.089 E146.7375
G1 X148.532 Y83.920
G1 X152.199 Y87.773 E146.9145
G1 X152.199 Y87.216
G1 X148.869 Y83.718 E147.0751
G1 X149.171 Y83.477
G1 X152.199 Y86.658 E147.2211
G1 X152.199 Y86.100
G1 X149.446 Y83.208 E147.3539
G1 X149.689 Y82.906
G1 X152.199 Y85.543 E147.4750
G1 X152.199 Y84.985
G1 X149.894 Y82.564 E147.5862
G1 X150.067 Y82.188
G1 X152.199 Y84.428 E147.6890
G1 X152.199 Y83.870
G1 X150.237 Y81.809 E147.7837
G1 X150.768 Y81.809
G1 X152.199 Y83.313 E147.8527
G1 X152.199 Y82.755
G1 X151.298 Y81.809 E147.8962
G1 X151.829 Y81.809
G1 X152.199 Y82.198 E147.9140
G0 X149.111 Y78.985 F10800
G0 X147.846 Y78.189
G0 X147.428 Y78.094
G0 X147.030 Y78.063
G0 X145.589 Y78.434
G0 X144.198 Y78.810
G1 X144.359 Y78.978 E147.9218 F3600
G1 X144.140 Y79.306
G1 X143.668 Y78.810 E147.9445
G1 X143.137 Y78.810
G1 X143.961 Y79.676 E147.9843
G1 X143.823 Y80.088
G1 X142.606 Y78.810 E148.0430
G1 X142.076 Y78.810
G1 X143.731 Y80.550 E148.1229
G1 X143.709 Y81.083
G1 X141.545 Y78.810 E148.2273
G1 X141.014 Y78.810
G1 X143.798 Y81.735 E148.3616
G0 X113.896 Y78.195 F10800
G1 X114.081 Y78.389 E148.3706 F3600
; ------------------------------------
; Layer #2
; ------------------------------------
G21 ; mm
G90 ; abs
G92 E0 ; reset extr
M106 S255
G0 F4800 E-1.0000
G0 F300 Z0.600
G0 X147.483 Y84.234 F10800
G0 X149.660 Y82.880
G0 X150.845 Y81.599
G0 F4800 E0.0000
;segType:Loop
G1 X152.399 Y81.599 E0.0517 F3600
G1 X152.399 Y114.350 E1.1410
G1 X150.040 Y114.350 E1.2194
G1 X150.039 Y114.344 E1.2196
G1 X149.902 Y113.856 E1.2365
G1 X149.726 Y113.472 E1.2506
G1 X149.552 Y113.181 E1.2618
G1 X149.265 Y112.821 E1.2772
G1 X148.956 Y112.531 E1.2912
G1 X148.597 Y112.278 E1.3058
G1 X148.291 Y112.115 E1.3174
G1 X147.907 Y111.966 E1.3311
G1 X147.459 Y111.864 E1.3464
G1 X147.047 Y111.831 E1.3601
G1 X146.640 Y111.853 E1.3737
G1 X146.313 Y111.908 E1.3847
G1 X145.879 Y112.042 E1.3998
G1 X145.501 Y112.222 E1.4137
G1 X145.134 Y112.463 E1.4283
G1 X144.869 Y112.690 E1.4399
G1 X144.587 Y112.997 E1.4538
G1 X144.323 Y113.383 E1.4694
G1 X144.138 Y113.764 E1.4835
G1 X144.007 Y114.160 E1.4973
G1 X143.935 Y114.494 E1.5087
G1 X143.901 Y114.959 E1.5242
G1 X143.931 Y115.388 E1.5385
G1 X144.024 Y115.826 E1.5534
G1 X144.140 Y116.160 E1.5651
G1 X144.323 Y116.538 E1.5791
G1 X144.587 Y116.924 E1.5947
G1 X144.871 Y117.234 E1.6087
G1 X145.011 Y117.350 E1.6147
G1 X114.993 Y117.350 E2.6131
G1 X115.259 Y117.102 E2.6251
G1 X115.526 Y116.772 E2.6393
G1 X115.754 Y116.391 E2.6540
G1 X115.896 Y116.067 E2.6658
G1 X116.019 Y115.664 E2.6798
G1 X116.089 Y115.197 E2.6955
G1 X116.091 Y114.770 E2.7097
G1 X116.036 Y114.344 E2.7240
G1 X115.898 Y113.856 E2.7409
G1 X115.723 Y113.472 E2.7549
G1 X115.549 Y113.180 E2.7662
G1 X115.261 Y112.821 E2.7815
G1 X114.953 Y112.531 E2.7956
G1 X114.594 Y112.278 E2.8102
G1 X114.288 Y112.115 E2.8217
G1 X113.904 Y111.966 E2.8354
G1 X113.456 Y111.864 E2.8507
G1 X113.043 Y111.831 E2.8645
G1 X112.637 Y111.853 E2.8780
G1 X112.310 Y111.908 E2.8890
G1 X111.876 Y112.042 E2.9042
G1 X111.497 Y112.222 E2.9181
G1 X111.131 Y112.463 E2.9327
G1 X110.865 Y112.690 E2.9443
G1 X110.583 Y112.997 E2.9582
G1 X110.320 Y113.383 E2.9737
G1 X110.134 Y113.764 E2.9878
G1 X110.003 Y114.160 E3.0017
G1 X109.963 Y114.350 E3.0082
G1 X107.616 Y114.350 E3.0862
G1 X107.616 Y81.599 E4.1755
G1 X109.971 Y81.599 E4.2539
G1 X110.020 Y81.834 E4.2618
G1 X110.136 Y82.168 E4.2736
G1 X110.320 Y82.546 E4.2876
G1 X110.583 Y82.932 E4.3031
G1 X110.868 Y83.242 E4.3171
G1 X111.184 Y83.505 E4.3308
G1 X111.463 Y83.689 E4.3419
G1 X111.873 Y83.886 E4.3571
G1 X112.272 Y84.012 E4.3710
G1 X112.702 Y84.084 E4.3855
G1 X113.047 Y84.098 E4.3969
G1 X113.456 Y84.065 E4.4106
G1 X113.904 Y83.963 E4.4259
G1 X114.291 Y83.813 E4.4397
G1 X114.649 Y83.616 E4.4533
G1 X114.923 Y83.423 E4.4644
G1 X115.259 Y83.111 E4.4797
G1 X115.526 Y82.780 E4.4938
G1 X115.754 Y82.399 E4.5086
G1 X115.896 Y82.075 E4.5204
G1 X116.019 Y81.672 E4.5344
G1 X116.089 Y81.205 E4.5501
G1 X116.091 Y80.779 E4.5643
G1 X116.036 Y80.353 E4.5785
G1 X115.898 Y79.865 E4.5954
G1 X115.723 Y79.480 E4.6095
G1 X115.549 Y79.189 E4.6208
G1 X115.261 Y78.829 E4.6361
G1 X115.017 Y78.600 E4.6472
G1 X141.900 Y78.600 E5.5414
G1 X144.983 Y78.600 E5.6439
G1 X144.869 Y78.698 E5.6489
G1 X144.587 Y79.005 E5.6628
G1 X144.323 Y79.391 E5.6784
G1 X144.138 Y79.773 E5.6925
G1 X144.007 Y80.168 E5.7063
G1 X143.935 Y80.502 E5.7177
G1 X143.901 Y80.967 E5.7332
G1 X143.931 Y81.396 E5.7475
G1 X144.024 Y81.834 E5.7624
G1 X144.140 Y82.168 E5.7741
G1 X144.323 Y82.546 E5.7881
G1 X144.587 Y82.932 E5.8037
G1 X144.871 Y83.242 E5.8176
G1 X145.187 Y83.505 E5.8313
G1 X145.466 Y83.690 E5.8424
G1 X145.877 Y83.886 E5.8576
G1 X146.276 Y84.012 E5.8715
G1 X146.706 Y84.084 E5.8860
G1 X147.051 Y84.098 E5.8975
G1 X147.459 Y84.065 E5.9111
G1 X147.907 Y83.963 E5.9264
G1 X148.294 Y83.813 E5.9402
G1 X148.653 Y83.616 E5.9538
G1 X148.927 Y83.423 E5.9650
G1 X149.263 Y83.111 E5.9802
G1 X149.529 Y82.780 E5.9943
G1 X149.758 Y82.399 E6.0091
G1 X149.900 Y82.075 E6.0209
G1 X150.023 Y81.672 E6.0349
G1 X150.034 Y81.599 E6.0373
G1 X150.658 Y81.599 E6.0581
G0 F4800 E5.0581
G0 X149.869 Y81.179 F10800
G0 F4800 E6.0581
;segType:Perimeter
G1 X152.799 Y81.179 E6.1555 F2159
G1 X152.799 Y114.771 E7.2728
G1 X149.813 Y114.771 E7.3721
G1 X149.775 Y115.343 E7.3912
G1 X149.652 Y115.873 E7.4093
G1 X149.424 Y116.375 E7.4276
G1 X149.132 Y116.787 E7.4444
G1 X148.770 Y117.140 E7.4612
G1 X148.309 Y117.446 E7.4796
G1 X147.968 Y117.597 E7.4920
G1 X147.729 Y117.674 E7.5004
G1 X147.430 Y117.736 E7.5105
G1 X146.994 Y117.770 E7.5251
G1 X113.019 Y117.770 E8.6551
G1 X112.646 Y117.745 E8.6675
G1 X112.314 Y117.680 E8.6788
G1 X111.973 Y117.568 E8.6907
G1 X111.706 Y117.445 E8.7005
G1 X111.456 Y117.298 E8.7101
G1 X111.164 Y117.074 E8.7224
G1 X110.907 Y116.816 E8.7345
G1 X110.683 Y116.525 E8.7467
G1 X110.502 Y116.211 E8.7587
G1 X110.362 Y115.873 E8.7709
G1 X110.269 Y115.527 E8.7828
G1 X110.232 Y115.271 E8.7914
G1 X110.203 Y114.771 E8.8081
G1 X107.216 Y114.771 E8.9075
G1 X107.216 Y81.179 E10.0247
G1 X110.201 Y81.179 E10.1240
G1 X110.239 Y80.602 E10.1432
G1 X110.362 Y80.077 E10.1612
G1 X110.502 Y79.739 E10.1734
G1 X110.683 Y79.425 E10.1854
G1 X110.906 Y79.134 E10.1976
G1 X111.163 Y78.876 E10.2097
G1 X111.455 Y78.653 E10.2219
G1 X111.770 Y78.470 E10.2341
G1 X112.111 Y78.329 E10.2463
G1 X112.464 Y78.235 E10.2585
G1 X113.016 Y78.179 E10.2769
G1 X141.900 Y78.179 E11.2376
G1 X147.040 Y78.180 E11.4086
G1 X147.411 Y78.211 E11.4209
G1 X147.777 Y78.290 E11.4334
G1 X148.122 Y78.414 E11.4456
G1 X148.452 Y78.585 E11.4580
G1 X148.804 Y78.839 E11.4724
G1 X149.027 Y79.046 E11.4825
G1 X149.300 Y79.382 E11.4969
G1 X149.460 Y79.640 E11.5070
G1 X149.636 Y80.034 E11.5214
G1 X149.723 Y80.327 E11.5315
G1 X149.775 Y80.605 E11.5409
G1 X149.809 Y81.120 E11.5581
G1 X150.078 Y81.770
G0 X149.685 Y81.323 F10800
G0 X149.655 Y80.500
G1 X149.695 Y80.806 E11.5684 F2159
G1 X149.693 Y81.171 E11.5805
G1 X149.632 Y81.575 E11.5941
G1 X149.526 Y81.922 E11.6062
G1 X149.405 Y82.198 E11.6162
G1 X149.206 Y82.531 E11.6291
G1 X148.976 Y82.816 E11.6413
G1 X148.682 Y83.089 E11.6546
G1 X148.448 Y83.254 E11.6641
G1 X148.132 Y83.428 E11.6761
G1 X147.795 Y83.559 E11.6882
G1 X147.401 Y83.648 E11.7016
G1 X147.043 Y83.677 E11.7135
G1 X146.745 Y83.665 E11.7234
G1 X146.365 Y83.601 E11.7363
G1 X146.018 Y83.492 E11.7484
G1 X145.657 Y83.319 E11.7617
G1 X145.419 Y83.161 E11.7712
G1 X145.140 Y82.930 E11.7832
G1 X144.895 Y82.663 E11.7953
G1 X144.666 Y82.327 E11.8088
G1 X144.507 Y82.001 E11.8209
G1 X144.409 Y81.716 E11.8309
G1 X144.328 Y81.335 E11.8439
G1 X144.303 Y80.968 E11.8561
G1 X144.332 Y80.565 E11.8695
G1 X144.392 Y80.283 E11.8791
G1 X144.506 Y79.938 E11.8912
G1 X144.666 Y79.611 E11.9033
G1 X144.895 Y79.275 E11.9168
G1 X145.140 Y79.008 E11.9289
G1 X145.367 Y78.814 E11.9388
G1 X145.690 Y78.601 E11.9517
G1 X146.019 Y78.445 E11.9638
G1 X146.401 Y78.327 E11.9771
G1 X146.682 Y78.280 E11.9866
G1 X147.042 Y78.261 E11.9986
G1 X147.401 Y78.289 E12.0106
G1 X147.795 Y78.379 E12.0240
G1 X148.130 Y78.509 E12.0360
G1 X148.394 Y78.650 E12.0459
G1 X148.711 Y78.873 E12.0588
G1 X148.977 Y79.122 E12.0709
G1 X149.228 Y79.437 E12.0843
G1 X149.375 Y79.683 E12.0938
G1 X149.527 Y80.016 E12.1060
G1 X149.631 Y80.385 E12.1187
;segType:HShell
G0 X152.199 Y110.044 F10800
G1 X149.539 Y112.838 E12.2470 F3600
G1 X149.771 Y113.152
G1 X152.199 Y110.601 E12.3642
G1 X152.199 Y111.159
G1 X149.964 Y113.507 E12.4720
;segType:Perimeter
G0 X149.999 Y113.881 F10800
G1 X149.655 Y114.491 E12.4953 F2159
G1 X149.695 Y114.798 E12.5056
G1 X149.693 Y115.163 E12.5177
G1 X149.632 Y115.566 E12.5313
G1 X149.526 Y115.914 E12.5434
G1 X149.405 Y116.190 E12.5534
G1 X149.206 Y116.523 E12.5663
G1 X148.976 Y116.808 E12.5785
G1 X148.682 Y117.081 E12.5918
G1 X148.448 Y117.246 E12.6013
G1 X148.132 Y117.420 E12.6134
G1 X147.795 Y117.550 E12.6254
G1 X147.401 Y117.640 E12.6388
G1 X147.043 Y117.669 E12.6507
G1 X146.745 Y117.656 E12.6607
G1 X146.365 Y117.593 E12.6735
G1 X146.018 Y117.484 E12.6856
G1 X145.657 Y117.310 E12.6989
G1 X145.419 Y117.153 E12.7084
G1 X145.140 Y116.922 E12.7204
G1 X144.895 Y116.654 E12.7325
G1 X144.666 Y116.319 E12.7460
G1 X144.507 Y115.992 E12.7581
G1 X144.409 Y115.708 E12.7681
G1 X144.328 Y115.327 E12.7811
G1 X144.303 Y114.960 E12.7933
G1 X144.332 Y114.557 E12.8068
G1 X144.392 Y114.275 E12.8163
G1 X144.506 Y113.930 E12.8284
G1 X144.666 Y113.602 E12.8405
G1 X144.895 Y113.267 E12.8540
G1 X145.140 Y113.000 E12.8661
G1 X145.367 Y112.806 E12.8761
G1 X145.690 Y112.593 E12.8889
G1 X146.019 Y112.437 E12.9010
G1 X146.401 Y112.318 E12.9143
G1 X146.682 Y112.272 E12.9238
G1 X147.042 Y112.252 E12.9358
G1 X147.401 Y112.281 E12.9478
G1 X147.795 Y112.370 E12.9612
G1 X148.131 Y112.501 E12.9732
G1 X148.394 Y112.641 E12.9831
G1 X148.711 Y112.864 E12.9960
G1 X148.977 Y113.114 E13.0081
G1 X149.228 Y113.429 E13.0215
G1 X149.375 Y113.675 E13.0311
G1 X149.527 Y114.008 E13.0432
G1 X149.631 Y114.376 E13.0560
G0 F4800 E12.0560
G0 X149.795 Y112.555 F10800
G0 X144.698 Y83.357
G0 F4800 E13.0560
;segType:HShell
G1 X115.974 Y113.536 E14.4417 F3600
;segType:Perimeter
G0 X115.996 Y113.881 F10800
G1 X115.651 Y114.491 E14.4650 F2159
G1 X115.691 Y114.798 E14.4753
G1 X115.689 Y115.163 E14.4874
G1 X115.629 Y115.566 E14.5010
G1 X115.523 Y115.914 E14.5131
G1 X115.401 Y116.190 E14.5231
G1 X115.202 Y116.523 E14.5360
G1 X114.972 Y116.808 E14.5482
G1 X114.678 Y117.081 E14.5616
G1 X114.445 Y117.246 E14.5711
G1 X114.128 Y117.420 E14.5831
G1 X113.791 Y117.550 E14.5951
G1 X113.398 Y117.640 E14.6085
G1 X113.039 Y117.669 E14.6205
G1 X112.741 Y117.656 E14.6304
G1 X112.361 Y117.593 E14.6432
G1 X112.014 Y117.484 E14.6553
G1 X111.653 Y117.310 E14.6686
G1 X111.415 Y117.153 E14.6781
G1 X111.137 Y116.922 E14.6902
G1 X110.891 Y116.654 E14.7022
G1 X110.662 Y116.319 E14.7157
G1 X110.503 Y115.992 E14.7278
G1 X110.405 Y115.708 E14.7378
G1 X110.324 Y115.327 E14.7508
G1 X110.299 Y114.960 E14.7630
G1 X110.329 Y114.557 E14.7765
G1 X110.388 Y114.275 E14.7860
G1 X110.503 Y113.929 E14.7982
G1 X110.662 Y113.602 E14.8103
G1 X110.891 Y113.267 E14.8238
G1 X111.136 Y113.000 E14.8358
G1 X111.364 Y112.806 E14.8458
G1 X111.686 Y112.593 E14.8586
G1 X112.015 Y112.437 E14.8707
G1 X112.398 Y112.318 E14.8840
G1 X112.678 Y112.272 E14.8935
G1 X113.039 Y112.252 E14.9055
G1 X113.398 Y112.281 E14.9175
G1 X113.791 Y112.370 E14.9309
G1 X114.127 Y112.501 E14.9429
G1 X114.391 Y112.641 E14.9528
G1 X114.707 Y112.864 E14.9657
G1 X114.973 Y113.114 E14.9778
G1 X115.224 Y113.428 E14.9912
G1 X115.372 Y113.675 E15.0008
G1 X115.523 Y114.008 E15.0130
G1 X115.627 Y114.376 E15.0257
G1 X116.180 Y114.783
;segType:HShell
G0 X118.778 Y78.810 F10800
G1 X116.253 Y81.463 E15.1475 F3600
G1 X116.291 Y80.865
G1 X118.247 Y78.810 E15.2419
G1 X117.716 Y78.810
G1 X116.239 Y80.362 E15.3132
G1 X116.124 Y79.926
G1 X117.186 Y78.810 E15.3644
G1 X116.655 Y78.810
G1 X115.968 Y79.532 E15.3976
;segType:Perimeter
G0 X115.996 Y79.889 F10800
G1 X115.651 Y80.500 E15.4209 F2159
G1 X115.691 Y80.806 E15.4311
G1 X115.689 Y81.171 E15.4433
G1 X115.629 Y81.575 E15.4568
G1 X115.523 Y81.922 E15.4689
G1 X115.401 Y82.198 E15.4790
G1 X115.202 Y82.531 E15.4919
G1 X114.972 Y82.816 E15.5040
G1 X114.678 Y83.089 E15.5174
G1 X114.445 Y83.254 E15.5269
G1 X114.128 Y83.428 E15.5389
G1 X113.791 Y83.559 E15.5509
G1 X113.398 Y83.648 E15.5643
G1 X113.039 Y83.677 E15.5763
G1 X112.742 Y83.665 E15.5862
G1 X112.361 Y83.601 E15.5991
G1 X112.014 Y83.492 E15.6111
G1 X111.653 Y83.319 E15.6245
G1 X111.415 Y83.161 E15.6340
G1 X111.137 Y82.930 E15.6460
G1 X110.891 Y82.663 E15.6581
G1 X110.662 Y82.327 E15.6716
G1 X110.503 Y82.001 E15.6837
G1 X110.405 Y81.716 E15.6937
G1 X110.324 Y81.335 E15.7066
G1 X110.299 Y80.968 E15.7189
G1 X110.329 Y80.565 E15.7323
G1 X110.388 Y80.284 E15.7419
G1 X110.503 Y79.938 E15.7540
G1 X110.662 Y79.610 E15.7661
G1 X110.891 Y79.275 E15.7796
G1 X111.136 Y79.008 E15.7916
G1 X111.364 Y78.814 E15.8016
G1 X111.686 Y78.601 E15.8145
G1 X112.015 Y78.445 E15.8266
G1 X112.398 Y78.327 E15.8399
G1 X112.678 Y78.280 E15.8493
G1 X113.039 Y78.261 E15.8613
G1 X113.398 Y78.289 E15.8733
G1 X113.791 Y78.379 E15.8868
G1 X114.127 Y78.509 E15.8987
G1 X114.391 Y78.650 E15.9087
G1 X114.707 Y78.873 E15.9215
G1 X114.973 Y79.122 E15.9337
G1 X115.224 Y79.437 E15.9471
G1 X115.372 Y79.683 E15.9566
G1 X115.523 Y80.016 E15.9688
G1 X115.628 Y80.385 E15.9815
G1 X116.180 Y80.792
;segType:HShell
G0 X115.777 Y79.175 F10800
G1 X116.124 Y78.810 E15.9983 F3600
G0 X119.308 Y78.810 F10800
G1 X116.045 Y82.239 E16.1558 F3600
G0 X114.204 Y83.608 F10800
G0 X113.043 Y83.874
G0 X111.948 Y83.677
G0 X107.963 Y81.809
G1 X107.816 Y81.964 E16.1629 F3600
G1 X107.816 Y82.522
G1 X108.494 Y81.809 E16.1956
G1 X109.024 Y81.809
G1 X107.816 Y83.079 E16.2539
G1 X107.816 Y83.637
G1 X109.555 Y81.809 E16.3378
G1 X109.880 Y82.026
G1 X107.816 Y84.194 E16.4374
G1 X107.816 Y84.752
G1 X110.034 Y82.421 E16.5444
G1 X110.229 Y82.774
G1 X107.816 Y85.309 E16.6608
G1 X107.816 Y85.867
G1 X110.454 Y83.095 E16.7881
G1 X110.715 Y83.378
G1 X107.816 Y86.424 E16.9280
G1 X107.816 Y86.982
G1 X111.008 Y83.627 E17.0820
G1 X111.328 Y83.849
G1 X107.816 Y87.539 E17.2515
G1 X107.816 Y88.097
G1 X111.688 Y84.028 E17.4383
G1 X112.082 Y84.172
G1 X107.816 Y88.654 E17.6441
G1 X107.816 Y89.212
G1 X112.523 Y84.266 E17.8712
G1 X113.015 Y84.307
G1 X107.816 Y89.770 E18.1221
G1 X107.816 Y90.327
G1 X113.603 Y84.247 E18.4013
G0 X111.697 Y111.896 F10800
G1 X143.188 Y78.810 E19.9205 F3600
G1 X143.719 Y78.810
G1 X112.440 Y111.673 E21.4295
G1 X113.019 Y111.622
G1 X144.249 Y78.810 E22.9361
G1 X143.964 Y79.668
G1 X113.512 Y111.662 E24.4052
G1 X113.948 Y111.761
G1 X143.739 Y80.461 E25.8424
G1 X143.707 Y81.053
G1 X114.337 Y111.910 E27.2593
G1 X114.692 Y112.095
G1 X143.760 Y81.555 E28.6616
G1 X143.868 Y81.999
G1 X115.010 Y112.319 E30.0538
G1 X115.298 Y112.573
G1 X144.024 Y82.392 E31.4396
G1 X144.215 Y82.749
G1 X115.554 Y112.861 E32.8223
G1 X115.783 Y113.178
G1 X144.438 Y83.073 E34.2047
G0 X146.727 Y83.861 F10800
G0 X147.847 Y83.748
G0 X149.110 Y82.954
G0 X150.083 Y82.159
G1 X150.416 Y81.809 E34.2207 F3600
G0 X152.199 Y113.947 F10800
G1 X152.014 Y114.140 E34.2297 F3600
G1 X151.484 Y114.140
G1 X152.199 Y113.389 E34.2642
G1 X152.199 Y112.831
G1 X150.953 Y114.140 E34.3243
G1 X150.422 Y114.140
G1 X152.199 Y112.274 E34.4100
G1 X152.199 Y111.716
G1 X150.122 Y113.898 E34.5101
G1 X149.884 Y114.705
G1 X149.597 Y115.007 E34.5240
G1 X149.492 Y115.675
G1 X149.880 Y115.268 E34.5427
G0 F4800 E33.5427
G0 X147.845 Y117.406 F10800
G0 F4800 E34.5427
G1 X147.423 Y117.849 E34.5630 F3600
G1 X146.871 Y117.872
G1 X147.182 Y117.544 E34.5781
G1 X146.637 Y117.560
G1 X146.398 Y117.811 E34.5896
G1 X145.981 Y117.691
G1 X146.106 Y117.560 E34.5957
G0 X144.384 Y117.140 F10800
G1 X144.446 Y117.074 E34.5987 F3600
G1 X144.223 Y116.751
G1 X143.853 Y117.140 E34.6165
G1 X143.322 Y117.140
G1 X144.030 Y116.396 E34.6506
G1 X143.873 Y116.004
G1 X142.792 Y117.140 E34.7028
G1 X142.261 Y117.140
G1 X143.763 Y115.562 E34.7753
G1 X143.708 Y115.062
G1 X141.730 Y117.140 E34.8707
G1 X141.200 Y117.140
G1 X143.736 Y114.475 E34.9931
G0 X145.258 Y112.645 F10800
G0 X152.199 Y109.486
G1 X149.280 Y112.553 E35.1339 F3600
G1 X148.989 Y112.301
G1 X152.199 Y108.929 E35.2887
G1 X152.199 Y108.371
G1 X148.668 Y112.081 E35.4591
G1 X148.311 Y111.899
G1 X152.199 Y107.814 E35.6466
G1 X152.199 Y107.256
G1 X147.918 Y111.753 E35.8532
G1 X147.481 Y111.655
G1 X152.199 Y106.698 E36.0807
G1 X152.199 Y106.141
G1 X146.980 Y111.624 E36.3325
G1 X146.395 Y111.681
G1 X152.199 Y105.583 E36.6125
G1 X152.199 Y105.026
G1 X145.626 Y111.932 E36.9296
G0 X143.949 Y113.693 F10800
G1 X140.669 Y117.140 E37.0879 F3600
G1 X140.138 Y117.140
G1 X152.199 Y104.468 E37.6697
G1 X152.199 Y103.911
G1 X139.608 Y117.140 E38.2772
G1 X139.077 Y117.140
G1 X152.199 Y103.353 E38.9102
G1 X152.199 Y102.796
G1 X138.546 Y117.140 E39.5688
G1 X138.016 Y117.140
G1 X152.199 Y102.238 E40.2531
G1 X152.199 Y101.681
G1 X137.485 Y117.140 E40.9629
G1 X136.954 Y117.140
G1 X152.199 Y101.123 E41.6984
G1 X152.199 Y100.565
G1 X136.424 Y117.140 E42.4594
G1 X135.893 Y117.140
G1 X152.199 Y100.008 E43.2460
G1 X152.199 Y99.450
G1 X135.362 Y117.140 E44.0583
G1 X134.832 Y117.140
G1 X152.199 Y98.893 E44.8961
G1 X152.199 Y98.335
G1 X134.301 Y117.140 E45.7596
G1 X133.770 Y117.140
G1 X152.199 Y97.778 E46.6486
G1 X152.199 Y97.220
G1 X133.240 Y117.140 E47.5633
G1 X132.709 Y117.140
G1 X152.199 Y96.663 E48.5035
G1 X152.199 Y96.105
G1 X132.178 Y117.140 E49.4694
G1 X131.648 Y117.140
G1 X152.199 Y95.548 E50.4608
G1 X152.199 Y94.990
G1 X131.117 Y117.140 E51.4779
G1 X130.586 Y117.140
G1 X152.199 Y94.433 E52.5205
G1 X152.199 Y93.875
G1 X130.056 Y117.140 E53.5888
G1 X129.525 Y117.140
G1 X152.199 Y93.317 E54.6826
G1 X152.199 Y92.760
G1 X128.994 Y117.140 E55.8021
G1 X128.464 Y117.140
G1 X152.199 Y92.202 E56.9471
G1 X152.199 Y91.645
G1 X127.933 Y117.140 E58.1178
G1 X127.402 Y117.140
G1 X152.199 Y91.087 E59.3140
G1 X152.199 Y90.530
G1 X126.872 Y117.140 E60.5359
G1 X126.341 Y117.140
G1 X152.199 Y89.972 E61.7834
G1 X152.199 Y89.415
G1 X125.810 Y117.140 E63.0564
G1 X125.280 Y117.140
G1 X152.199 Y88.857 E64.3551
G1 X152.199 Y88.300
G1 X124.749 Y117.140 E65.6793
G1 X124.218 Y117.140
G1 X152.199 Y87.742 E67.0292
G1 X152.199 Y87.184
G1 X123.688 Y117.140 E68.4047
G1 X123.157 Y117.140
G1 X152.199 Y86.627 E69.8057
G1 X152.199 Y86.069
G1 X122.626 Y117.140 E71.2324
G1 X122.096 Y117.140
G1 X152.199 Y85.512 E72.6847
G1 X152.199 Y84.954
G1 X121.565 Y117.140 E74.1625
G1 X121.034 Y117.140
G1 X152.199 Y84.397 E75.6660
G1 X152.199 Y83.839
G1 X120.504 Y117.140 E77.1951
G1 X119.973 Y117.140
G1 X152.199 Y83.282 E78.7497
G1 X152.199 Y82.724
G1 X119.442 Y117.140 E80.3300
G1 X118.912 Y117.140
G1 X152.199 Y82.167 E81.9359
G1 X152.008 Y81.809
G1 X118.381 Y117.140 E83.5582
G1 X117.850 Y117.140
G1 X151.478 Y81.809 E85.1805
G1 X150.947 Y81.809
G1 X117.320 Y117.140 E86.8027
G1 X116.789 Y117.140
G1 X148.296 Y84.036 E88.3228
G1 X147.554 Y84.259
G1 X116.258 Y117.140 E89.8326
G1 X115.727 Y117.140
G1 X146.979 Y84.305 E91.3402
G1 X146.491 Y84.261
G1 X116.030 Y116.265 E92.8098
G1 X116.249 Y115.476
G1 X146.054 Y84.162 E94.2476
G1 X145.663 Y84.015
G1 X116.291 Y114.875 E95.6647
G1 X116.241 Y114.370
G1 X145.307 Y83.832 E97.0669
G1 X144.989 Y83.608
G1 X116.128 Y113.931 E98.4592
G0 X114.486 Y112.471 F10800
G0 X113.425 Y112.086
G0 X111.950 Y112.252
G0 X110.747 Y113.140
G0 X110.208 Y114.221
G0 X110.222 Y114.560
G1 X110.120 Y114.668 E98.4642 F3600
G1 X110.117 Y115.229
G1 X110.412 Y114.919 E98.4784
G1 X110.457 Y115.429
G1 X110.199 Y115.700 E98.4909
G1 X110.337 Y116.112
G1 X110.576 Y115.862 E98.5024
G1 X110.750 Y116.236
G1 X110.523 Y116.475 E98.5134
G1 X110.746 Y116.798
G1 X110.970 Y116.563 E98.5242
G1 X111.229 Y116.848
G1 X111.007 Y117.081 E98.5349
G1 X111.303 Y117.327
G1 X111.527 Y117.092 E98.5457
G1 X111.875 Y117.284
G1 X111.638 Y117.534 E98.5572
G1 X112.009 Y117.701
G1 X112.256 Y117.441 E98.5691
G1 X112.695 Y117.538
G1 X112.430 Y117.817 E98.5819
G1 X112.907 Y117.873
G1 X113.205 Y117.560 E98.5963
G1 X113.736 Y117.560
G1 X113.470 Y117.839 E98.6091
G0 F4800 E97.6091
G0 X111.948 Y117.668 F10800
G0 X110.747 Y116.781
G0 X110.225 Y115.763
G0 X110.111 Y114.960
G0 X110.143 Y114.527
G0 X109.924 Y113.759
G0 F4800 E98.6091
G1 X109.561 Y114.140 E98.6267 F3600
G1 X109.030 Y114.140
G1 X142.658 Y78.810 E100.2490
G1 X142.127 Y78.810
G1 X108.499 Y114.140 E101.8712
G1 X107.969 Y114.140
G1 X141.596 Y78.810 E103.4935
G1 X141.066 Y78.810
G1 X107.816 Y113.744 E105.0976
G1 X107.816 Y113.186
G1 X140.535 Y78.810 E106.6761
G1 X140.004 Y78.810
G1 X107.816 Y112.629 E108.2290
G1 X107.816 Y112.071
G1 X139.474 Y78.810 E109.7563
G1 X138.943 Y78.810
G1 X107.816 Y111.514 E111.2579
G1 X107.816 Y110.956
G1 X138.412 Y78.810 E112.7340
G1 X137.882 Y78.810
G1 X107.816 Y110.399 E114.1845
G1 X107.816 Y109.841
G1 X137.351 Y78.810 E115.6094
G1 X136.820 Y78.810
G1 X107.816 Y109.284 E117.0086
G1 X107.816 Y108.726
G1 X136.290 Y78.810 E118.3823
G1 X135.759 Y78.810
G1 X107.816 Y108.168 E119.7304
G1 X107.816 Y107.611
G1 X135.228 Y78.810 E121.0529
G1 X134.698 Y78.810
G1 X107.816 Y107.053 E122.3497
G1 X107.816 Y106.496
G1 X134.167 Y78.810 E123.6210
G1 X133.636 Y78.810
G1 X107.816 Y105.938 E124.8667
G1 X107.816 Y105.381
G1 X133.106 Y78.810 E126.0867
G1 X132.575 Y78.810
G1 X107.816 Y104.823 E127.2812
G1 X107.816 Y104.266
G1 X132.044 Y78.810 E128.4501
G1 X131.514 Y78.810
G1 X107.816 Y103.708 E129.5933
G1 X107.816 Y103.151
G1 X130.983 Y78.810 E130.7110
G1 X130.452 Y78.810
G1 X107.816 Y102.593 E131.8031
G1 X107.816 Y102.036
G1 X129.922 Y78.810 E132.8695
G1 X129.391 Y78.810
G1 X107.816 Y101.478 E133.9104
G1 X107.816 Y100.920
G1 X128.860 Y78.810 E134.9257
G1 X128.330 Y78.810
G1 X107.816 Y100.363 E135.9153
G1 X107.816 Y99.805
G1 X127.799 Y78.810 E136.8794
G1 X127.268 Y78.810
G1 X107.816 Y99.248 E137.8178
G1 X107.816 Y98.690
G1 X126.738 Y78.810 E138.7307
G1 X126.207 Y78.810
G1 X107.816 Y98.133 E139.6179
G1 X107.816 Y97.575
G1 X125.676 Y78.810 E140.4796
G1 X125.146 Y78.810
G1 X107.816 Y97.018 E141.3157
G1 X107.816 Y96.460
G1 X124.615 Y78.810 E142.1261
G1 X124.084 Y78.810
G1 X107.816 Y95.903 E142.9110
G1 X107.816 Y95.345
G1 X123.554 Y78.810 E143.6702
G1 X123.023 Y78.810
G1 X107.816 Y94.787 E144.4039
G1 X107.816 Y94.230
G1 X122.492 Y78.810 E145.1119
G1 X121.962 Y78.810
G1 X107.816 Y93.672 E145.7944
G1 X107.816 Y93.115
G1 X121.431 Y78.810 E146.4512
G1 X120.900 Y78.810
G1 X107.816 Y92.557 E147.0825
G1 X107.816 Y92.000
G1 X120.370 Y78.810 E147.6881
G1 X119.839 Y78.810
G1 X107.816 Y91.442 E148.2682
G1 X107.816 Y90.885
G1 X114.358 Y84.011 E148.5838
; ------------------------------------
; Layer #3
; ------------------------------------
G21 ; mm
G90 ; abs
G92 E0 ; reset extr
M106 S255
G0 F4800 E-1.0000
G0 F300 Z0.800
G0 X148.346 Y83.975 F10800
G0 X150.849 Y81.599
G0 F4800 E0.0000
;segType:Loop
G1 X152.399 Y81.599 E0.0516 F3600
G1 X152.399 Y114.350 E1.1409
G1 X150.038 Y114.350 E1.2194
G1 X149.907 Y113.872 E1.2359
G1 X149.740 Y113.499 E1.2495
G1 X149.584 Y113.231 E1.2598
G1 X149.323 Y112.889 E1.2741
G1 X149.099 Y112.655 E1.2849
G1 X148.786 Y112.402 E1.2983
G1 X148.449 Y112.195 E1.3114
G1 X148.175 Y112.064 E1.3215
G1 X147.772 Y111.930 E1.3357
G1 X147.460 Y111.865 E1.3463
G1 X147.062 Y111.831 E1.3595
G1 X146.670 Y111.850 E1.3726
G1 X146.371 Y111.896 E1.3826
G1 X145.963 Y112.013 E1.3968
G1 X145.667 Y112.135 E1.4074
G1 X145.318 Y112.333 E1.4207
G1 X145.002 Y112.571 E1.4339
G1 X144.778 Y112.781 E1.4441
G1 X144.502 Y113.111 E1.4584
G1 X144.324 Y113.384 E1.4693
G1 X144.144 Y113.749 E1.4828
G1 X144.015 Y114.130 E1.4962
G1 X143.947 Y114.435 E1.5066
G1 X143.905 Y114.867 E1.5210
G1 X143.911 Y115.197 E1.5320
G1 X143.969 Y115.603 E1.5456
G1 X144.076 Y115.990 E1.5590
G1 X144.191 Y116.280 E1.5694
G1 X144.399 Y116.658 E1.5837
G1 X144.587 Y116.924 E1.5945
G1 X144.860 Y117.222 E1.6080
G1 X145.010 Y117.350 E1.6146
G1 X114.988 Y117.350 E2.6131
G1 X115.196 Y117.166 E2.6223
G1 X115.412 Y116.924 E2.6331
G1 X115.643 Y116.590 E2.6466
G1 X115.834 Y116.220 E2.6605
G1 X116.023 Y115.650 E2.6804
G1 X116.095 Y115.061 E2.7002
G1 X116.089 Y114.728 E2.7112
G1 X116.040 Y114.370 E2.7233
G1 X115.904 Y113.872 E2.7404
G1 X115.737 Y113.499 E2.7540
G1 X115.580 Y113.231 E2.7643
G1 X115.320 Y112.889 E2.7786
G1 X115.095 Y112.655 E2.7894
G1 X114.782 Y112.402 E2.8028
G1 X114.446 Y112.195 E2.8160
G1 X114.171 Y112.064 E2.8261
G1 X113.768 Y111.930 E2.8402
G1 X113.456 Y111.865 E2.8508
G1 X113.059 Y111.831 E2.8641
G1 X112.667 Y111.850 E2.8771
G1 X112.367 Y111.896 E2.8872
G1 X111.960 Y112.013 E2.9013
G1 X111.664 Y112.135 E2.9119
G1 X111.315 Y112.333 E2.9253
G1 X110.998 Y112.571 E2.9385
G1 X110.774 Y112.781 E2.9487
G1 X110.499 Y113.111 E2.9630
G1 X110.320 Y113.384 E2.9738
G1 X110.140 Y113.750 E2.9874
G1 X110.011 Y114.130 E3.0007
G1 X109.962 Y114.350 E3.0082
G1 X107.616 Y114.350 E3.0863
G1 X107.616 Y81.599 E4.1756
G1 X109.964 Y81.599 E4.2537
G1 X109.965 Y81.611 E4.2541
G1 X110.073 Y81.998 E4.2675
G1 X110.188 Y82.288 E4.2778
G1 X110.395 Y82.666 E4.2922
G1 X110.583 Y82.932 E4.3030
G1 X110.856 Y83.231 E4.3165
G1 X111.159 Y83.487 E4.3297
G1 X111.413 Y83.658 E4.3398
G1 X111.792 Y83.851 E4.3540
G1 X112.091 Y83.962 E4.3646
G1 X112.480 Y84.054 E4.3779
G1 X112.871 Y84.095 E4.3910
G1 X113.173 Y84.093 E4.4010
G1 X113.593 Y84.039 E4.4151
G1 X113.903 Y83.963 E4.4257
G1 X114.277 Y83.819 E4.4390
G1 X114.624 Y83.632 E4.4521
G1 X114.875 Y83.458 E4.4623
G1 X115.196 Y83.174 E4.4766
G1 X115.412 Y82.932 E4.4873
G1 X115.643 Y82.598 E4.5009
G1 X115.834 Y82.228 E4.5147
G1 X116.023 Y81.658 E4.5347
G1 X116.095 Y81.069 E4.5544
G1 X116.089 Y80.737 E4.5655
G1 X116.040 Y80.378 E4.5775
G1 X115.904 Y79.881 E4.5947
G1 X115.737 Y79.507 E4.6083
G1 X115.580 Y79.239 E4.6186
G1 X115.320 Y78.897 E4.6329
G1 X115.095 Y78.664 E4.6437
G1 X115.016 Y78.600 E4.6470
G1 X144.980 Y78.600 E5.6436
G1 X144.778 Y78.789 E5.6528
G1 X144.502 Y79.119 E5.6671
G1 X144.324 Y79.392 E5.6780
G1 X144.144 Y79.758 E5.6915
G1 X144.015 Y80.138 E5.7049
G1 X143.947 Y80.443 E5.7153
G1 X143.905 Y80.876 E5.7297
G1 X143.911 Y81.205 E5.7407
G1 X143.969 Y81.611 E5.7543
G1 X144.076 Y81.998 E5.7677
G1 X144.191 Y82.288 E5.7781
G1 X144.399 Y82.666 E5.7924
G1 X144.587 Y82.932 E5.8032
G1 X144.860 Y83.231 E5.8167
G1 X145.163 Y83.487 E5.8299
G1 X145.416 Y83.658 E5.8401
G1 X145.796 Y83.851 E5.8542
G1 X146.095 Y83.962 E5.8649
G1 X146.484 Y84.054 E5.8781
G1 X146.874 Y84.095 E5.8912
G1 X147.177 Y84.093 E5.9013
G1 X147.597 Y84.039 E5.9153
G1 X147.907 Y83.963 E5.9260
G1 X148.281 Y83.819 E5.9393
G1 X148.627 Y83.632 E5.9524
G1 X148.879 Y83.458 E5.9625
G1 X149.199 Y83.174 E5.9768
G1 X149.415 Y82.932 E5.9876
G1 X149.647 Y82.599 E6.0011
G1 X149.838 Y82.228 E6.0150
G1 X150.027 Y81.658 E6.0349
G1 X150.034 Y81.599 E6.0369
G1 X150.661 Y81.599 E6.0578
G0 F4800 E5.0578
G0 X149.873 Y81.179 F10800
G0 F4800 E6.0578
;segType:Perimeter
G1 X152.799 Y81.179 E6.1551 F2159
G1 X152.799 Y114.771 E7.2723
G1 X149.813 Y114.771 E7.3716
G1 X149.775 Y115.343 E7.3907
G1 X149.651 Y115.876 E7.4089
G1 X149.423 Y116.377 E7.4272
G1 X149.140 Y116.777 E7.4436
G1 X148.792 Y117.123 E7.4599
G1 X148.330 Y117.435 E7.4784
G1 X147.991 Y117.589 E7.4908
G1 X147.728 Y117.674 E7.5000
G1 X147.451 Y117.733 E7.5094
G1 X146.994 Y117.770 E7.5246
G1 X113.019 Y117.770 E8.6546
G1 X112.646 Y117.745 E8.6671
G1 X112.323 Y117.682 E8.6780
G1 X111.984 Y117.572 E8.6899
G1 X111.740 Y117.463 E8.6988
G1 X111.456 Y117.297 E8.7097
G1 X111.164 Y117.074 E8.7219
G1 X110.907 Y116.816 E8.7340
G1 X110.683 Y116.525 E8.7463
G1 X110.502 Y116.211 E8.7583
G1 X110.362 Y115.873 E8.7705
G1 X110.272 Y115.537 E8.7821
G1 X110.236 Y115.309 E8.7897
G1 X110.202 Y114.771 E8.8077
G1 X107.216 Y114.771 E8.9070
G1 X107.216 Y81.179 E10.0243
G1 X110.201 Y81.179 E10.1236
G1 X110.239 Y80.602 E10.1428
G1 X110.362 Y80.077 E10.1607
G1 X110.502 Y79.739 E10.1729
G1 X110.683 Y79.425 E10.1849
G1 X110.906 Y79.134 E10.1971
G1 X111.163 Y78.877 E10.2092
G1 X111.455 Y78.653 E10.2214
G1 X111.770 Y78.471 E10.2336
G1 X112.111 Y78.329 E10.2458
G1 X112.463 Y78.235 E10.2580
G1 X113.015 Y78.179 E10.2764
G1 X146.996 Y78.179 E11.4066
G1 X147.319 Y78.198 E11.4174
G1 X147.680 Y78.264 E11.4296
G1 X148.039 Y78.379 E11.4421
G1 X148.370 Y78.537 E11.4543
G1 X148.685 Y78.742 E11.4668
G1 X148.962 Y78.981 E11.4790
G1 X149.212 Y79.260 E11.4915
G1 X149.417 Y79.562 E11.5036
G1 X149.584 Y79.896 E11.5160
G1 X149.702 Y80.241 E11.5282
G1 X149.763 Y80.532 E11.5380
G1 X149.812 Y81.120 E11.5577
G1 X150.084 Y81.769
G0 F4800 E10.5577
G0 X149.690 Y81.324 F10800
G0 X149.660 Y80.525
G0 F4800 E11.5577
G1 X149.693 Y80.770 E11.5659 F2159
G1 X149.698 Y81.046 E11.5751
G1 X149.635 Y81.562 E11.5923
G1 X149.471 Y82.058 E11.6097
G1 X149.308 Y82.374 E11.6216
G1 X149.107 Y82.664 E11.6333
G1 X148.923 Y82.868 E11.6424
G1 X148.639 Y83.121 E11.6551
G1 X148.426 Y83.268 E11.6637
G1 X148.120 Y83.434 E11.6753
G1 X147.792 Y83.559 E11.6869
G1 X147.527 Y83.625 E11.6960
G1 X147.151 Y83.673 E11.7086
G1 X146.893 Y83.674 E11.7172
G1 X146.547 Y83.638 E11.7288
G1 X146.206 Y83.558 E11.7404
G1 X145.950 Y83.462 E11.7495
G1 X145.612 Y83.291 E11.7621
G1 X145.397 Y83.145 E11.7708
G1 X145.131 Y82.920 E11.7824
G1 X144.893 Y82.660 E11.7941
G1 X144.734 Y82.435 E11.8032
G1 X144.551 Y82.101 E11.8159
G1 X144.454 Y81.858 E11.8246
G1 X144.360 Y81.521 E11.8363
G1 X144.310 Y81.170 E11.8480
G1 X144.305 Y80.893 E11.8573
G1 X144.342 Y80.513 E11.8700
G1 X144.399 Y80.257 E11.8787
G1 X144.512 Y79.925 E11.8903
G1 X144.668 Y79.608 E11.9021
G1 X144.819 Y79.378 E11.9112
G1 X145.063 Y79.085 E11.9239
G1 X145.252 Y78.908 E11.9326
G1 X145.531 Y78.698 E11.9441
G1 X145.836 Y78.525 E11.9558
G1 X146.089 Y78.421 E11.9649
G1 X146.453 Y78.317 E11.9775
G1 X146.709 Y78.277 E11.9861
G1 X147.055 Y78.261 E11.9977
G1 X147.404 Y78.290 E12.0093
G1 X147.672 Y78.346 E12.0184
G1 X148.031 Y78.465 E12.0310
G1 X148.265 Y78.577 E12.0396
G1 X148.562 Y78.759 E12.0512
G1 X148.835 Y78.981 E12.0629
G1 X149.025 Y79.179 E12.0720
G1 X149.256 Y79.482 E12.0847
G1 X149.388 Y79.707 E12.0934
G1 X149.532 Y80.029 E12.1051
G1 X149.636 Y80.409 E12.1182
G0 X150.006 Y113.907 F10800
G1 X149.660 Y114.516 E12.1415 F2159
G1 X149.693 Y114.762 E12.1498
G1 X149.698 Y115.038 E12.1590
G1 X149.635 Y115.553 E12.1762
G1 X149.471 Y116.049 E12.1936
G1 X149.308 Y116.366 E12.2054
G1 X149.107 Y116.655 E12.2172
G1 X148.923 Y116.860 E12.2263
G1 X148.639 Y117.113 E12.2390
G1 X148.426 Y117.260 E12.2476
G1 X148.120 Y117.425 E12.2592
G1 X147.792 Y117.551 E12.2708
G1 X147.526 Y117.616 E12.2799
G1 X147.151 Y117.665 E12.2925
G1 X146.893 Y117.666 E12.3011
G1 X146.547 Y117.630 E12.3127
G1 X146.206 Y117.550 E12.3243
G1 X145.950 Y117.454 E12.3334
G1 X145.612 Y117.282 E12.3460
G1 X145.397 Y117.137 E12.3546
G1 X145.131 Y116.912 E12.3662
G1 X144.893 Y116.652 E12.3780
G1 X144.734 Y116.427 E12.3871
G1 X144.551 Y116.093 E12.3998
G1 X144.454 Y115.850 E12.4085
G1 X144.360 Y115.512 E12.4202
G1 X144.310 Y115.162 E12.4319
G1 X144.305 Y114.885 E12.4411
G1 X144.342 Y114.505 E12.4538
G1 X144.399 Y114.249 E12.4625
G1 X144.512 Y113.917 E12.4742
G1 X144.668 Y113.600 E12.4860
G1 X144.819 Y113.370 E12.4951
G1 X145.063 Y113.077 E12.5078
G1 X145.252 Y112.899 E12.5164
G1 X145.531 Y112.690 E12.5280
G1 X145.836 Y112.517 E12.5397
G1 X146.089 Y112.412 E12.5488
G1 X146.453 Y112.308 E12.5614
G1 X146.709 Y112.269 E12.5700
G1 X147.055 Y112.252 E12.5815
G1 X147.404 Y112.281 E12.5932
G1 X147.672 Y112.338 E12.6023
G1 X148.031 Y112.457 E12.6149
G1 X148.265 Y112.568 E12.6235
G1 X148.562 Y112.751 E12.6351
G1 X148.835 Y112.972 E12.6468
G1 X149.025 Y113.171 E12.6559
G1 X149.256 Y113.473 E12.6686
G1 X149.388 Y113.699 E12.6773
G1 X149.532 Y114.021 E12.6890
G1 X149.636 Y114.401 E12.7021
G0 F4800 E11.7021
G0 X149.643 Y116.129 F10800
G0 X149.466 Y116.471
G0 X149.251 Y116.781
G0 X149.053 Y117.003
G0 X148.752 Y117.271
G0 X148.520 Y117.430
G0 X148.195 Y117.606
G0 X147.846 Y117.740
G0 X147.559 Y117.810
G0 X147.163 Y117.861
G0 X146.884 Y117.863
G0 X146.154 Y117.739
G0 X145.878 Y117.636
G0 X116.003 Y113.908
G0 F4800 E12.7021
G1 X115.656 Y114.516 E12.7254 F2159
G1 X115.689 Y114.762 E12.7337
G1 X115.694 Y115.038 E12.7428
G1 X115.632 Y115.553 E12.7601
G1 X115.467 Y116.049 E12.7775
G1 X115.304 Y116.365 E12.7893
G1 X115.103 Y116.655 E12.8010
G1 X114.920 Y116.860 E12.8102
G1 X114.636 Y117.113 E12.8228
G1 X114.422 Y117.260 E12.8315
G1 X114.116 Y117.425 E12.8430
G1 X113.788 Y117.551 E12.8547
G1 X113.523 Y117.616 E12.8638
G1 X113.148 Y117.665 E12.8764
G1 X112.889 Y117.666 E12.8850
G1 X112.544 Y117.630 E12.8965
G1 X112.203 Y117.550 E12.9082
G1 X111.947 Y117.454 E12.9173
G1 X111.609 Y117.282 E12.9299
G1 X111.393 Y117.137 E12.9385
G1 X111.127 Y116.912 E12.9501
G1 X110.889 Y116.652 E12.9618
G1 X110.731 Y116.427 E12.9710
G1 X110.547 Y116.093 E12.9837
G1 X110.450 Y115.850 E12.9924
G1 X110.357 Y115.512 E13.0040
G1 X110.307 Y115.162 E13.0158
G1 X110.302 Y114.885 E13.0250
G1 X110.339 Y114.504 E13.0377
G1 X110.396 Y114.249 E13.0464
G1 X110.508 Y113.917 E13.0581
G1 X110.664 Y113.600 E13.0698
G1 X110.815 Y113.370 E13.0790
G1 X111.059 Y113.077 E13.0917
G1 X111.248 Y112.899 E13.1003
G1 X111.527 Y112.690 E13.1119
G1 X111.832 Y112.517 E13.1236
G1 X112.085 Y112.412 E13.1327
G1 X112.449 Y112.308 E13.1453
G1 X112.705 Y112.269 E13.1539
G1 X113.052 Y112.252 E13.1654
G1 X113.401 Y112.281 E13.1771
G1 X113.668 Y112.338 E13.1862
G1 X114.028 Y112.457 E13.1988
G1 X114.261 Y112.568 E13.2074
G1 X114.558 Y112.751 E13.2190
G1 X114.831 Y112.972 E13.2307
G1 X115.022 Y113.171 E13.2398
G1 X115.253 Y113.473 E13.2525
G1 X115.384 Y113.699 E13.2611
G1 X115.528 Y114.021 E13.2729
G1 X115.632 Y114.401 E13.2860
G1 X116.186 Y114.807
;segType:Infill
G0 X144.019 Y79.556 F10800
G1 X115.985 Y79.556 E14.2184 F5400
;segType:Perimeter
G0 X116.003 Y79.916 F10800
G1 X115.656 Y80.525 E14.2417 F2159
G1 X115.689 Y80.770 E14.2500
G1 X115.694 Y81.046 E14.2591
G1 X115.632 Y81.562 E14.2764
G1 X115.467 Y82.058 E14.2938
G1 X115.304 Y82.374 E14.3056
G1 X115.103 Y82.664 E14.3173
G1 X114.920 Y82.868 E14.3265
G1 X114.636 Y83.121 E14.3391
G1 X114.422 Y83.268 E14.3478
G1 X114.116 Y83.434 E14.3593
G1 X113.788 Y83.559 E14.3710
G1 X113.523 Y83.625 E14.3801
G1 X113.148 Y83.673 E14.3927
G1 X112.889 Y83.674 E14.4013
G1 X112.544 Y83.638 E14.4128
G1 X112.203 Y83.558 E14.4245
G1 X111.947 Y83.462 E14.4336
G1 X111.609 Y83.291 E14.4462
G1 X111.393 Y83.145 E14.4548
G1 X111.127 Y82.920 E14.4664
G1 X110.889 Y82.660 E14.4781
G1 X110.731 Y82.435 E14.4873
G1 X110.547 Y82.101 E14.5000
G1 X110.450 Y81.858 E14.5087
G1 X110.357 Y81.520 E14.5203
G1 X110.307 Y81.170 E14.5321
G1 X110.302 Y80.893 E14.5413
G1 X110.339 Y80.513 E14.5540
G1 X110.396 Y80.257 E14.5627
G1 X110.508 Y79.925 E14.5744
G1 X110.664 Y79.608 E14.5861
G1 X110.815 Y79.378 E14.5953
G1 X111.059 Y79.085 E14.6080
G1 X111.248 Y78.908 E14.6166
G1 X111.527 Y78.698 E14.6282
G1 X111.832 Y78.525 E14.6399
G1 X112.085 Y78.421 E14.6490
G1 X112.449 Y78.317 E14.6616
G1 X112.705 Y78.277 E14.6702
G1 X113.052 Y78.261 E14.6817
G1 X113.401 Y78.290 E14.6934
G1 X113.668 Y78.346 E14.7025
G1 X114.028 Y78.465 E14.7151
G1 X114.261 Y78.577 E14.7237
G1 X114.558 Y78.759 E14.7353
G1 X114.831 Y78.981 E14.7469
G1 X115.022 Y79.179 E14.7561
G1 X115.253 Y79.482 E14.7688
G1 X115.384 Y79.707 E14.7774
G1 X115.528 Y80.029 E14.7892
G1 X115.632 Y80.409 E14.8023
G1 X116.186 Y80.815
;segType:Infill
G0 X113.521 Y84.267 F10800
G1 X113.521 Y111.665 E15.7135 F5400
G0 X121.025 Y117.140 F10800
G1 X121.025 Y78.810 E16.9884 F5400
G0 X128.530 Y78.810 F10800
G1 X128.530 Y117.140 E18.2633 F5400
G0 X136.035 Y117.140 F10800
G1 X136.035 Y78.810 E19.5381 F5400
G0 X143.540 Y78.810 F10800
G1 X143.540 Y117.140 E20.8130 F5400
G0 X145.878 Y117.636 F10800
G0 X146.154 Y117.739
G0 X146.884 Y117.863
G0 X147.163 Y117.861
G0 X147.559 Y117.810
G0 X147.846 Y117.740
G0 X148.195 Y117.606
G0 X148.520 Y117.430
G0 X148.752 Y117.271
G0 X149.053 Y117.003
G0 X149.251 Y116.781
G0 X149.466 Y116.471
G0 X149.643 Y116.129
G0 X149.818 Y115.598
G0 X149.885 Y115.049
G0 X149.881 Y114.758
G0 X151.045 Y114.140
G1 X151.045 Y81.809 E21.8883 F5400
G0 X152.199 Y87.441 F10800
G1 X107.816 Y87.441 E23.3645 F5400
G0 X107.816 Y95.325 F10800
G1 X152.199 Y95.325 E24.8407 F5400
G0 X152.199 Y103.210 F10800
G1 X107.816 Y103.210 E26.3169 F5400
G0 X107.816 Y111.095 F10800
G1 X152.199 Y111.095 E27.7931 F5400
; ------------------------------------
; Layer #4
; ------------------------------------
G21 ; mm
G90 ; abs
G92 E0 ; reset extr
M106 S255
;segType:Loop
G0 F4800 E-1.0000
G0 F300 Z1.000
G0 X150.845 Y81.599 F10800
G0 F4800 E0.0000
G1 X152.399 Y81.599 E0.0517 F3600
G1 X152.399 Y114.350 E1.1410
G1 X150.037 Y114.350 E1.2196
G1 X149.913 Y113.888 E1.2355
G1 X149.754 Y113.526 E1.2486
G1 X149.593 Y113.245 E1.2594
G1 X149.336 Y112.904 E1.2736
G1 X149.113 Y112.669 E1.2844
G1 X148.799 Y112.412 E1.2979
G1 X148.475 Y112.209 E1.3106
G1 X148.190 Y112.070 E1.3211
G1 X147.791 Y111.935 E1.3352
G1 X147.479 Y111.868 E1.3457
G1 X147.079 Y111.832 E1.3591
G1 X146.699 Y111.847 E1.3718
G1 X146.387 Y111.893 E1.3823
G1 X145.982 Y112.006 E1.3962
G1 X145.686 Y112.127 E1.4069
G1 X145.332 Y112.324 E1.4203
G1 X145.024 Y112.552 E1.4331
G1 X144.789 Y112.769 E1.4437
G1 X144.515 Y113.095 E1.4579
G1 X144.334 Y113.366 E1.4687
G1 X144.151 Y113.734 E1.4824
G1 X144.023 Y114.101 E1.4954
G1 X143.950 Y114.419 E1.5062
G1 X143.906 Y114.847 E1.5205
G1 X143.910 Y115.176 E1.5315
G1 X143.965 Y115.585 E1.5452
G1 X144.067 Y115.962 E1.5582
G1 X144.185 Y116.265 E1.5690
G1 X144.388 Y116.641 E1.5832
G1 X144.575 Y116.907 E1.5940
G1 X144.848 Y117.210 E1.6076
G1 X145.009 Y117.349 E1.6147
G1 X114.988 Y117.350 E2.6132
G1 X115.181 Y117.180 E2.6217
G1 X115.398 Y116.940 E2.6325
G1 X115.634 Y116.605 E2.6461
G1 X115.815 Y116.261 E2.6590
G1 X115.933 Y115.962 E2.6697
G1 X116.035 Y115.580 E2.6829
G1 X116.094 Y115.078 E2.6997
G1 X116.090 Y114.750 E2.7106
G1 X116.046 Y114.400 E2.7224
G1 X115.910 Y113.888 E2.7400
G1 X115.750 Y113.525 E2.7531
G1 X115.589 Y113.245 E2.7639
G1 X115.333 Y112.905 E2.7781
G1 X115.110 Y112.669 E2.7889
G1 X114.796 Y112.412 E2.8024
G1 X114.472 Y112.209 E2.8151
G1 X114.186 Y112.070 E2.8257
G1 X113.787 Y111.935 E2.8396
G1 X113.476 Y111.868 E2.8502
G1 X113.075 Y111.832 E2.8636
G1 X112.696 Y111.847 E2.8763
G1 X112.383 Y111.893 E2.8868
G1 X111.978 Y112.006 E2.9008
G1 X111.682 Y112.127 E2.9114
G1 X111.329 Y112.324 E2.9248
G1 X111.021 Y112.552 E2.9376
G1 X110.785 Y112.769 E2.9482
G1 X110.511 Y113.095 E2.9624
G1 X110.331 Y113.366 E2.9732
G1 X110.147 Y113.734 E2.9869
G1 X110.019 Y114.101 E2.9998
G1 X109.962 Y114.350 E3.0084
G1 X107.616 Y114.350 E3.0864
G1 X107.616 Y81.599 E4.1757
G1 X109.963 Y81.599 E4.2538
G1 X110.063 Y81.971 E4.2666
G1 X110.181 Y82.273 E4.2774
G1 X110.385 Y82.649 E4.2916
G1 X110.571 Y82.916 E4.3024
G1 X110.844 Y83.218 E4.3160
G1 X111.136 Y83.469 E4.3288
G1 X111.399 Y83.649 E4.3394
G1 X111.774 Y83.843 E4.3534
G1 X112.073 Y83.956 E4.3640
G1 X112.464 Y84.051 E4.3774
G1 X112.841 Y84.093 E4.3901
G1 X113.157 Y84.094 E4.4006
G1 X113.574 Y84.043 E4.4145
G1 X113.884 Y83.968 E4.4251
G1 X114.261 Y83.826 E4.4385
G1 X114.599 Y83.647 E4.4513
G1 X114.862 Y83.468 E4.4619
G1 X115.181 Y83.188 E4.4759
G1 X115.399 Y82.948 E4.4867
G1 X115.634 Y82.613 E4.5004
G1 X115.815 Y82.270 E4.5133
G1 X115.933 Y81.970 E4.5240
G1 X116.035 Y81.588 E4.5371
G1 X116.094 Y81.086 E4.5539
G1 X116.090 Y80.758 E4.5648
G1 X116.046 Y80.408 E4.5766
G1 X115.910 Y79.897 E4.5942
G1 X115.750 Y79.534 E4.6074
G1 X115.589 Y79.254 E4.6181
G1 X115.333 Y78.913 E4.6323
G1 X115.110 Y78.678 E4.6431
G1 X115.014 Y78.600 E4.6472
G1 X144.981 Y78.600 E5.6439
G1 X144.789 Y78.777 E5.6526
G1 X144.515 Y79.103 E5.6667
G1 X144.334 Y79.374 E5.6776
G1 X144.151 Y79.742 E5.6913
G1 X144.023 Y80.110 E5.7042
G1 X143.950 Y80.427 E5.7150
G1 X143.906 Y80.855 E5.7293
G1 X143.910 Y81.185 E5.7403
G1 X143.965 Y81.594 E5.7540
G1 X144.067 Y81.971 E5.7670
G1 X144.185 Y82.273 E5.7778
G1 X144.388 Y82.649 E5.7920
G1 X144.575 Y82.916 E5.8029
G1 X144.848 Y83.218 E5.8164
G1 X145.139 Y83.469 E5.8292
G1 X145.402 Y83.649 E5.8398
G1 X145.777 Y83.843 E5.8538
G1 X146.076 Y83.956 E5.8645
G1 X146.467 Y84.051 E5.8779
G1 X146.845 Y84.093 E5.8905
G1 X147.161 Y84.094 E5.9010
G1 X147.577 Y84.043 E5.9150
G1 X147.888 Y83.968 E5.9256
G1 X148.265 Y83.826 E5.9390
G1 X148.602 Y83.647 E5.9517
G1 X148.866 Y83.468 E5.9623
G1 X149.185 Y83.188 E5.9764
G1 X149.402 Y82.948 E5.9872
G1 X149.638 Y82.613 E6.0008
G1 X149.819 Y82.269 E6.0137
G1 X149.937 Y81.970 E6.0244
G1 X150.036 Y81.599 E6.0372
G1 X150.658 Y81.599 E6.0579
G0 F4800 E5.0579
G0 X149.869 Y81.179 F10800
G0 F4800 E6.0579
;segType:Perimeter
G1 X152.799 Y81.179 E6.1553 F2159
G1 X152.799 Y114.771 E7.2726
G1 X149.813 Y114.771 E7.3719
G1 X149.775 Y115.343 E7.3909
G1 X149.702 Y115.710 E7.4034
G1 X149.606 Y115.996 E7.4134
G1 X149.414 Y116.392 E7.4281
G1 X149.244 Y116.648 E7.4383
G1 X149.010 Y116.919 E7.4502
G1 X148.668 Y117.220 E7.4653
G1 X148.406 Y117.393 E7.4758
G1 X148.014 Y117.580 E7.4902
G1 X147.647 Y117.694 E7.5030
G1 X147.284 Y117.755 E7.5153
G1 X147.023 Y117.769 E7.5239
G1 X113.019 Y117.770 E8.6549
G1 X112.646 Y117.745 E8.6674
G1 X112.332 Y117.684 E8.6780
G1 X111.994 Y117.576 E8.6898
G1 X111.773 Y117.480 E8.6978
G1 X111.458 Y117.298 E8.7099
G1 X111.072 Y116.987 E8.7264
G1 X110.910 Y116.819 E8.7342
G1 X110.619 Y116.421 E8.7506
G1 X110.451 Y116.097 E8.7627
G1 X110.363 Y115.875 E8.7707
G1 X110.269 Y115.527 E8.7826
G1 X110.195 Y114.771 E8.8079
G1 X107.216 Y114.771 E8.9070
G1 X107.216 Y81.179 E10.0243
G1 X110.201 Y81.179 E10.1236
G1 X110.239 Y80.606 E10.1427
G1 X110.361 Y80.081 E10.1606
G1 X110.560 Y79.631 E10.1769
G1 X110.791 Y79.275 E10.1911
G1 X111.029 Y79.003 E10.2031
G1 X111.380 Y78.707 E10.2184
G1 X111.770 Y78.471 E10.2335
G1 X112.228 Y78.294 E10.2499
G1 X112.646 Y78.204 E10.2641
G1 X113.019 Y78.179 E10.2765
G1 X146.996 Y78.179 E11.4066
G1 X147.306 Y78.197 E11.4169
G1 X147.669 Y78.261 E11.4292
G1 X148.030 Y78.376 E11.4418
G1 X148.361 Y78.532 E11.4540
G1 X148.679 Y78.738 E11.4666
G1 X148.957 Y78.976 E11.4787
G1 X149.209 Y79.256 E11.4913
G1 X149.414 Y79.557 E11.5034
G1 X149.583 Y79.894 E11.5159
G1 X149.701 Y80.238 E11.5280
G1 X149.775 Y80.606 E11.5405
G1 X149.809 Y81.120 E11.5576
G1 X150.078 Y81.771
G0 F4800 E10.5576
G0 X149.685 Y81.323 F10800
G0 X149.664 Y80.551
G0 F4800 E11.5576
G1 X149.694 Y80.788 E11.5656 F2159
G1 X149.697 Y81.063 E11.5747
G1 X149.645 Y81.506 E11.5895
G1 X149.558 Y81.833 E11.6008
G1 X149.458 Y82.087 E11.6099
G1 X149.300 Y82.386 E11.6211
G1 X149.095 Y82.677 E11.6330
G1 X148.911 Y82.881 E11.6421
G1 X148.628 Y83.129 E11.6546
G1 X148.403 Y83.282 E11.6637
G1 X148.107 Y83.439 E11.6748
G1 X147.775 Y83.564 E11.6866
G1 X147.509 Y83.628 E11.6957
G1 X147.138 Y83.674 E11.7082
G1 X146.867 Y83.673 E11.7172
G1 X146.534 Y83.636 E11.7283
G1 X146.190 Y83.552 E11.7401
G1 X145.934 Y83.455 E11.7492
G1 X145.600 Y83.283 E11.7617
G1 X145.376 Y83.130 E11.7707
G1 X145.121 Y82.910 E11.7819
G1 X144.882 Y82.646 E11.7937
G1 X144.724 Y82.420 E11.8029
G1 X144.545 Y82.089 E11.8154
G1 X144.445 Y81.833 E11.8246
G1 X144.357 Y81.506 E11.8358
G1 X144.309 Y81.152 E11.8477
G1 X144.306 Y80.875 E11.8569
G1 X144.345 Y80.499 E11.8695
G1 X144.406 Y80.232 E11.8786
G1 X144.517 Y79.913 E11.8899
G1 X144.677 Y79.593 E11.9017
G1 X144.829 Y79.364 E11.9109
G1 X145.072 Y79.076 E11.9234
G1 X145.272 Y78.891 E11.9325
G1 X145.542 Y78.691 E11.9437
G1 X145.852 Y78.518 E11.9555
G1 X146.106 Y78.415 E11.9646
G1 X146.467 Y78.314 E11.9770
G1 X146.735 Y78.274 E11.9861
G1 X147.069 Y78.261 E11.9972
G1 X147.422 Y78.293 E12.0090
G1 X147.689 Y78.350 E12.0181
G1 X148.044 Y78.471 E12.0305
G1 X148.289 Y78.589 E12.0396
G1 X148.573 Y78.768 E12.0507
G1 X148.847 Y78.993 E12.0625
G1 X149.037 Y79.192 E12.0717
G1 X149.264 Y79.493 E12.0842
G1 X149.400 Y79.731 E12.0933
G1 X149.536 Y80.042 E12.1046
G1 X149.642 Y80.436 E12.1182
G0 X150.016 Y113.937 F10800
G1 X149.664 Y114.543 E12.1415 F2159
G1 X149.694 Y114.780 E12.1494
G1 X149.697 Y115.055 E12.1586
G1 X149.645 Y115.497 E12.1734
G1 X149.558 Y115.824 E12.1846
G1 X149.458 Y116.079 E12.1937
G1 X149.300 Y116.377 E12.2050
G1 X149.095 Y116.669 E12.2168
G1 X148.911 Y116.873 E12.2260
G1 X148.628 Y117.121 E12.2385
G1 X148.403 Y117.274 E12.2475
G1 X148.107 Y117.431 E12.2587
G1 X147.775 Y117.556 E12.2705
G1 X147.509 Y117.620 E12.2795
G1 X147.138 Y117.665 E12.2920
G1 X146.867 Y117.665 E12.3010
G1 X146.534 Y117.628 E12.3122
G1 X146.190 Y117.544 E12.3239
G1 X145.934 Y117.447 E12.3330
G1 X145.600 Y117.275 E12.3455
G1 X145.376 Y117.121 E12.3546
G1 X145.121 Y116.902 E12.3658
G1 X144.882 Y116.637 E12.3776
G1 X144.724 Y116.412 E12.3868
G1 X144.545 Y116.080 E12.3993
G1 X144.445 Y115.825 E12.4084
G1 X144.357 Y115.498 E12.4197
G1 X144.309 Y115.144 E12.4316
G1 X144.306 Y114.867 E12.4408
G1 X144.345 Y114.491 E12.4533
G1 X144.406 Y114.223 E12.4625
G1 X144.517 Y113.904 E12.4737
G1 X144.677 Y113.585 E12.4856
G1 X144.829 Y113.355 E12.4948
G1 X145.072 Y113.067 E12.5073
G1 X145.272 Y112.882 E12.5164
G1 X145.542 Y112.683 E12.5275
G1 X145.852 Y112.509 E12.5393
G1 X146.106 Y112.406 E12.5484
G1 X146.467 Y112.306 E12.5609
G1 X146.735 Y112.266 E12.5699
G1 X147.069 Y112.253 E12.5810
G1 X147.422 Y112.285 E12.5928
G1 X147.689 Y112.342 E12.6019
G1 X148.044 Y112.462 E12.6144
G1 X148.289 Y112.581 E12.6234
G1 X148.573 Y112.759 E12.6346
G1 X148.847 Y112.985 E12.6464
G1 X149.037 Y113.184 E12.6555
G1 X149.264 Y113.485 E12.6681
G1 X149.400 Y113.722 E12.6772
G1 X149.536 Y114.034 E12.6885
G1 X149.642 Y114.427 E12.7020
G0 F4800 E11.7020
G0 X149.735 Y115.889 F10800
G0 X149.239 Y116.796
G0 X148.496 Y117.445
G0 X148.181 Y117.612
G0 X147.828 Y117.745
G0 X147.541 Y117.814
G0 X147.148 Y117.862
G0 X146.856 Y117.862
G0 X146.136 Y117.733
G0 X145.861 Y117.629
G0 X116.012 Y113.937
G0 F4800 E12.7020
G1 X115.660 Y114.543 E12.7253 F2159
G1 X115.690 Y114.780 E12.7333
G1 X115.694 Y115.055 E12.7424
G1 X115.642 Y115.497 E12.7572
G1 X115.554 Y115.824 E12.7685
G1 X115.454 Y116.079 E12.7776
G1 X115.297 Y116.377 E12.7888
G1 X115.092 Y116.669 E12.8007
G1 X114.907 Y116.873 E12.8098
G1 X114.625 Y117.121 E12.8223
G1 X114.400 Y117.274 E12.8314
G1 X114.103 Y117.431 E12.8425
G1 X113.771 Y117.556 E12.8543
G1 X113.506 Y117.620 E12.8634
G1 X113.134 Y117.665 E12.8759
G1 X112.863 Y117.665 E12.8849
G1 X112.530 Y117.628 E12.8960
G1 X112.186 Y117.544 E12.9078
G1 X111.930 Y117.447 E12.9169
G1 X111.597 Y117.275 E12.9294
G1 X111.372 Y117.121 E12.9384
G1 X111.117 Y116.902 E12.9496
G1 X110.879 Y116.637 E12.9615
G1 X110.721 Y116.412 E12.9706
G1 X110.542 Y116.080 E12.9831
G1 X110.442 Y115.825 E12.9923
G1 X110.354 Y115.498 E13.0035
G1 X110.306 Y115.144 E13.0154
G1 X110.302 Y114.867 E13.0246
G1 X110.341 Y114.491 E13.0372
G1 X110.402 Y114.223 E13.0463
G1 X110.514 Y113.904 E13.0576
G1 X110.673 Y113.585 E13.0695
G1 X110.826 Y113.355 E13.0786
G1 X111.068 Y113.067 E13.0911
G1 X111.269 Y112.882 E13.1002
G1 X111.539 Y112.682 E13.1114
G1 X111.849 Y112.509 E13.1232
G1 X112.102 Y112.406 E13.1323
G1 X112.463 Y112.306 E13.1447
G1 X112.731 Y112.266 E13.1538
G1 X113.066 Y112.253 E13.1649
G1 X113.418 Y112.285 E13.1767
G1 X113.685 Y112.342 E13.1858
G1 X114.040 Y112.462 E13.1982
G1 X114.285 Y112.581 E13.2073
G1 X114.569 Y112.759 E13.2184
G1 X114.844 Y112.985 E13.2303
G1 X115.034 Y113.184 E13.2394
G1 X115.260 Y113.485 E13.2519
G1 X115.396 Y113.722 E13.2610
G1 X115.533 Y114.034 E13.2723
G1 X115.638 Y114.427 E13.2859
G1 X116.188 Y114.839
G0 X116.012 Y79.945 F10800
G1 X115.660 Y80.551 E13.3092 F2159
G1 X115.690 Y80.788 E13.3171
G1 X115.694 Y81.063 E13.3263
G1 X115.642 Y81.506 E13.3411
G1 X115.554 Y81.833 E13.3523
G1 X115.454 Y82.087 E13.3614
G1 X115.297 Y82.386 E13.3727
G1 X115.092 Y82.677 E13.3845
G1 X114.907 Y82.881 E13.3937
G1 X114.625 Y83.129 E13.4062
G1 X114.400 Y83.282 E13.4152
G1 X114.103 Y83.439 E13.4264
G1 X113.771 Y83.564 E13.4382
G1 X113.506 Y83.628 E13.4473
G1 X113.134 Y83.674 E13.4597
G1 X112.863 Y83.673 E13.4687
G1 X112.530 Y83.636 E13.4799
G1 X112.186 Y83.552 E13.4917
G1 X111.930 Y83.455 E13.5008
G1 X111.597 Y83.283 E13.5132
G1 X111.372 Y83.130 E13.5223
G1 X111.117 Y82.910 E13.5335
G1 X110.879 Y82.646 E13.5453
G1 X110.721 Y82.420 E13.5545
G1 X110.542 Y82.089 E13.5670
G1 X110.442 Y81.833 E13.5761
G1 X110.354 Y81.506 E13.5874
G1 X110.306 Y81.152 E13.5993
G1 X110.302 Y80.875 E13.6085
G1 X110.341 Y80.499 E13.6210
G1 X110.402 Y80.232 E13.6302
G1 X110.514 Y79.913 E13.6414
G1 X110.673 Y79.593 E13.6533
G1 X110.826 Y79.364 E13.6625
G1 X111.068 Y79.076 E13.6750
G1 X111.269 Y78.891 E13.6841
G1 X111.539 Y78.691 E13.6952
G1 X111.849 Y78.518 E13.7070
G1 X112.102 Y78.415 E13.7161
G1 X112.463 Y78.314 E13.7286
G1 X112.731 Y78.274 E13.7376
G1 X113.066 Y78.261 E13.7488
G1 X113.418 Y78.293 E13.7605
G1 X113.685 Y78.350 E13.7696
G1 X114.040 Y78.471 E13.7821
G1 X114.285 Y78.589 E13.7911
G1 X114.569 Y78.768 E13.8023
G1 X114.844 Y78.993 E13.8141
G1 X115.034 Y79.193 E13.8233
G1 X115.260 Y79.493 E13.8358
G1 X115.396 Y79.731 E13.8449
G1 X115.533 Y80.042 E13.8562
G1 X115.638 Y80.436 E13.8697
G1 X116.188 Y80.847
; ------------------------------------
; Layer #5
; ------------------------------------
G21 ; mm
G90 ; abs
G92 E0 ; reset extr
M106 S255
G0 F4800 E-1.0000
G0 F300 Z1.200
G0 X147.913 Y84.137 F10800
G0 X150.845 Y81.599
G0 F4800 E0.0000
;segType:Loop
G1 X152.399 Y81.599 E0.0517 F3600
G1 X152.399 Y114.350 E1.1410
G1 X150.035 Y114.350 E1.2196
G1 X149.919 Y113.906 E1.2349
G1 X149.768 Y113.551 E1.2477
G1 X149.601 Y113.259 E1.2589
G1 X149.350 Y112.920 E1.2730
G1 X149.128 Y112.684 E1.2837
G1 X148.814 Y112.422 E1.2973
G1 X148.501 Y112.222 E1.3097
G1 X148.204 Y112.077 E1.3207
G1 X147.810 Y111.940 E1.3345
G1 X147.499 Y111.871 E1.3451
G1 X147.096 Y111.833 E1.3586
G1 X146.728 Y111.843 E1.3708
G1 X146.402 Y111.890 E1.3818
G1 X146.000 Y111.999 E1.3956
G1 X145.704 Y112.119 E1.4063
G1 X145.347 Y112.315 E1.4198
G1 X145.046 Y112.533 E1.4322
G1 X144.800 Y112.758 E1.4433
G1 X144.527 Y113.078 E1.4573
G1 X144.345 Y113.349 E1.4681
G1 X144.158 Y113.717 E1.4819
G1 X144.030 Y114.072 E1.4944
G1 X143.953 Y114.403 E1.5057
G1 X143.906 Y114.827 E1.5199
G1 X143.909 Y115.156 E1.5308
G1 X143.962 Y115.568 E1.5446
G1 X144.057 Y115.934 E1.5572
G1 X144.178 Y116.250 E1.5685
G1 X144.378 Y116.624 E1.5826
G1 X144.563 Y116.891 E1.5934
G1 X144.836 Y117.198 E1.6070
G1 X145.009 Y117.350 E1.6147
G1 X114.987 Y117.350 E2.6132
G1 X115.167 Y117.194 E2.6211
G1 X115.386 Y116.955 E2.6319
G1 X115.624 Y116.620 E2.6456
G1 X115.803 Y116.289 E2.6581
G1 X115.929 Y115.973 E2.6694
G1 X116.045 Y115.527 E2.6847
G1 X116.095 Y115.075 E2.6998
G1 X116.056 Y114.447 E2.7208
G1 X115.915 Y113.905 E2.7394
G1 X115.764 Y113.551 E2.7522
G1 X115.598 Y113.259 E2.7634
G1 X115.346 Y112.920 E2.7774
G1 X115.124 Y112.684 E2.7882
G1 X114.810 Y112.422 E2.8018
G1 X114.497 Y112.222 E2.8141
G1 X114.200 Y112.077 E2.8251
G1 X113.807 Y111.940 E2.8390
G1 X113.495 Y111.871 E2.8496
G1 X113.092 Y111.833 E2.8631
G1 X112.724 Y111.843 E2.8753
G1 X112.399 Y111.890 E2.8863
G1 X111.997 Y111.999 E2.9001
G1 X111.700 Y112.119 E2.9107
G1 X111.344 Y112.315 E2.9243
G1 X111.043 Y112.533 E2.9366
G1 X110.797 Y112.758 E2.9477
G1 X110.523 Y113.078 E2.9617
G1 X110.342 Y113.348 E2.9726
G1 X110.154 Y113.717 E2.9863
G1 X110.027 Y114.073 E2.9989
G1 X109.962 Y114.350 E3.0084
G1 X107.616 Y114.350 E3.0864
G1 X107.616 Y81.599 E4.1757
G1 X109.964 Y81.599 E4.2538
G1 X110.053 Y81.943 E4.2656
G1 X110.175 Y82.258 E4.2769
G1 X110.374 Y82.632 E4.2910
G1 X110.559 Y82.899 E4.3018
G1 X110.832 Y83.206 E4.3154
G1 X111.112 Y83.452 E4.3278
G1 X111.386 Y83.641 E4.3389
G1 X111.755 Y83.835 E4.3528
G1 X112.054 Y83.949 E4.3634
G1 X112.447 Y84.048 E4.3769
G1 X112.812 Y84.092 E4.3891
G1 X113.141 Y84.095 E4.4001
G1 X113.554 Y84.047 E4.4139
G1 X113.865 Y83.973 E4.4245
G1 X114.246 Y83.833 E4.4380
G1 X114.574 Y83.663 E4.4503
G1 X114.850 Y83.477 E4.4614
G1 X115.167 Y83.203 E4.4753
G1 X115.386 Y82.963 E4.4861
G1 X115.624 Y82.628 E4.4998
G1 X115.803 Y82.297 E4.5123
G1 X115.929 Y81.982 E4.5236
G1 X116.045 Y81.535 E4.5390
G1 X116.095 Y81.084 E4.5541
G1 X116.056 Y80.455 E4.5750
G1 X115.915 Y79.914 E4.5936
G1 X115.764 Y79.559 E4.6064
G1 X115.598 Y79.267 E4.6176
G1 X115.346 Y78.928 E4.6317
G1 X115.124 Y78.692 E4.6424
G1 X115.013 Y78.600 E4.6472
G1 X144.982 Y78.600 E5.6440
G1 X144.800 Y78.766 E5.6522
G1 X144.527 Y79.087 E5.6662
G1 X144.345 Y79.357 E5.6771
G1 X144.158 Y79.726 E5.6908
G1 X144.030 Y80.081 E5.7034
G1 X143.953 Y80.411 E5.7146
G1 X143.906 Y80.835 E5.7288
G1 X143.909 Y81.164 E5.7398
G1 X143.962 Y81.576 E5.7536
G1 X144.057 Y81.942 E5.7662
G1 X144.178 Y82.258 E5.7774
G1 X144.378 Y82.632 E5.7915
G1 X144.563 Y82.899 E5.8023
G1 X144.836 Y83.207 E5.8160
G1 X145.116 Y83.452 E5.8284
G1 X145.389 Y83.641 E5.8394
G1 X145.759 Y83.835 E5.8533
G1 X146.057 Y83.949 E5.8640
G1 X146.450 Y84.048 E5.8774
G1 X146.816 Y84.092 E5.8897
G1 X147.145 Y84.095 E5.9006
G1 X147.558 Y84.047 E5.9145
G1 X147.868 Y83.973 E5.9251
G1 X148.249 Y83.833 E5.9386
G1 X148.577 Y83.663 E5.9509
G1 X148.853 Y83.477 E5.9619
G1 X149.170 Y83.203 E5.9759
G1 X149.389 Y82.964 E5.9866
G1 X149.628 Y82.628 E6.0004
G1 X149.807 Y82.297 E6.0129
G1 X149.933 Y81.982 E6.0242
G1 X150.032 Y81.599 E6.0373
G1 X150.658 Y81.599 E6.0581
G0 F4800 E5.0581
G0 X149.869 Y81.179 F10800
G0 F4800 E6.0581
;segType:Perimeter
G1 X152.799 Y81.179 E6.1555 F2159
G1 X152.799 Y114.771 E7.2728
G1 X149.812 Y114.771 E7.3722
G1 X149.783 Y115.267 E7.3887
G1 X149.703 Y115.706 E7.4035
G1 X149.519 Y116.195 E7.4209
G1 X149.412 Y116.396 E7.4285
G1 X149.084 Y116.842 E7.4469
G1 X148.694 Y117.201 E7.4645
G1 X148.347 Y117.426 E7.4783
G1 X148.038 Y117.570 E7.4896
G1 X147.647 Y117.694 E7.5033
G1 X147.305 Y117.752 E7.5148
G1 X146.996 Y117.770 E7.5251
G1 X113.019 Y117.770 E8.6552
G1 X112.467 Y117.716 E8.6736
G1 X112.111 Y117.620 E8.6859
G1 X111.612 Y117.395 E8.7041
G1 X111.306 Y117.190 E8.7163
G1 X111.031 Y116.949 E8.7285
G1 X110.791 Y116.674 E8.7406
G1 X110.587 Y116.371 E8.7528
G1 X110.363 Y115.877 E8.7708
G1 X110.269 Y115.524 E8.7830
G1 X110.221 Y115.158 E8.7953
G1 X110.208 Y114.771 E8.8081
G1 X107.216 Y114.771 E8.9077
G1 X107.216 Y81.179 E10.0249
G1 X110.203 Y81.179 E10.1243
G1 X110.232 Y80.678 E10.1409
G1 X110.268 Y80.428 E10.1494
G1 X110.362 Y80.077 E10.1614
G1 X110.502 Y79.739 E10.1736
G1 X110.683 Y79.425 E10.1857
G1 X110.906 Y79.134 E10.1979
G1 X111.163 Y78.877 E10.2099
G1 X111.454 Y78.653 E10.2222
G1 X111.770 Y78.471 E10.2343
G1 X112.110 Y78.329 E10.2465
G1 X112.462 Y78.235 E10.2587
G1 X113.015 Y78.179 E10.2771
G1 X146.996 Y78.179 E11.4074
G1 X147.294 Y78.196 E11.4173
G1 X147.657 Y78.258 E11.4295
G1 X148.021 Y78.372 E11.4422
G1 X148.353 Y78.527 E11.4544
G1 X148.673 Y78.733 E11.4671
G1 X148.951 Y78.971 E11.4792
G1 X149.206 Y79.253 E11.4919
G1 X149.412 Y79.553 E11.5040
G1 X149.582 Y79.892 E11.5166
G1 X149.701 Y80.235 E11.5287
G1 X149.775 Y80.606 E11.5413
G1 X149.809 Y81.120 E11.5584
G1 X150.078 Y81.771
G0 F4800 E10.5584
G0 X149.685 Y81.323 F10800
G0 X149.667 Y80.584
G0 F4800 E11.5584
G1 X149.697 Y81.073 E11.5747 F2159
G1 X149.655 Y81.455 E11.5875
G1 X149.554 Y81.844 E11.6009
G1 X149.447 Y82.111 E11.6104
G1 X149.293 Y82.397 E11.6212
G1 X149.084 Y82.691 E11.6332
G1 X148.898 Y82.894 E11.6424
G1 X148.617 Y83.137 E11.6547
G1 X148.381 Y83.296 E11.6642
G1 X148.094 Y83.445 E11.6749
G1 X147.758 Y83.568 E11.6869
G1 X147.492 Y83.632 E11.6960
G1 X147.124 Y83.674 E11.7083
G1 X146.840 Y83.672 E11.7177
G1 X146.520 Y83.633 E11.7284
G1 X146.173 Y83.546 E11.7403
G1 X145.917 Y83.448 E11.7494
G1 X145.589 Y83.276 E11.7618
G1 X145.355 Y83.114 E11.7713
G1 X145.111 Y82.901 E11.7820
G1 X144.872 Y82.632 E11.7940
G1 X144.715 Y82.405 E11.8031
G1 X144.540 Y82.076 E11.8156
G1 X144.437 Y81.808 E11.8251
G1 X144.355 Y81.493 E11.8359
G1 X144.309 Y81.134 E11.8480
G1 X144.307 Y80.857 E11.8572
G1 X144.347 Y80.486 E11.8696
G1 X144.413 Y80.206 E11.8792
G1 X144.523 Y79.899 E11.8900
G1 X144.686 Y79.578 E11.9020
G1 X144.840 Y79.349 E11.9112
G1 X145.082 Y79.066 E11.9235
G1 X145.292 Y78.873 E11.9330
G1 X145.554 Y78.683 E11.9438
G1 X145.869 Y78.511 E11.9557
G1 X146.122 Y78.409 E11.9648
G1 X146.480 Y78.312 E11.9771
G1 X146.761 Y78.271 E11.9866
G1 X147.083 Y78.262 E11.9973
G1 X147.440 Y78.296 E12.0092
G1 X147.706 Y78.355 E12.0183
G1 X148.056 Y78.476 E12.0306
G1 X148.312 Y78.602 E12.0401
G1 X148.584 Y78.776 E12.0508
G1 X148.860 Y79.006 E12.0628
G1 X149.049 Y79.206 E12.0719
G1 X149.271 Y79.505 E12.0843
G1 X149.412 Y79.754 E12.0939
G1 X149.541 Y80.056 E12.1048
G1 X149.648 Y80.468 E12.1189
G0 X150.031 Y113.978 F10800
G1 X149.667 Y114.575 E12.1422 F2159
G1 X149.697 Y115.065 E12.1585
G1 X149.655 Y115.447 E12.1713
G1 X149.554 Y115.836 E12.1847
G1 X149.447 Y116.103 E12.1942
G1 X149.293 Y116.389 E12.2050
G1 X149.084 Y116.683 E12.2170
G1 X148.898 Y116.886 E12.2262
G1 X148.617 Y117.129 E12.2385
G1 X148.381 Y117.288 E12.2480
G1 X148.094 Y117.436 E12.2587
G1 X147.758 Y117.560 E12.2707
G1 X147.492 Y117.623 E12.2798
G1 X147.124 Y117.666 E12.2921
G1 X146.840 Y117.664 E12.3015
G1 X146.520 Y117.625 E12.3122
G1 X146.173 Y117.538 E12.3241
G1 X145.917 Y117.440 E12.3332
G1 X145.589 Y117.268 E12.3456
G1 X145.355 Y117.106 E12.3551
G1 X145.111 Y116.892 E12.3658
G1 X144.872 Y116.623 E12.3778
G1 X144.715 Y116.397 E12.3869
G1 X144.540 Y116.068 E12.3994
G1 X144.437 Y115.800 E12.4089
G1 X144.355 Y115.484 E12.4197
G1 X144.309 Y115.126 E12.4318
G1 X144.307 Y114.849 E12.4410
G1 X144.347 Y114.477 E12.4534
G1 X144.413 Y114.198 E12.4630
G1 X144.523 Y113.891 E12.4738
G1 X144.686 Y113.569 E12.4858
G1 X144.840 Y113.341 E12.4950
G1 X145.082 Y113.058 E12.5073
G1 X145.292 Y112.865 E12.5168
G1 X145.554 Y112.675 E12.5276
G1 X145.869 Y112.502 E12.5395
G1 X146.122 Y112.400 E12.5486
G1 X146.480 Y112.303 E12.5609
G1 X146.761 Y112.263 E12.5704
G1 X147.083 Y112.253 E12.5811
G1 X147.440 Y112.288 E12.5930
G1 X147.706 Y112.347 E12.6021
G1 X148.056 Y112.468 E12.6144
G1 X148.312 Y112.593 E12.6239
G1 X148.584 Y112.767 E12.6346
G1 X148.860 Y112.998 E12.6466
G1 X149.049 Y113.198 E12.6557
G1 X149.271 Y113.497 E12.6681
G1 X149.412 Y113.746 E12.6777
G1 X149.541 Y114.048 E12.6886
G1 X149.648 Y114.459 E12.7027
G0 F4800 E11.7027
G0 X149.731 Y115.900 F10800
G0 X149.616 Y116.190
G0 X149.450 Y116.497
G0 X149.227 Y116.810
G0 X149.026 Y117.030
G0 X148.728 Y117.288
G0 X148.473 Y117.460
G0 X148.167 Y117.618
G0 X147.809 Y117.750
G0 X147.523 Y117.817
G0 X147.134 Y117.863
G0 X146.828 Y117.861
G0 X146.119 Y117.727
G0 X145.843 Y117.621
G0 X118.062 Y117.140
G0 F4800 E12.7027
;segType:HShell
G1 X116.276 Y115.263 E12.7889 F3600
G1 X116.272 Y114.702
G1 X118.592 Y117.140 E12.9008
G1 X119.123 Y117.140
G1 X116.152 Y114.018 E13.0441
;segType:Perimeter
G0 X116.027 Y113.978 F10800
G1 X115.663 Y114.575 E13.0674 F2159
G1 X115.694 Y115.065 E13.0837
G1 X115.651 Y115.447 E13.0965
G1 X115.550 Y115.836 E13.1099
